; G-Code originally generated by Simplify3D(R) Version 4.1.2
; This calibration test gcode modified by the Teaching Tech Calibration website: https://teachingtechyt.github.io/calibration.html
;M80 ; power supply on
G90
M82
M106 S0
M140 S50 ; custom bed temp
M190 S50 ; custom bed temp
M104 S150 T0 ; custom hot end temp minus 50 degrees
G28 ; home all axes
;G29 ; probe ABL
;M420 S1 ; restore ABL mesh
M109 S200 T0 ; custom hot end temp 
;customstart
G0 Z3; fix for delta printers that home at max
;process Process
;layer 1, Z = 0.200
T0
G92 E0.0000
G1 E-5 F2400 ; custom retraction
;fan1;
G1 Z0.200 F1200
G1 X97.3520 Y98.9030 F6000
G1 E0 F2400 ; custom un-retraction/prime
G92 E0.0000
G1 X98.9030 Y97.3520 E0.0709 F1800
G1 X121.0970 Y97.3520 E0.7884
G1 X122.6480 Y98.9030 E0.8593
G1 X122.6480 Y121.0970 E1.5768
G1 X121.0970 Y122.6480 E1.6477
G1 X98.9030 Y122.6480 E2.3652
G1 X97.3520 Y121.0970 E2.4362
G1 X97.3520 Y98.9030 E3.1537
G92 E0.0000
G1 E-5 F2400 ; custom retraction
;zhop1
G1 X97.7840 Y99.0820 F6000
G1 Z0.200 F1200
G1 E0 F2400 ; custom un-retraction/prime
G92 E0.0000
G1 X99.0820 Y97.7840 E0.0593 F1800
G1 X120.9180 Y97.7840 E0.7653
G1 X122.2160 Y99.0820 E0.8246
G1 X122.2160 Y120.9180 E1.5306
G1 X120.9180 Y122.2160 E1.5899
G1 X99.0820 Y122.2160 E2.2958
G1 X97.7840 Y120.9180 E2.3552
G1 X97.7840 Y99.0820 E3.0611
G92 E0.0000
G1 E-5 F2400 ; custom retraction
;zhop1
G1 X100.2160 Y100.2160 F6000
G1 X100.2160 Y100.5560
G1 X101.0800 Y101.0800
G1 Z0.200 F1200
G1 E0 F2400 ; custom un-retraction/prime
G92 E0.0000
G1 X118.9200 Y101.0800 E0.5767 F1440
G1 X118.9200 Y118.9200 E1.1535
G1 X101.0800 Y118.9200 E1.7302
G1 X101.0800 Y101.0800 E2.3070
G1 X100.6480 Y100.6480 F6000
G92 E0.0000
G1 X119.3520 Y100.6480 E0.6047 F1440
G1 X119.3520 Y119.3520 E1.2094
G1 X100.6480 Y119.3520 E1.8140
G1 X100.6480 Y100.6480 E2.4187
G1 X100.2160 Y100.2160 F6000
G92 E0.0000
G1 X119.7840 Y100.2160 E0.6326 F1080
G1 X119.7840 Y119.7840 E1.2652
G1 X100.2160 Y119.7840 E1.8978
G1 X100.2160 Y100.2160 E2.5304
G1 X118.4460 Y101.3390 F6000
G92 E0.0000
G1 X118.6610 Y101.5540 E0.0098 F1440
G1 X118.6610 Y102.1650 E0.0296
G1 X117.8350 Y101.3390 E0.0674
G1 X117.2240 Y101.3390 E0.0871
G1 X118.6610 Y102.7760 E0.1528
G1 X118.6610 Y103.3870 E0.1726
G1 X116.6130 Y101.3390 E0.2662
G1 X116.0020 Y101.3390 E0.2860
G1 X118.6610 Y103.9980 E0.4075
G1 X118.6610 Y104.6090 E0.4273
G1 X115.3910 Y101.3390 E0.5768
G1 X114.7800 Y101.3390 E0.5965
G1 X118.6610 Y105.2200 E0.7740
G1 X118.6610 Y105.8310 E0.7937
G1 X114.1690 Y101.3390 E0.9991
G1 X113.5580 Y101.3390 E1.0188
G1 X118.6610 Y106.4420 E1.2521
G1 X118.6610 Y107.0530 E1.2719
G1 X112.9470 Y101.3390 E1.5331
G1 X112.3360 Y101.3390 E1.5529
G1 X118.6610 Y107.6640 E1.8420
G1 X118.6610 Y108.2750 E1.8618
G1 X111.7250 Y101.3390 E2.1789
G1 X111.1140 Y101.3390 E2.1986
G1 X118.6610 Y108.8860 E2.5437
G1 X118.6610 Y109.4970 E2.5634
G1 X110.5030 Y101.3390 E2.9364
G1 X109.8920 Y101.3390 E2.9561
G1 X118.6610 Y110.1080 E3.3570
G1 X118.6610 Y110.7190 E3.3768
G1 X109.2810 Y101.3390 E3.8056
G1 X108.6700 Y101.3390 E3.8253
G1 X118.6610 Y111.3300 E4.2821
G1 X118.6610 Y111.9400 E4.3018
G1 X108.0600 Y101.3390 E4.7865
G1 X107.4490 Y101.3390 E4.8063
G1 X118.6610 Y112.5510 E5.3189
G1 X118.6610 Y113.1620 E5.3387
G1 X106.8380 Y101.3390 E5.8792
G1 X106.2270 Y101.3390 E5.8990
G1 X118.6610 Y113.7730 E6.4674
G1 X118.6610 Y114.3840 E6.4872
G1 X105.6160 Y101.3390 E7.0836
G1 X105.0050 Y101.3390 E7.1034
G1 X118.6610 Y114.9950 E7.7277
G1 X118.6610 Y115.6060 E7.7475
G1 X104.3940 Y101.3390 E8.3997
G1 X103.7830 Y101.3390 E8.4195
G1 X118.6610 Y116.2170 E9.0997
G1 X118.6610 Y116.8280 E9.1195
G1 X103.1720 Y101.3390 E9.8276
G1 X102.5610 Y101.3390 E9.8474
G1 X118.6610 Y117.4390 E10.5834
G1 X118.6610 Y118.0500 E10.6032
G1 X101.9500 Y101.3390 E11.3672
G1 X101.3390 Y101.3390 E11.3869
G1 X118.6610 Y118.6610 E12.1789
G1 X118.0500 Y118.6610 E12.1986
G1 X101.3390 Y101.9500 E12.9626
G1 X101.3390 Y102.5610 E12.9824
G1 X117.4390 Y118.6610 E13.7185
G1 X116.8280 Y118.6610 E13.7382
G1 X101.3390 Y103.1720 E14.4464
G1 X101.3390 Y103.7830 E14.4661
G1 X116.2170 Y118.6610 E15.1463
G1 X115.6060 Y118.6610 E15.1661
G1 X101.3390 Y104.3940 E15.8184
G1 X101.3390 Y105.0050 E15.8381
G1 X114.9950 Y118.6610 E16.4625
G1 X114.3840 Y118.6610 E16.4822
G1 X101.3390 Y105.6160 E17.0786
G1 X101.3390 Y106.2270 E17.0984
G1 X113.7730 Y118.6610 E17.6669
G1 X113.1620 Y118.6610 E17.6866
G1 X101.3390 Y106.8380 E18.2272
G1 X101.3390 Y107.4490 E18.2469
G1 X112.5510 Y118.6610 E18.7595
G1 X111.9400 Y118.6610 E18.7793
G1 X101.3390 Y108.0600 E19.2640
G1 X101.3390 Y108.6700 E19.2837
G1 X111.3300 Y118.6610 E19.7405
G1 X110.7190 Y118.6610 E19.7602
G1 X101.3390 Y109.2810 E20.1891
G1 X101.3390 Y109.8920 E20.2088
G1 X110.1080 Y118.6610 E20.6097
G1 X109.4970 Y118.6610 E20.6295
G1 X101.3390 Y110.5030 E21.0024
G1 X101.3390 Y111.1140 E21.0222
G1 X108.8860 Y118.6610 E21.3672
G1 X108.2750 Y118.6610 E21.3870
G1 X101.3390 Y111.7250 E21.7041
G1 X101.3390 Y112.3360 E21.7238
G1 X107.6640 Y118.6610 E22.0130
G1 X107.0530 Y118.6610 E22.0327
G1 X101.3390 Y112.9470 E22.2940
G1 X101.3390 Y113.5580 E22.3137
G1 X106.4420 Y118.6610 E22.5470
G1 X105.8310 Y118.6610 E22.5668
G1 X101.3390 Y114.1690 E22.7721
G1 X101.3390 Y114.7800 E22.7919
G1 X105.2200 Y118.6610 E22.9693
G1 X104.6090 Y118.6610 E22.9891
G1 X101.3390 Y115.3910 E23.1386
G1 X101.3390 Y116.0020 E23.1583
G1 X103.9980 Y118.6610 E23.2799
G1 X103.3870 Y118.6610 E23.2996
G1 X101.3390 Y116.6130 E23.3933
G1 X101.3390 Y117.2240 E23.4130
G1 X102.7760 Y118.6610 E23.4787
G1 X102.1650 Y118.6610 E23.4985
G1 X101.3390 Y117.8350 E23.5363
G1 X101.3390 Y118.4460 E23.5560
G1 X101.5540 Y118.6610 E23.5659
G92 E0.0000
G1 E-5 F2400 ; custom retraction
;layer 2, Z = 0.400
M106 S255; custom fan 100% from layer 2
G1 Z0.400 F1200
G1 X100.9000 Y119.1000 F6000
G1 E0 F2400 ; custom un-retraction/prime
G92 E0.0000
G1 X100.9000 Y100.9000 E0.4903 F2880
G1 X119.1000 Y100.9000 E0.9806
G1 X119.1000 Y119.1000 E1.4710
G1 X100.9000 Y119.1000 E1.9613
G1 X100.5400 Y119.4600 F6000
G92 E0.0000
G1 X100.5400 Y100.5400 E0.5097 F2880
G1 X119.4600 Y100.5400 E1.0194
G1 X119.4600 Y119.4600 E1.5292
G1 X100.5400 Y119.4600 E2.0389
G1 X100.1800 Y119.8200 F6000
G92 E0.0000
G1 X100.1800 Y100.1800 E0.5291 F2160
G1 X119.8200 Y100.1800 E1.0582
G1 X119.8200 Y119.8200 E1.5873
G1 X100.1800 Y119.8200 E2.1165
G1 X101.1160 Y101.5740 F6000
G92 E0.0000
G1 X101.5740 Y101.1160 E0.0175 F2880
G1 X102.0830 Y101.1160 E0.0312
G1 X101.1160 Y102.0830 E0.0680
G1 X101.1160 Y102.5920 E0.0817
G1 X102.5920 Y101.1160 E0.1380
G1 X103.1010 Y101.1160 E0.1517
G1 X101.1160 Y103.1010 E0.2273
G1 X101.1160 Y103.6110 E0.2411
G1 X103.6110 Y101.1160 E0.3361
G1 X104.1200 Y101.1160 E0.3498
G1 X101.1160 Y104.1200 E0.4643
G1 X101.1160 Y104.6290 E0.4780
G1 X104.6290 Y101.1160 E0.6118
G1 X105.1380 Y101.1160 E0.6255
G1 X101.1160 Y105.1380 E0.7788
G1 X101.1160 Y105.6470 E0.7925
G1 X105.6470 Y101.1160 E0.9651
G1 X106.1560 Y101.1160 E0.9788
G1 X101.1160 Y106.1560 E1.1708
G1 X101.1160 Y106.6650 E1.1846
G1 X106.6650 Y101.1160 E1.3960
G1 X107.1740 Y101.1160 E1.4097
G1 X101.1160 Y107.1740 E1.6405
G1 X101.1160 Y107.6830 E1.6542
G1 X107.6830 Y101.1160 E1.9045
G1 X108.1930 Y101.1160 E1.9182
G1 X101.1160 Y108.1930 E2.1878
G1 X101.1160 Y108.7020 E2.2015
G1 X108.7020 Y101.1160 E2.4905
G1 X109.2110 Y101.1160 E2.5042
G1 X101.1160 Y109.2110 E2.8126
G1 X101.1160 Y109.7200 E2.8264
G1 X109.7200 Y101.1160 E3.1542
G1 X110.2290 Y101.1160 E3.1679
G1 X101.1160 Y110.2290 E3.5151
G1 X101.1160 Y110.7380 E3.5288
G1 X110.7380 Y101.1160 E3.8954
G1 X111.2470 Y101.1160 E3.9091
G1 X101.1160 Y111.2470 E4.2951
G1 X101.1160 Y111.7560 E4.3088
G1 X111.7560 Y101.1160 E4.7142
G1 X112.2660 Y101.1160 E4.7280
G1 X101.1160 Y112.2660 E5.1528
G1 X101.1160 Y112.7750 E5.1665
G1 X112.7750 Y101.1160 E5.6107
G1 X113.2840 Y101.1160 E5.6244
G1 X101.1160 Y113.2840 E6.0880
G1 X101.1160 Y113.7930 E6.1017
G1 X113.7930 Y101.1160 E6.5847
G1 X114.3020 Y101.1160 E6.5984
G1 X101.1160 Y114.3020 E7.1008
G1 X101.1160 Y114.8110 E7.1145
G1 X114.8110 Y101.1160 E7.6363
G1 X115.3200 Y101.1160 E7.6500
G1 X101.1160 Y115.3200 E8.1912
G1 X101.1160 Y115.8290 E8.2049
G1 X115.8290 Y101.1160 E8.7655
G1 X116.3380 Y101.1160 E8.7792
G1 X101.1160 Y116.3380 E9.3592
G1 X101.1160 Y116.8480 E9.3729
G1 X116.8480 Y101.1160 E9.9722
G1 X117.3570 Y101.1160 E9.9860
G1 X101.1160 Y117.3570 E10.6047
G1 X101.1160 Y117.8660 E10.6184
G1 X117.8660 Y101.1160 E11.2566
G1 X118.3750 Y101.1160 E11.2703
G1 X101.1160 Y118.3750 E11.9279
G1 X101.1160 Y118.8840 E11.9416
G1 X118.8840 Y101.1160 E12.6186
G1 X118.8840 Y101.6250 E12.6323
G1 X101.6250 Y118.8840 E13.2898
G1 X102.1340 Y118.8840 E13.3036
G1 X118.8840 Y102.1340 E13.9417
G1 X118.8840 Y102.6430 E13.9554
G1 X102.6430 Y118.8840 E14.5742
G1 X103.1530 Y118.8840 E14.5879
G1 X118.8840 Y103.1530 E15.1873
G1 X118.8840 Y103.6620 E15.2010
G1 X103.6620 Y118.8840 E15.7810
G1 X104.1710 Y118.8840 E15.7947
G1 X118.8840 Y104.1710 E16.3553
G1 X118.8840 Y104.6800 E16.3690
G1 X104.6800 Y118.8840 E16.9102
G1 X105.1890 Y118.8840 E16.9239
G1 X118.8840 Y105.1890 E17.4457
G1 X118.8840 Y105.6980 E17.4594
G1 X105.6980 Y118.8840 E17.9617
G1 X106.2070 Y118.8840 E17.9755
G1 X118.8840 Y106.2070 E18.4584
G1 X118.8840 Y106.7160 E18.4722
G1 X106.7160 Y118.8840 E18.9358
G1 X107.2250 Y118.8840 E18.9495
G1 X118.8840 Y107.2250 E19.3937
G1 X118.8840 Y107.7350 E19.4074
G1 X107.7350 Y118.8840 E19.8322
G1 X108.2440 Y118.8840 E19.8459
G1 X118.8840 Y108.2440 E20.2513
G1 X118.8840 Y108.7530 E20.2650
G1 X108.7530 Y118.8840 E20.6510
G1 X109.2620 Y118.8840 E20.6647
G1 X118.8840 Y109.2620 E21.0313
G1 X118.8840 Y109.7710 E21.0450
G1 X109.7710 Y118.8840 E21.3922
G1 X110.2800 Y118.8840 E21.4059
G1 X118.8840 Y110.2800 E21.7338
G1 X118.8840 Y110.7890 E21.7475
G1 X110.7890 Y118.8840 E22.0559
G1 X111.2980 Y118.8840 E22.0696
G1 X118.8840 Y111.2980 E22.3586
G1 X118.8840 Y111.8070 E22.3723
G1 X111.8070 Y118.8840 E22.6419
G1 X112.3170 Y118.8840 E22.6557
G1 X118.8840 Y112.3170 E22.9059
G1 X118.8840 Y112.8260 E22.9196
G1 X112.8260 Y118.8840 E23.1504
G1 X113.3350 Y118.8840 E23.1641
G1 X118.8840 Y113.3350 E23.3755
G1 X118.8840 Y113.8440 E23.3893
G1 X113.8440 Y118.8840 E23.5813
G1 X114.3530 Y118.8840 E23.5950
G1 X118.8840 Y114.3530 E23.7676
G1 X118.8840 Y114.8620 E23.7813
G1 X114.8620 Y118.8840 E23.9346
G1 X115.3710 Y118.8840 E23.9483
G1 X118.8840 Y115.3710 E24.0821
G1 X118.8840 Y115.8800 E24.0958
G1 X115.8800 Y118.8840 E24.2103
G1 X116.3900 Y118.8840 E24.2240
G1 X118.8840 Y116.3900 E24.3190
G1 X118.8840 Y116.8990 E24.3327
G1 X116.8990 Y118.8840 E24.4084
G1 X117.4080 Y118.8840 E24.4221
G1 X118.8840 Y117.4080 E24.4783
G1 X118.8840 Y117.9170 E24.4921
G1 X117.9170 Y118.8840 E24.5289
G1 X118.4260 Y118.8840 E24.5426
G1 X118.8840 Y118.4260 E24.5601
G92 E0.0000
G1 E-5 F2400 ; custom retraction
;layer 3, Z = 0.600
;fan3;
G1 Z0.600 F1200
G1 X119.1000 Y119.1000 F6000
G1 E0 F2400 ; custom un-retraction/prime
G92 E0.0000
G1 X100.9000 Y119.1000 E0.4903 F2880
G1 X100.9000 Y100.9000 E0.9806
G1 X119.1000 Y100.9000 E1.4710
G1 X119.1000 Y119.1000 E1.9613
G1 X119.4600 Y119.4600 F6000
G92 E0.0000
G1 X100.5400 Y119.4600 E0.5097 F2880
G1 X100.5400 Y100.5400 E1.0194
G1 X119.4600 Y100.5400 E1.5292
G1 X119.4600 Y119.4600 E2.0389
G1 X119.8200 Y119.8200 F6000
G92 E0.0000
G1 X100.1800 Y119.8200 E0.5291 F2160
G1 X100.1800 Y100.1800 E1.0582
G1 X119.8200 Y100.1800 E1.5873
G1 X119.8200 Y119.8200 E2.1165
G1 X101.5740 Y118.8840 F6000
G92 E0.0000
G1 X101.1160 Y118.4260 E0.0175 F2880
G1 X101.1160 Y117.9170 E0.0312
G1 X102.0830 Y118.8840 E0.0680
G1 X102.5920 Y118.8840 E0.0817
G1 X101.1160 Y117.4080 E0.1380
G1 X101.1160 Y116.8990 E0.1517
G1 X103.1010 Y118.8840 E0.2273
G1 X103.6110 Y118.8840 E0.2411
G1 X101.1160 Y116.3890 E0.3361
G1 X101.1160 Y115.8800 E0.3498
G1 X104.1200 Y118.8840 E0.4642
G1 X104.6290 Y118.8840 E0.4780
G1 X101.1160 Y115.3710 E0.6118
G1 X101.1160 Y114.8620 E0.6255
G1 X105.1380 Y118.8840 E0.7787
G1 X105.6470 Y118.8840 E0.7925
G1 X101.1160 Y114.3530 E0.9651
G1 X101.1160 Y113.8440 E0.9788
G1 X106.1560 Y118.8840 E1.1708
G1 X106.6650 Y118.8840 E1.1846
G1 X101.1160 Y113.3350 E1.3960
G1 X101.1160 Y112.8260 E1.4097
G1 X107.1740 Y118.8840 E1.6405
G1 X107.6830 Y118.8840 E1.6542
G1 X101.1160 Y112.3170 E1.9044
G1 X101.1160 Y111.8070 E1.9182
G1 X108.1930 Y118.8840 E2.1878
G1 X108.7020 Y118.8840 E2.2015
G1 X101.1160 Y111.2980 E2.4905
G1 X101.1160 Y110.7890 E2.5042
G1 X109.2110 Y118.8840 E2.8126
G1 X109.7200 Y118.8840 E2.8264
G1 X101.1160 Y110.2800 E3.1542
G1 X101.1160 Y109.7710 E3.1679
G1 X110.2290 Y118.8840 E3.5151
G1 X110.7380 Y118.8840 E3.5288
G1 X101.1160 Y109.2620 E3.8954
G1 X101.1160 Y108.7530 E3.9091
G1 X111.2470 Y118.8840 E4.2951
G1 X111.7560 Y118.8840 E4.3088
G1 X101.1160 Y108.2440 E4.7142
G1 X101.1160 Y107.7350 E4.7279
G1 X112.2650 Y118.8840 E5.1527
G1 X112.7750 Y118.8840 E5.1665
G1 X101.1160 Y107.2250 E5.6106
G1 X101.1160 Y106.7160 E5.6244
G1 X113.2840 Y118.8840 E6.0880
G1 X113.7930 Y118.8840 E6.1017
G1 X101.1160 Y106.2070 E6.5847
G1 X101.1160 Y105.6980 E6.5984
G1 X114.3020 Y118.8840 E7.1008
G1 X114.8110 Y118.8840 E7.1145
G1 X101.1160 Y105.1890 E7.6363
G1 X101.1160 Y104.6800 E7.6500
G1 X115.3200 Y118.8840 E8.1911
G1 X115.8290 Y118.8840 E8.2049
G1 X101.1160 Y104.1710 E8.7654
G1 X101.1160 Y103.6620 E8.7792
G1 X116.3380 Y118.8840 E9.3591
G1 X116.8480 Y118.8840 E9.3728
G1 X101.1160 Y103.1520 E9.9722
G1 X101.1160 Y102.6430 E9.9859
G1 X117.3570 Y118.8840 E10.6047
G1 X117.8660 Y118.8840 E10.6184
G1 X101.1160 Y102.1340 E11.2566
G1 X101.1160 Y101.6250 E11.2703
G1 X118.3750 Y118.8840 E11.9279
G1 X118.8840 Y118.8840 E11.9416
G1 X101.1160 Y101.1160 E12.6185
G1 X101.6250 Y101.1160 E12.6323
G1 X118.8840 Y118.3750 E13.2898
G1 X118.8840 Y117.8660 E13.3035
G1 X102.1340 Y101.1160 E13.9417
G1 X102.6430 Y101.1160 E13.9554
G1 X118.8840 Y117.3570 E14.5742
G1 X118.8840 Y116.8480 E14.5879
G1 X103.1520 Y101.1160 E15.1873
G1 X103.6620 Y101.1160 E15.2010
G1 X118.8840 Y116.3380 E15.7809
G1 X118.8840 Y115.8290 E15.7947
G1 X104.1710 Y101.1160 E16.3552
G1 X104.6800 Y101.1160 E16.3690
G1 X118.8840 Y115.3200 E16.9101
G1 X118.8840 Y114.8110 E16.9239
G1 X105.1890 Y101.1160 E17.4456
G1 X105.6980 Y101.1160 E17.4593
G1 X118.8840 Y114.3020 E17.9617
G1 X118.8840 Y113.7930 E17.9754
G1 X106.2070 Y101.1160 E18.4584
G1 X106.7160 Y101.1160 E18.4721
G1 X118.8840 Y113.2840 E18.9357
G1 X118.8840 Y112.7750 E18.9495
G1 X107.2250 Y101.1160 E19.3936
G1 X107.7350 Y101.1160 E19.4074
G1 X118.8840 Y112.2650 E19.8322
G1 X118.8840 Y111.7560 E19.8459
G1 X108.2440 Y101.1160 E20.2513
G1 X108.7530 Y101.1160 E20.2650
G1 X118.8840 Y111.2470 E20.6510
G1 X118.8840 Y110.7380 E20.6647
G1 X109.2620 Y101.1160 E21.0313
G1 X109.7710 Y101.1160 E21.0450
G1 X118.8840 Y110.2290 E21.3922
G1 X118.8840 Y109.7200 E21.4059
G1 X110.2800 Y101.1160 E21.7337
G1 X110.7890 Y101.1160 E21.7475
G1 X118.8840 Y109.2110 E22.0559
G1 X118.8840 Y108.7020 E22.0696
G1 X111.2980 Y101.1160 E22.3586
G1 X111.8070 Y101.1160 E22.3723
G1 X118.8840 Y108.1930 E22.6419
G1 X118.8840 Y107.6830 E22.6556
G1 X112.3170 Y101.1160 E22.9059
G1 X112.8260 Y101.1160 E22.9196
G1 X118.8840 Y107.1740 E23.1504
G1 X118.8840 Y106.6650 E23.1641
G1 X113.3350 Y101.1160 E23.3755
G1 X113.8440 Y101.1160 E23.3893
G1 X118.8840 Y106.1560 E23.5813
G1 X118.8840 Y105.6470 E23.5950
G1 X114.3530 Y101.1160 E23.7676
G1 X114.8620 Y101.1160 E23.7813
G1 X118.8840 Y105.1380 E23.9346
G1 X118.8840 Y104.6290 E23.9483
G1 X115.3710 Y101.1160 E24.0821
G1 X115.8800 Y101.1160 E24.0958
G1 X118.8840 Y104.1200 E24.2103
G1 X118.8840 Y103.6100 E24.2240
G1 X116.3900 Y101.1160 E24.3190
G1 X116.8990 Y101.1160 E24.3327
G1 X118.8840 Y103.1010 E24.4084
G1 X118.8840 Y102.5920 E24.4221
G1 X117.4080 Y101.1160 E24.4783
G1 X117.9170 Y101.1160 E24.4921
G1 X118.8840 Y102.0830 E24.5289
G1 X118.8840 Y101.5740 E24.5426
G1 X118.4260 Y101.1160 E24.5601
G92 E0.0000
G1 E-5 F2400 ; custom retraction
;layer 4, Z = 0.800
;fan4;
G1 Z0.800 F1200
G1 X119.1000 Y100.9000 F6000
G1 E0 F2400 ; custom un-retraction/prime
G92 E0.0000
G1 X119.1000 Y119.1000 E0.4903 F2880
G1 X100.9000 Y119.1000 E0.9806
G1 X100.9000 Y100.9000 E1.4710
G1 X119.1000 Y100.9000 E1.9613
G1 X119.4600 Y100.5400 F6000
G92 E0.0000
G1 X119.4600 Y119.4600 E0.5097 F2880
G1 X100.5400 Y119.4600 E1.0194
G1 X100.5400 Y100.5400 E1.5292
G1 X119.4600 Y100.5400 E2.0389
G1 X119.8200 Y100.1800 F6000
G92 E0.0000
G1 X119.8200 Y119.8200 E0.5291 F2160
G1 X100.1800 Y119.8200 E1.0582
G1 X100.1800 Y100.1800 E1.5873
G1 X119.8200 Y100.1800 E2.1165
G1 X118.8390 Y117.0710 F6000
G92 E0.0000
G1 X117.0710 Y118.8390 E0.0842 F3600
G1 X113.8890 Y118.8390 E0.1914
G1 X118.8390 Y113.8890 E0.4271
G1 X118.8390 Y110.7070 E0.5343
G1 X110.7070 Y118.8390 E0.9215
G1 X107.5250 Y118.8390 E1.0287
G1 X118.8390 Y107.5250 E1.5675
G1 X118.8390 Y104.3430 E1.6747
G1 X104.3430 Y118.8390 E2.3651
G1 X101.1610 Y118.8390 E2.4722
G1 X118.8390 Y101.1610 E3.3141
G1 X115.6570 Y101.1610 E3.4213
G1 X101.1610 Y115.6570 E4.1117
G1 X101.1610 Y112.4750 E4.2188
G1 X112.4750 Y101.1610 E4.7576
G1 X109.2930 Y101.1610 E4.8648
G1 X101.1610 Y109.2930 E5.2521
G1 X101.1610 Y106.1110 E5.3592
G1 X106.1110 Y101.1610 E5.5950
G1 X102.9290 Y101.1610 E5.7021
G1 X101.1610 Y102.9290 E5.7864
G92 E0.0000
G1 E-5 F2400 ; custom retraction
;layer 5, Z = 1.000
;fan5;
;
G1 Z1.000 F1200
G1 X100.9000 Y100.9000 F6000
G1 E0 F2400 ; custom un-retraction/prime
G92 E0.0000
G1 X119.1000 Y100.9000 E0.4903 F2880
G1 X119.1000 Y119.1000 E0.9806
G1 X100.9000 Y119.1000 E1.4710
G1 X100.9000 Y100.9000 E1.9613
G1 X100.5400 Y100.5400 F6000
G92 E0.0000
G1 X119.4600 Y100.5400 E0.5097 F2880
G1 X119.4600 Y119.4600 E1.0194
G1 X100.5400 Y119.4600 E1.5292
G1 X100.5400 Y100.5400 E2.0389
G1 X100.1800 Y100.1800 F6000
G92 E0.0000
G1 X119.8200 Y100.1800 E0.5291 F2160
G1 X119.8200 Y119.8200 E1.0582
G1 X100.1800 Y119.8200 E1.5873
G1 X100.1800 Y100.1800 E2.1165
G1 X117.0710 Y101.1610 F6000
G92 E0.0000
G1 X118.8390 Y102.9290 E0.0842 F3600
G1 X118.8390 Y106.1110 E0.1914
G1 X113.8890 Y101.1610 E0.4271
G1 X110.7070 Y101.1610 E0.5343
G1 X118.8390 Y109.2930 E0.9216
G1 X118.8390 Y112.4750 E1.0287
G1 X107.5250 Y101.1610 E1.5675
G1 X104.3430 Y101.1610 E1.6747
G1 X118.8390 Y115.6570 E2.3651
G1 X118.8390 Y118.8390 E2.4722
G1 X101.1610 Y101.1610 E3.3141
G1 X101.1610 Y104.3430 E3.4213
G1 X115.6570 Y118.8390 E4.1117
G1 X112.4750 Y118.8390 E4.2188
G1 X101.1610 Y107.5250 E4.7576
G1 X101.1610 Y110.7070 E4.8648
G1 X109.2930 Y118.8390 E5.2521
G1 X106.1110 Y118.8390 E5.3592
G1 X101.1610 Y113.8890 E5.5950
G1 X101.1610 Y117.0710 E5.7022
G1 X102.9290 Y118.8390 E5.7864
G92 E0.0000
G1 E-5 F2400 ; custom retraction
;layer 6, Z = 1.200
;fan6;
G1 Z1.200 F1200
G1 X100.9000 Y119.1000 F6000
G1 E0 F2400 ; custom un-retraction/prime
G92 E0.0000
G1 X100.9000 Y100.9000 E0.4903 F2880
G1 X119.1000 Y100.9000 E0.9806
G1 X119.1000 Y119.1000 E1.4710
G1 X100.9000 Y119.1000 E1.9613
G1 X100.5400 Y119.4600 F6000
G92 E0.0000
G1 X100.5400 Y100.5400 E0.5097 F2880
G1 X119.4600 Y100.5400 E1.0194
G1 X119.4600 Y119.4600 E1.5292
G1 X100.5400 Y119.4600 E2.0389
G1 X100.1800 Y119.8200 F6000
G92 E0.0000
G1 X100.1800 Y100.1800 E0.5291 F2160
G1 X119.8200 Y100.1800 E1.0582
G1 X119.8200 Y119.8200 E1.5873
G1 X100.1800 Y119.8200 E2.1165
G1 X101.1610 Y102.9290 F6000
G92 E0.0000
G1 X102.9290 Y101.1610 E0.0842 F3600
G1 X106.1110 Y101.1610 E0.1914
G1 X101.1610 Y106.1110 E0.4271
G1 X101.1610 Y109.2930 E0.5343
G1 X109.2930 Y101.1610 E0.9216
G1 X112.4750 Y101.1610 E1.0287
G1 X101.1610 Y112.4750 E1.5675
G1 X101.1610 Y115.6570 E1.6747
G1 X115.6570 Y101.1610 E2.3651
G1 X118.8390 Y101.1610 E2.4722
G1 X101.1610 Y118.8390 E3.3141
G1 X104.3430 Y118.8390 E3.4213
G1 X118.8390 Y104.3430 E4.1117
G1 X118.8390 Y107.5250 E4.2188
G1 X107.5250 Y118.8390 E4.7577
G1 X110.7070 Y118.8390 E4.8648
G1 X118.8390 Y110.7070 E5.2521
G1 X118.8390 Y113.8890 E5.3593
G1 X113.8890 Y118.8390 E5.5950
G1 X117.0710 Y118.8390 E5.7022
G1 X118.8390 Y117.0710 E5.7864
G92 E0.0000
G1 E-5 F2400 ; custom retraction
;layer 7, Z = 1.400
;fan7;
G1 Z1.400 F1200
G1 X119.1000 Y119.1000 F6000
G1 E0 F2400 ; custom un-retraction/prime
G92 E0.0000
G1 X100.9000 Y119.1000 E0.4903 F2880
G1 X100.9000 Y100.9000 E0.9806
G1 X119.1000 Y100.9000 E1.4710
G1 X119.1000 Y119.1000 E1.9613
G1 X119.4600 Y119.4600 F6000
G92 E0.0000
G1 X100.5400 Y119.4600 E0.5097 F2880
G1 X100.5400 Y100.5400 E1.0194
G1 X119.4600 Y100.5400 E1.5292
G1 X119.4600 Y119.4600 E2.0389
G1 X119.8200 Y119.8200 F6000
G92 E0.0000
G1 X100.1800 Y119.8200 E0.5291 F2160
G1 X100.1800 Y100.1800 E1.0582
G1 X119.8200 Y100.1800 E1.5873
G1 X119.8200 Y119.8200 E2.1165
G1 X102.9290 Y118.8390 F6000
G92 E0.0000
G1 X101.1610 Y117.0710 E0.0842 F3600
G1 X101.1610 Y113.8890 E0.1914
G1 X106.1110 Y118.8390 E0.4271
G1 X109.2930 Y118.8390 E0.5343
G1 X101.1610 Y110.7070 E0.9216
G1 X101.1610 Y107.5250 E1.0287
G1 X112.4750 Y118.8390 E1.5675
G1 X115.6570 Y118.8390 E1.6747
G1 X101.1610 Y104.3430 E2.3651
G1 X101.1610 Y101.1610 E2.4722
G1 X118.8390 Y118.8390 E3.3141
G1 X118.8390 Y115.6570 E3.4213
G1 X104.3430 Y101.1610 E4.1117
G1 X107.5250 Y101.1610 E4.2188
G1 X118.8390 Y112.4750 E4.7576
G1 X118.8390 Y109.2930 E4.8648
G1 X110.7070 Y101.1610 E5.2521
G1 X113.8890 Y101.1610 E5.3592
G1 X118.8390 Y106.1110 E5.5950
G1 X118.8390 Y102.9290 E5.7022
G1 X117.0710 Y101.1610 E5.7864
G92 E0.0000
G1 E-5 F2400 ; custom retraction
;layer 8, Z = 1.600
;fan8;
G1 Z1.600 F1200
G1 X119.1000 Y100.9000 F6000
G1 E0 F2400 ; custom un-retraction/prime
G92 E0.0000
G1 X119.1000 Y119.1000 E0.4903 F2880
G1 X100.9000 Y119.1000 E0.9806
G1 X100.9000 Y100.9000 E1.4710
G1 X119.1000 Y100.9000 E1.9613
G1 X119.4600 Y100.5400 F6000
G92 E0.0000
G1 X119.4600 Y119.4600 E0.5097 F2880
G1 X100.5400 Y119.4600 E1.0194
G1 X100.5400 Y100.5400 E1.5292
G1 X119.4600 Y100.5400 E2.0389
G1 X119.8200 Y100.1800 F6000
G92 E0.0000
G1 X119.8200 Y119.8200 E0.5291 F2160
G1 X100.1800 Y119.8200 E1.0582
G1 X100.1800 Y100.1800 E1.5873
G1 X119.8200 Y100.1800 E2.1165
G1 X118.8390 Y117.0710 F6000
G92 E0.0000
G1 X117.0710 Y118.8390 E0.0842 F3600
G1 X113.8890 Y118.8390 E0.1914
G1 X118.8390 Y113.8890 E0.4271
G1 X118.8390 Y110.7070 E0.5343
G1 X110.7070 Y118.8390 E0.9215
G1 X107.5250 Y118.8390 E1.0287
G1 X118.8390 Y107.5250 E1.5675
G1 X118.8390 Y104.3430 E1.6747
G1 X104.3430 Y118.8390 E2.3651
G1 X101.1610 Y118.8390 E2.4722
G1 X118.8390 Y101.1610 E3.3141
G1 X115.6570 Y101.1610 E3.4213
G1 X101.1610 Y115.6570 E4.1117
G1 X101.1610 Y112.4750 E4.2188
G1 X112.4750 Y101.1610 E4.7576
G1 X109.2930 Y101.1610 E4.8648
G1 X101.1610 Y109.2930 E5.2521
G1 X101.1610 Y106.1110 E5.3592
G1 X106.1110 Y101.1610 E5.5950
G1 X102.9290 Y101.1610 E5.7021
G1 X101.1610 Y102.9290 E5.7864
G92 E0.0000
G1 E-5 F2400 ; custom retraction
;layer 9, Z = 1.800
;fan9;
G1 Z1.800 F1200
G1 X100.9000 Y100.9000 F6000
G1 E0 F2400 ; custom un-retraction/prime
G92 E0.0000
G1 X119.1000 Y100.9000 E0.4903 F2880
G1 X119.1000 Y119.1000 E0.9806
G1 X100.9000 Y119.1000 E1.4710
G1 X100.9000 Y100.9000 E1.9613
G1 X100.5400 Y100.5400 F6000
G92 E0.0000
G1 X119.4600 Y100.5400 E0.5097 F2880
G1 X119.4600 Y119.4600 E1.0194
G1 X100.5400 Y119.4600 E1.5292
G1 X100.5400 Y100.5400 E2.0389
G1 X100.1800 Y100.1800 F6000
G92 E0.0000
G1 X119.8200 Y100.1800 E0.5291 F2160
G1 X119.8200 Y119.8200 E1.0582
G1 X100.1800 Y119.8200 E1.5873
G1 X100.1800 Y100.1800 E2.1165
G1 X117.0710 Y101.1610 F6000
G92 E0.0000
G1 X118.8390 Y102.9290 E0.0842 F3600
G1 X118.8390 Y106.1110 E0.1914
G1 X113.8890 Y101.1610 E0.4271
G1 X110.7070 Y101.1610 E0.5343
G1 X118.8390 Y109.2930 E0.9216
G1 X118.8390 Y112.4750 E1.0287
G1 X107.5250 Y101.1610 E1.5675
G1 X104.3430 Y101.1610 E1.6747
G1 X118.8390 Y115.6570 E2.3651
G1 X118.8390 Y118.8390 E2.4722
G1 X101.1610 Y101.1610 E3.3141
G1 X101.1610 Y104.3430 E3.4213
G1 X115.6570 Y118.8390 E4.1117
G1 X112.4750 Y118.8390 E4.2188
G1 X101.1610 Y107.5250 E4.7576
G1 X101.1610 Y110.7070 E4.8648
G1 X109.2930 Y118.8390 E5.2521
G1 X106.1110 Y118.8390 E5.3592
G1 X101.1610 Y113.8890 E5.5950
G1 X101.1610 Y117.0710 E5.7022
G1 X102.9290 Y118.8390 E5.7864
G92 E0.0000
G1 E-5 F2400 ; custom retraction
;layer 10, Z = 2.000
;fan10;
G1 Z2.000 F1200
G1 X100.9000 Y119.1000 F6000
G1 E0 F2400 ; custom un-retraction/prime
G92 E0.0000
G1 X100.9000 Y100.9000 E0.4903 F2880
G1 X119.1000 Y100.9000 E0.9806
G1 X119.1000 Y119.1000 E1.4710
G1 X100.9000 Y119.1000 E1.9613
G1 X100.5400 Y119.4600 F6000
G92 E0.0000
G1 X100.5400 Y100.5400 E0.5097 F2880
G1 X119.4600 Y100.5400 E1.0194
G1 X119.4600 Y119.4600 E1.5292
G1 X100.5400 Y119.4600 E2.0389
G1 X100.1800 Y119.8200 F6000
G92 E0.0000
G1 X100.1800 Y100.1800 E0.5291 F2160
G1 X119.8200 Y100.1800 E1.0582
G1 X119.8200 Y119.8200 E1.5873
G1 X100.1800 Y119.8200 E2.1165
G1 X101.1610 Y102.9290 F6000
G92 E0.0000
G1 X102.9290 Y101.1610 E0.0842 F3600
G1 X106.1110 Y101.1610 E0.1914
G1 X101.1610 Y106.1110 E0.4271
G1 X101.1610 Y109.2930 E0.5343
G1 X109.2930 Y101.1610 E0.9216
G1 X112.4750 Y101.1610 E1.0287
G1 X101.1610 Y112.4750 E1.5675
G1 X101.1610 Y115.6570 E1.6747
G1 X115.6570 Y101.1610 E2.3651
G1 X118.8390 Y101.1610 E2.4722
G1 X101.1610 Y118.8390 E3.3141
G1 X104.3430 Y118.8390 E3.4213
G1 X118.8390 Y104.3430 E4.1117
G1 X118.8390 Y107.5250 E4.2188
G1 X107.5250 Y118.8390 E4.7577
G1 X110.7070 Y118.8390 E4.8648
G1 X118.8390 Y110.7070 E5.2521
G1 X118.8390 Y113.8890 E5.3593
G1 X113.8890 Y118.8390 E5.5950
G1 X117.0710 Y118.8390 E5.7022
G1 X118.8390 Y117.0710 E5.7864
G92 E0.0000
G1 E-5 F2400 ; custom retraction
;layer 11, Z = 2.200
;fan11;
G1 Z2.200 F1200
G1 X119.1000 Y119.1000 F6000
G1 E0 F2400 ; custom un-retraction/prime
G92 E0.0000
G1 X100.9000 Y119.1000 E0.4903 F2880
G1 X100.9000 Y100.9000 E0.9806
G1 X119.1000 Y100.9000 E1.4710
G1 X119.1000 Y119.1000 E1.9613
G1 X119.4600 Y119.4600 F6000
G92 E0.0000
G1 X100.5400 Y119.4600 E0.5097 F2880
G1 X100.5400 Y100.5400 E1.0194
G1 X119.4600 Y100.5400 E1.5292
G1 X119.4600 Y119.4600 E2.0389
G1 X119.8200 Y119.8200 F6000
G92 E0.0000
G1 X100.1800 Y119.8200 E0.5291 F2160
G1 X100.1800 Y100.1800 E1.0582
G1 X119.8200 Y100.1800 E1.5873
G1 X119.8200 Y119.8200 E2.1165
G1 X102.9290 Y118.8390 F6000
G92 E0.0000
G1 X101.1610 Y117.0710 E0.0842 F3600
G1 X101.1610 Y113.8890 E0.1914
G1 X106.1110 Y118.8390 E0.4271
G1 X109.2930 Y118.8390 E0.5343
G1 X101.1610 Y110.7070 E0.9216
G1 X101.1610 Y107.5250 E1.0287
G1 X112.4750 Y118.8390 E1.5675
G1 X115.6570 Y118.8390 E1.6747
G1 X101.1610 Y104.3430 E2.3651
G1 X101.1610 Y101.1610 E2.4722
G1 X118.8390 Y118.8390 E3.3141
G1 X118.8390 Y115.6570 E3.4213
G1 X104.3430 Y101.1610 E4.1117
G1 X107.5250 Y101.1610 E4.2188
G1 X118.8390 Y112.4750 E4.7576
G1 X118.8390 Y109.2930 E4.8648
G1 X110.7070 Y101.1610 E5.2521
G1 X113.8890 Y101.1610 E5.3592
G1 X118.8390 Y106.1110 E5.5950
G1 X118.8390 Y102.9290 E5.7022
G1 X117.0710 Y101.1610 E5.7864
G92 E0.0000
G1 E-5 F2400 ; custom retraction
;layer 12, Z = 2.400
;fan12;
G1 Z2.400 F1200
G1 X119.1000 Y100.9000 F6000
G1 E0 F2400 ; custom un-retraction/prime
G92 E0.0000
G1 X119.1000 Y119.1000 E0.4903 F2880
G1 X100.9000 Y119.1000 E0.9806
G1 X100.9000 Y100.9000 E1.4710
G1 X119.1000 Y100.9000 E1.9613
G1 X119.4600 Y100.5400 F6000
G92 E0.0000
G1 X119.4600 Y119.4600 E0.5097 F2880
G1 X100.5400 Y119.4600 E1.0194
G1 X100.5400 Y100.5400 E1.5292
G1 X119.4600 Y100.5400 E2.0389
G1 X119.8200 Y100.1800 F6000
G92 E0.0000
G1 X119.8200 Y119.8200 E0.5291 F2160
G1 X100.1800 Y119.8200 E1.0582
G1 X100.1800 Y100.1800 E1.5873
G1 X119.8200 Y100.1800 E2.1165
G1 X118.8390 Y117.0710 F6000
G92 E0.0000
G1 X117.0710 Y118.8390 E0.0842 F3600
G1 X113.8890 Y118.8390 E0.1914
G1 X118.8390 Y113.8890 E0.4271
G1 X118.8390 Y110.7070 E0.5343
G1 X110.7070 Y118.8390 E0.9215
G1 X107.5250 Y118.8390 E1.0287
G1 X118.8390 Y107.5250 E1.5675
G1 X118.8390 Y104.3430 E1.6747
G1 X104.3430 Y118.8390 E2.3651
G1 X101.1610 Y118.8390 E2.4722
G1 X118.8390 Y101.1610 E3.3141
G1 X115.6570 Y101.1610 E3.4213
G1 X101.1610 Y115.6570 E4.1117
G1 X101.1610 Y112.4750 E4.2188
G1 X112.4750 Y101.1610 E4.7576
G1 X109.2930 Y101.1610 E4.8648
G1 X101.1610 Y109.2930 E5.2521
G1 X101.1610 Y106.1110 E5.3592
G1 X106.1110 Y101.1610 E5.5950
G1 X102.9290 Y101.1610 E5.7021
G1 X101.1610 Y102.9290 E5.7864
G92 E0.0000
G1 E-5 F2400 ; custom retraction
;layer 13, Z = 2.600
;fan13;
G1 Z2.600 F1200
G1 X100.9000 Y100.9000 F6000
G1 E0 F2400 ; custom un-retraction/prime
G92 E0.0000
G1 X119.1000 Y100.9000 E0.4903 F2880
G1 X119.1000 Y119.1000 E0.9806
G1 X100.9000 Y119.1000 E1.4710
G1 X100.9000 Y100.9000 E1.9613
G1 X100.5400 Y100.5400 F6000
G92 E0.0000
G1 X119.4600 Y100.5400 E0.5097 F2880
G1 X119.4600 Y119.4600 E1.0194
G1 X100.5400 Y119.4600 E1.5292
G1 X100.5400 Y100.5400 E2.0389
G1 X100.1800 Y100.1800 F6000
G92 E0.0000
G1 X119.8200 Y100.1800 E0.5291 F2160
G1 X119.8200 Y119.8200 E1.0582
G1 X100.1800 Y119.8200 E1.5873
G1 X100.1800 Y100.1800 E2.1165
G1 X117.0710 Y101.1610 F6000
G92 E0.0000
G1 X118.8390 Y102.9290 E0.0842 F3600
G1 X118.8390 Y106.1110 E0.1914
G1 X113.8890 Y101.1610 E0.4271
G1 X110.7070 Y101.1610 E0.5343
G1 X118.8390 Y109.2930 E0.9216
G1 X118.8390 Y112.4750 E1.0287
G1 X107.5250 Y101.1610 E1.5675
G1 X104.3430 Y101.1610 E1.6747
G1 X118.8390 Y115.6570 E2.3651
G1 X118.8390 Y118.8390 E2.4722
G1 X101.1610 Y101.1610 E3.3141
G1 X101.1610 Y104.3430 E3.4213
G1 X115.6570 Y118.8390 E4.1117
G1 X112.4750 Y118.8390 E4.2188
G1 X101.1610 Y107.5250 E4.7576
G1 X101.1610 Y110.7070 E4.8648
G1 X109.2930 Y118.8390 E5.2521
G1 X106.1110 Y118.8390 E5.3592
G1 X101.1610 Y113.8890 E5.5950
G1 X101.1610 Y117.0710 E5.7022
G1 X102.9290 Y118.8390 E5.7864
G92 E0.0000
G1 E-5 F2400 ; custom retraction
;layer 14, Z = 2.800
;fan14;
G1 Z2.800 F1200
G1 X100.9000 Y119.1000 F6000
G1 E0 F2400 ; custom un-retraction/prime
G92 E0.0000
G1 X100.9000 Y100.9000 E0.4903 F2880
G1 X119.1000 Y100.9000 E0.9806
G1 X119.1000 Y119.1000 E1.4710
G1 X100.9000 Y119.1000 E1.9613
G1 X100.5400 Y119.4600 F6000
G92 E0.0000
G1 X100.5400 Y100.5400 E0.5097 F2880
G1 X119.4600 Y100.5400 E1.0194
G1 X119.4600 Y119.4600 E1.5292
G1 X100.5400 Y119.4600 E2.0389
G1 X100.1800 Y119.8200 F6000
G92 E0.0000
G1 X100.1800 Y100.1800 E0.5291 F2160
G1 X119.8200 Y100.1800 E1.0582
G1 X119.8200 Y119.8200 E1.5873
G1 X100.1800 Y119.8200 E2.1165
G1 X101.1610 Y102.9290 F6000
G92 E0.0000
G1 X102.9290 Y101.1610 E0.0842 F3600
G1 X106.1110 Y101.1610 E0.1914
G1 X101.1610 Y106.1110 E0.4271
G1 X101.1610 Y109.2930 E0.5343
G1 X109.2930 Y101.1610 E0.9216
G1 X112.4750 Y101.1610 E1.0287
G1 X101.1610 Y112.4750 E1.5675
G1 X101.1610 Y115.6570 E1.6747
G1 X115.6570 Y101.1610 E2.3651
G1 X118.8390 Y101.1610 E2.4722
G1 X101.1610 Y118.8390 E3.3141
G1 X104.3430 Y118.8390 E3.4213
G1 X118.8390 Y104.3430 E4.1117
G1 X118.8390 Y107.5250 E4.2188
G1 X107.5250 Y118.8390 E4.7577
G1 X110.7070 Y118.8390 E4.8648
G1 X118.8390 Y110.7070 E5.2521
G1 X118.8390 Y113.8890 E5.3593
G1 X113.8890 Y118.8390 E5.5950
G1 X117.0710 Y118.8390 E5.7022
G1 X118.8390 Y117.0710 E5.7864
G92 E0.0000
G1 E-5 F2400 ; custom retraction
;layer 15, Z = 3.000
;fan15;
G1 Z3.000 F1200
G1 X119.1000 Y119.1000 F6000
G1 E0 F2400 ; custom un-retraction/prime
G92 E0.0000
G1 X100.9000 Y119.1000 E0.4903 F2880
G1 X100.9000 Y100.9000 E0.9806
G1 X119.1000 Y100.9000 E1.4710
G1 X119.1000 Y119.1000 E1.9613
G1 X119.4600 Y119.4600 F6000
G92 E0.0000
G1 X100.5400 Y119.4600 E0.5097 F2880
G1 X100.5400 Y100.5400 E1.0194
G1 X119.4600 Y100.5400 E1.5292
G1 X119.4600 Y119.4600 E2.0389
G1 X119.8200 Y119.8200 F6000
G92 E0.0000
G1 X100.1800 Y119.8200 E0.5291 F2160
G1 X100.1800 Y100.1800 E1.0582
G1 X119.8200 Y100.1800 E1.5873
G1 X119.8200 Y119.8200 E2.1165
G1 X118.8840 Y109.2110 F6000
G92 E0.0000
G1 X118.7520 Y109.0790 E0.0050 F2880
G1 X118.7860 Y108.6040 E0.0179
G1 X118.8840 Y108.7020 E0.0216
G1 X118.8840 Y108.1930 E0.0353
G1 X118.8200 Y108.1280 E0.0378
G1 X114.8620 Y101.1160 F6000
G92 E0.0000
G1 X115.0600 Y101.3140 E0.0075 F2880
G1 X115.0600 Y101.8230 E0.0212
G1 X114.3530 Y101.1160 E0.0482
G1 X113.8440 Y101.1160 E0.0619
G1 X115.0590 Y102.3310 E0.1082
G1 X115.0590 Y102.6470 E0.1167
G1 X114.8660 Y102.6470 E0.1219
G1 X113.3350 Y101.1160 E0.1802
G1 X112.8260 Y101.1160 E0.1940
G1 X114.3570 Y102.6470 E0.2523
G1 X113.8480 Y102.6470 E0.2660
G1 X112.3170 Y101.1160 E0.3244
G1 X111.8070 Y101.1160 E0.3381
G1 X113.3390 Y102.6470 E0.3964
G1 X112.8300 Y102.6470 E0.4101
G1 X111.7670 Y101.5840 E0.4506
G1 X111.7660 Y102.0930 E0.4644
G1 X112.3210 Y102.6470 E0.4855
G1 X111.8110 Y102.6470 E0.4992
G1 X111.7660 Y102.6020 E0.5009
G1 X107.2250 Y101.1160 F6000
G92 E0.0000
G1 X107.4210 Y101.3110 E0.0074 F2880
G1 X107.4210 Y101.8210 E0.0212
G1 X106.7160 Y101.1160 E0.0480
G1 X106.2070 Y101.1160 E0.0617
G1 X107.4210 Y102.3300 E0.1080
G1 X107.4210 Y102.6470 E0.1165
G1 X107.2290 Y102.6470 E0.1217
G1 X105.6980 Y101.1160 E0.1801
G1 X105.1890 Y101.1160 E0.1938
G1 X106.7200 Y102.6470 E0.2521
G1 X106.2110 Y102.6470 E0.2658
G1 X104.6800 Y101.1160 E0.3242
G1 X104.2950 Y101.1160 E0.3345
G1 X104.2960 Y101.2410 E0.3379
G1 X105.7020 Y102.6470 E0.3915
G1 X105.1930 Y102.6470 E0.4052
G1 X104.2960 Y101.7500 E0.4394
G1 X104.2960 Y102.2600 E0.4531
G1 X104.6840 Y102.6470 E0.4679
G1 X106.2340 Y103.0520 F6000
G92 E0.0000
G1 X118.8390 Y115.6570 E0.6003 F3600
G1 X118.8390 Y118.8390 E0.7075
G1 X101.1610 Y101.1610 E1.5494
G1 X101.1610 Y104.3430 E1.6565
G1 X115.6570 Y118.8390 E2.3469
G1 X112.4750 Y118.8390 E2.4540
G1 X101.1610 Y107.5250 E2.9929
G1 X101.1610 Y110.7070 E3.1000
G1 X109.2930 Y118.8390 E3.4873
G1 X106.1110 Y118.8390 E3.5945
G1 X101.1610 Y113.8890 E3.8302
G1 X101.1610 Y117.0710 E3.9374
G1 X102.9290 Y118.8390 E4.0216
G1 X111.3620 Y101.8160 F6000
G92 E0.0000
G1 X110.7070 Y101.1610 E0.0312 F3600
G1 X107.8260 Y101.1610 E0.1282
G1 X107.8260 Y101.4620 E0.1383
G1 X118.8390 Y112.4750 E0.6628
G1 X118.8390 Y109.9040 E0.7494
G1 X118.2930 Y109.8260 E0.7680
G1 X118.3650 Y108.8190 E0.8020
G1 X112.5980 Y103.0520 E1.0766
G1 X115.4640 Y103.0520 E1.1731
G1 X115.4640 Y102.7360 E1.1838
G1 X118.8390 Y106.1110 E1.3445
G1 X118.8390 Y102.9290 E1.4517
G1 X117.0710 Y101.1610 E1.5359
G92 E0.0000
G1 E-5 F2400 ; custom retraction
;layer 16, Z = 3.200
;fan16;
G1 Z3.200 F1200
G1 X119.1000 Y100.9000 F6000
G1 E0 F2400 ; custom un-retraction/prime
G92 E0.0000
G1 X119.1000 Y119.1000 E0.4903 F2880
G1 X100.9000 Y119.1000 E0.9806
G1 X100.9000 Y100.9000 E1.4710
G1 X119.1000 Y100.9000 E1.9613
G1 X119.4600 Y100.5400 F6000
G92 E0.0000
G1 X119.4600 Y119.4600 E0.5097 F2880
G1 X100.5400 Y119.4600 E1.0194
G1 X100.5400 Y100.5400 E1.5292
G1 X119.4600 Y100.5400 E2.0389
G1 X119.8200 Y100.1800 F6000
G92 E0.0000
G1 X119.8200 Y119.8200 E0.5291 F2160
G1 X100.1800 Y119.8200 E1.0582
G1 X100.1800 Y100.1800 E1.5873
G1 X119.8200 Y100.1800 E2.1165
G1 X114.8070 Y102.6480 F6000
G92 E0.0000
G1 X115.0590 Y102.3950 E0.0096 F2880
G1 X115.0600 Y101.8860 E0.0233
G1 X114.2980 Y102.6480 E0.0524
G1 X113.7890 Y102.6480 E0.0661
G1 X115.0600 Y101.3760 E0.1145
G1 X115.0600 Y101.1160 E0.1215
G1 X114.8110 Y101.1160 E0.1282
G1 X113.2800 Y102.6480 E0.1866
G1 X112.7700 Y102.6480 E0.2003
G1 X114.3020 Y101.1160 E0.2587
G1 X113.7930 Y101.1160 E0.2724
G1 X112.2610 Y102.6480 E0.3307
G1 X111.7520 Y102.6480 E0.3444
G1 X113.2840 Y101.1160 E0.4028
G1 X112.7750 Y101.1160 E0.4165
G1 X111.6450 Y102.2460 E0.4596
G1 X111.6450 Y101.7370 E0.4733
G1 X112.2660 Y101.1160 E0.4969
G1 X111.7560 Y101.1160 E0.5106
G1 X111.6450 Y101.2270 E0.5149
G1 X107.5400 Y102.2780 F6000
G92 E0.0000
G1 X107.1700 Y102.6480 E0.0141 F2880
G1 X106.6610 Y102.6480 E0.0278
G1 X107.5390 Y101.7690 E0.0613
G1 X107.5390 Y101.2600 E0.0750
G1 X106.1520 Y102.6480 E0.1278
G1 X105.6430 Y102.6480 E0.1415
G1 X107.1740 Y101.1160 E0.1999
G1 X106.6650 Y101.1160 E0.2136
G1 X105.1340 Y102.6480 E0.2720
G1 X104.6250 Y102.6480 E0.2857
G1 X106.1560 Y101.1160 E0.3440
G1 X105.6470 Y101.1160 E0.3577
G1 X104.2960 Y102.4670 E0.4092
G1 X104.2960 Y101.9580 E0.4229
G1 X105.1380 Y101.1160 E0.4550
G1 X104.6290 Y101.1160 E0.4687
G1 X104.2960 Y101.4490 E0.4814
G1 X117.2990 Y108.3010 F6000
G92 E0.0000
G1 X117.5300 Y108.0710 E0.0088 F2880
G1 X118.0380 Y108.0710 E0.0225
G1 X117.2990 Y108.8110 E0.0507
G1 X117.2990 Y109.3200 E0.0644
G1 X118.5470 Y108.0710 E0.1120
G1 X118.8840 Y108.0710 E0.1210
G1 X118.8840 Y108.2440 E0.1257
G1 X117.2980 Y109.8290 E0.1861
G1 X117.2980 Y110.3390 E0.1998
G1 X118.8840 Y108.7530 E0.2602
G1 X118.8840 Y109.2620 E0.2740
G1 X117.2980 Y110.8480 E0.3344
G1 X117.2980 Y111.2630 E0.3456
G1 X117.3920 Y111.2630 E0.3481
G1 X118.8840 Y109.7710 E0.4050
G1 X118.8840 Y110.2800 E0.4187
G1 X117.9000 Y111.2640 E0.4562
G1 X118.4090 Y111.2640 E0.4699
G1 X118.8840 Y110.7890 E0.4880
G1 X118.8390 Y117.0710 F6000
G92 E0.0000
G1 X117.0710 Y118.8390 E0.0842 F3600
G1 X113.8890 Y118.8390 E0.1914
G1 X118.8390 Y113.8890 E0.4271
G1 X118.8390 Y111.6690 E0.5019
G1 X117.8770 Y111.6690 E0.5342
G1 X110.7070 Y118.8390 E0.8757
G1 X107.5250 Y118.8390 E0.9829
G1 X116.8940 Y109.4700 E1.4291
G1 X116.8940 Y107.6650 E1.4898
G1 X118.6980 Y107.6660 E1.5506
G1 X118.8390 Y107.5250 E1.5573
G1 X118.8390 Y104.3430 E1.6645
G1 X104.3430 Y118.8390 E2.3548
G1 X101.1610 Y118.8390 E2.4620
G1 X118.8390 Y101.1610 E3.3039
G1 X115.6570 Y101.1610 E3.4111
G1 X115.4650 Y101.3530 E3.4202
G1 X115.4640 Y103.0520 E3.4774
G1 X115.3380 Y103.0520 E3.4817
G1 X113.7660 Y103.0530 E3.5346
G1 X101.1610 Y115.6570 E4.1349
G1 X101.1610 Y112.4750 E4.2421
G1 X111.2400 Y102.3970 E4.7221
G1 X111.2400 Y101.1610 E4.7637
G1 X109.2930 Y101.1610 E4.8292
G1 X107.9450 Y102.5090 E4.8935
G1 X107.9450 Y103.0530 E4.9117
G1 X107.4020 Y103.0530 E4.9301
G1 X101.1610 Y109.2930 E5.2273
G1 X101.1610 Y106.1110 E5.3344
G1 X104.2200 Y103.0530 E5.4801
G1 X104.0020 Y103.0530 E5.4874
G1 X103.8910 Y103.0520 E5.4911
G1 X103.8910 Y101.1610 E5.5548
G1 X102.9290 Y101.1610 E5.5872
G1 X101.1610 Y102.9290 E5.6714
G92 E0.0000
G1 E-5 F2400 ; custom retraction
;layer 17, Z = 3.400
;fan17;
G1 Z3.400 F1200
G1 X100.9000 Y100.9000 F6000
G1 E0 F2400 ; custom un-retraction/prime
G92 E0.0000
G1 X119.1000 Y100.9000 E0.4903 F2880
G1 X119.1000 Y119.1000 E0.9806
G1 X100.9000 Y119.1000 E1.4710
G1 X100.9000 Y100.9000 E1.9613
G1 X100.5400 Y100.5400 F6000
G92 E0.0000
G1 X119.4600 Y100.5400 E0.5097 F2880
G1 X119.4600 Y119.4600 E1.0194
G1 X100.5400 Y119.4600 E1.5292
G1 X100.5400 Y100.5400 E2.0389
G1 X100.1800 Y100.1800 F6000
G92 E0.0000
G1 X119.8200 Y100.1800 E0.5291 F2160
G1 X119.8200 Y119.8200 E1.0582
G1 X100.1800 Y119.8200 E1.5873
G1 X100.1800 Y100.1800 E2.1165
G1 X104.6840 Y102.6480 F6000
G92 E0.0000
G1 X104.2960 Y102.2600 E0.0148 F2880
G1 X104.2960 Y101.7500 E0.0285
G1 X105.1930 Y102.6480 E0.0627
G1 X105.7020 Y102.6480 E0.0764
G1 X104.2960 Y101.2410 E0.1300
G1 X104.2950 Y101.1160 E0.1334
G1 X104.6800 Y101.1160 E0.1437
G1 X106.2120 Y102.6480 E0.2021
G1 X106.7210 Y102.6480 E0.2158
G1 X105.1890 Y101.1160 E0.2742
G1 X105.6980 Y101.1160 E0.2879
G1 X107.2300 Y102.6480 E0.3462
G1 X107.6580 Y102.6480 E0.3578
G1 X107.6580 Y102.5670 E0.3600
G1 X106.2070 Y101.1160 E0.4153
G1 X106.7160 Y101.1160 E0.4290
G1 X107.6580 Y102.0580 E0.4649
G1 X107.6580 Y101.5480 E0.4786
G1 X107.2250 Y101.1160 E0.4951
G1 X111.5230 Y102.3590 F6000
G92 E0.0000
G1 X111.8120 Y102.6480 E0.0110 F2880
G1 X112.3210 Y102.6480 E0.0247
G1 X111.5230 Y101.8500 E0.0551
G1 X111.5230 Y101.3410 E0.0688
G1 X112.8300 Y102.6480 E0.1186
G1 X113.3390 Y102.6480 E0.1324
G1 X111.8070 Y101.1160 E0.1907
G1 X112.3170 Y101.1160 E0.2044
G1 X113.8480 Y102.6480 E0.2628
G1 X114.3570 Y102.6480 E0.2765
G1 X112.8260 Y101.1160 E0.3349
G1 X113.3350 Y101.1160 E0.3486
G1 X114.8660 Y102.6480 E0.4069
G1 X114.9330 Y102.6480 E0.4087
G1 X115.0590 Y102.6470 E0.4121
G1 X115.0590 Y102.3310 E0.4206
G1 X113.8440 Y101.1160 E0.4669
G1 X114.3530 Y101.1160 E0.4807
G1 X115.0600 Y101.8230 E0.5076
G1 X115.0600 Y101.3140 E0.5213
G1 X114.8620 Y101.1160 E0.5288
G1 X118.7610 Y108.0690 F6000
G92 E0.0000
G1 X118.8840 Y108.1930 E0.0047 F2880
G1 X118.8840 Y108.7020 E0.0184
G1 X118.2510 Y108.0690 E0.0425
G1 X117.7420 Y108.0690 E0.0562
G1 X118.8840 Y109.2110 E0.0998
G1 X118.8840 Y109.7200 E0.1135
G1 X117.2990 Y108.1350 E0.1739
G1 X117.2990 Y108.6440 E0.1876
G1 X118.8840 Y110.2290 E0.2480
G1 X118.8840 Y110.7380 E0.2617
G1 X117.2990 Y109.1530 E0.3221
G1 X117.2980 Y109.6620 E0.3358
G1 X118.8840 Y111.2470 E0.3962
G1 X118.8840 Y111.2640 E0.3967
G1 X118.3920 Y111.2640 E0.4099
G1 X117.2980 Y110.1710 E0.4516
G1 X117.2980 Y110.6790 E0.4653
G1 X117.8820 Y111.2640 E0.4875
G1 X117.3730 Y111.2630 E0.5013
G1 X117.2980 Y111.1880 E0.5041
G1 X118.0330 Y111.6690 F6000
G92 E0.0000
G1 X118.8390 Y112.4750 E0.0384 F3600
G1 X118.8390 Y115.6570 E0.1456
G1 X106.2350 Y103.0530 E0.7458
G1 X104.1130 Y103.0530 E0.8173
G1 X104.0020 Y103.0520 E0.8210
G1 X103.8910 Y103.0520 E0.8248
G1 X103.8910 Y101.1610 E0.8885
G1 X101.1610 Y101.1610 E0.9804
G1 X118.8390 Y118.8390 E1.8223
G1 X115.6570 Y118.8390 E1.9294
G1 X101.1610 Y104.3430 E2.6198
G1 X101.1610 Y107.5250 E2.7270
G1 X112.4750 Y118.8390 E3.2658
G1 X109.2930 Y118.8390 E3.3730
G1 X101.1610 Y110.7070 E3.7602
G1 X101.1610 Y113.8890 E3.8674
G1 X106.1110 Y118.8390 E4.1031
G1 X102.9290 Y118.8390 E4.2103
G1 X101.1610 Y117.0710 E4.2945
G1 X111.1180 Y101.5720 F6000
G92 E0.0000
G1 X110.7070 Y101.1610 E0.0196 F3600
G1 X108.0630 Y101.1610 E0.1086
G1 X108.0630 Y101.6990 E0.1267
G1 X116.8930 Y110.5290 E0.5473
G1 X116.8940 Y107.6660 E0.6437
G1 X117.2090 Y107.6630 E0.6544
G1 X112.5990 Y103.0530 E0.8740
G1 X115.2110 Y103.0530 E0.9620
G1 X115.3380 Y103.0530 E0.9662
G1 X115.4640 Y103.0520 E0.9705
G1 X115.4640 Y102.7360 E0.9811
G1 X118.8390 Y106.1110 E1.1419
G1 X118.8390 Y102.9290 E1.2490
G1 X117.0710 Y101.1610 E1.3332
G92 E0.0000
G1 E-5 F2400 ; custom retraction
;layer 18, Z = 3.600
;fan18;
G1 Z3.600 F1200
G1 X119.1000 Y100.9000 F6000
G1 E0 F2400 ; custom un-retraction/prime
G92 E0.0000
G1 X119.1000 Y119.1000 E0.4903 F2880
G1 X100.9000 Y119.1000 E0.9806
G1 X100.9000 Y100.9000 E1.4710
G1 X119.1000 Y100.9000 E1.9613
G1 X119.4600 Y100.5400 F6000
G92 E0.0000
G1 X119.4600 Y119.4600 E0.5097 F2880
G1 X100.5400 Y119.4600 E1.0194
G1 X100.5400 Y100.5400 E1.5292
G1 X119.4600 Y100.5400 E2.0389
G1 X119.8200 Y100.1800 F6000
G92 E0.0000
G1 X119.8200 Y119.8200 E0.5291 F2160
G1 X100.1800 Y119.8200 E1.0582
G1 X100.1800 Y100.1800 E1.5873
G1 X119.8200 Y100.1800 E2.1165
G1 X114.8070 Y102.6480 F6000
G92 E0.0000
G1 X115.0590 Y102.3950 E0.0096 F2880
G1 X115.0600 Y101.8860 E0.0233
G1 X114.2970 Y102.6480 E0.0524
G1 X113.7880 Y102.6480 E0.0661
G1 X115.0600 Y101.3760 E0.1145
G1 X115.0600 Y101.1160 E0.1216
G1 X114.8110 Y101.1160 E0.1283
G1 X113.2790 Y102.6480 E0.1866
G1 X112.7700 Y102.6480 E0.2003
G1 X114.3020 Y101.1160 E0.2587
G1 X113.7930 Y101.1160 E0.2724
G1 X112.2610 Y102.6480 E0.3308
G1 X111.7520 Y102.6480 E0.3445
G1 X113.2840 Y101.1160 E0.4029
G1 X112.7750 Y101.1160 E0.4166
G1 X111.4010 Y102.4900 E0.4689
G1 X111.4010 Y101.9800 E0.4826
G1 X112.2660 Y101.1160 E0.5156
G1 X111.7560 Y101.1160 E0.5293
G1 X111.4010 Y101.4710 E0.5428
G1 X107.6790 Y102.6480 F6000
G92 E0.0000
G1 X107.7770 Y102.5500 E0.0037 F2880
G1 X107.7770 Y102.0410 E0.0174
G1 X107.1700 Y102.6480 E0.0406
G1 X106.6610 Y102.6480 E0.0543
G1 X107.7760 Y101.5320 E0.0968
G1 X107.7760 Y101.1160 E0.1080
G1 X107.6830 Y101.1160 E0.1105
G1 X106.1520 Y102.6480 E0.1689
G1 X105.6420 Y102.6480 E0.1826
G1 X107.1740 Y101.1160 E0.2409
G1 X106.6650 Y101.1160 E0.2546
G1 X105.1330 Y102.6480 E0.3130
G1 X104.6290 Y102.6480 E0.3266
G1 X104.6240 Y102.6480 E0.3267
G1 X106.1560 Y101.1160 E0.3851
G1 X105.6470 Y101.1160 E0.3988
G1 X104.2960 Y102.4670 E0.4503
G1 X104.2960 Y101.9580 E0.4640
G1 X105.1380 Y101.1160 E0.4961
G1 X104.6290 Y101.1160 E0.5098
G1 X104.2960 Y101.4490 E0.5225
G1 X117.2990 Y108.3010 F6000
G92 E0.0000
G1 X117.5340 Y108.0660 E0.0089 F2880
G1 X118.0430 Y108.0670 E0.0227
G1 X117.2990 Y108.8110 E0.0510
G1 X117.2990 Y109.3200 E0.0647
G1 X118.5520 Y108.0670 E0.1125
G1 X118.8840 Y108.0670 E0.1214
G1 X118.8840 Y108.2440 E0.1262
G1 X117.2980 Y109.8290 E0.1866
G1 X117.2980 Y110.3390 E0.2003
G1 X118.8840 Y108.7530 E0.2607
G1 X118.8840 Y109.2620 E0.2744
G1 X117.2980 Y110.8480 E0.3349
G1 X117.2980 Y111.2630 E0.3461
G1 X117.3920 Y111.2630 E0.3486
G1 X118.8840 Y109.7710 E0.4055
G1 X118.8840 Y110.2800 E0.4192
G1 X117.9000 Y111.2640 E0.4567
G1 X118.4090 Y111.2640 E0.4704
G1 X118.8840 Y110.7890 E0.4884
G1 X118.8390 Y117.0710 F6000
G92 E0.0000
G1 X117.0710 Y118.8390 E0.0842 F3600
G1 X113.8890 Y118.8390 E0.1914
G1 X118.8390 Y113.8890 E0.4271
G1 X118.8390 Y111.6690 E0.5019
G1 X117.8770 Y111.6690 E0.5342
G1 X110.7070 Y118.8390 E0.8757
G1 X107.5250 Y118.8390 E0.9829
G1 X116.8940 Y109.4700 E1.4291
G1 X116.8940 Y107.6660 E1.4898
G1 X118.7020 Y107.6620 E1.5509
G1 X118.8390 Y107.5250 E1.5574
G1 X118.8390 Y104.3430 E1.6645
G1 X104.3430 Y118.8390 E2.3549
G1 X101.1610 Y118.8390 E2.4621
G1 X118.8390 Y101.1610 E3.3040
G1 X115.6570 Y101.1610 E3.4111
G1 X115.4650 Y101.3530 E3.4203
G1 X115.4640 Y103.0520 E3.4775
G1 X115.3380 Y103.0520 E3.4818
G1 X115.2110 Y103.0530 E3.4860
G1 X115.0850 Y103.0530 E3.4903
G1 X113.7650 Y103.0530 E3.5347
G1 X101.1610 Y115.6570 E4.1350
G1 X101.1610 Y112.4750 E4.2422
G1 X110.9960 Y102.6400 E4.7105
G1 X110.9960 Y101.1610 E4.7604
G1 X109.2930 Y101.1610 E4.8177
G1 X108.1820 Y102.2720 E4.8707
G1 X108.1820 Y103.0530 E4.8969
G1 X107.4010 Y103.0530 E4.9232
G1 X101.1610 Y109.2930 E5.2204
G1 X101.1610 Y106.1110 E5.3276
G1 X104.2190 Y103.0530 E5.4732
G1 X104.1130 Y103.0530 E5.4768
G1 X104.0020 Y103.0530 E5.4806
G1 X103.8910 Y103.0520 E5.4843
G1 X103.8910 Y101.1610 E5.5480
G1 X102.9290 Y101.1610 E5.5804
G1 X101.1610 Y102.9290 E5.6646
G92 E0.0000
G1 E-5 F2400 ; custom retraction
;layer 19, Z = 3.800
;fan19;
G1 Z3.800 F1200
G1 X100.9000 Y100.9000 F6000
G1 E0 F2400 ; custom un-retraction/prime
G92 E0.0000
G1 X104.1510 Y100.9000 E0.0876 F2880
G1 X104.1520 Y102.7910 E0.1385
G1 X107.5660 Y102.7910 E0.2305
G1 X107.5650 Y100.9000 E0.2815
G1 X111.6230 Y100.9000 E0.3908
G1 X111.6220 Y102.7910 E0.4418
G1 X115.2030 Y102.7910 E0.5382
G1 X115.2040 Y100.9000 E0.5892
G1 X119.1000 Y100.9000 E0.6941
G1 X119.1000 Y107.9300 E0.8835
G1 X118.6900 Y107.9290 E0.8946
G1 X118.5710 Y109.6020 E0.9398
G1 X119.1000 Y109.6780 E0.9542
G1 X119.1000 Y119.1000 E1.2080
G1 X100.9000 Y119.1000 E1.6983
G1 X100.9000 Y100.9000 E2.1887
G1 X100.5400 Y100.5400 F6000
G92 E0.0000
G1 X104.5110 Y100.5400 E0.1070 F2880
G1 X104.5120 Y102.4310 E0.1579
G1 X107.2050 Y102.4310 E0.2305
G1 X107.2040 Y100.5400 E0.2815
G1 X111.9830 Y100.5400 E0.4102
G1 X111.9820 Y102.4310 E0.4612
G1 X114.8430 Y102.4310 E0.5382
G1 X114.8440 Y100.5400 E0.5892
G1 X119.4600 Y100.5400 E0.7135
G1 X119.4600 Y108.2900 E0.9223
G1 X119.0250 Y108.2900 E0.9340
G1 X118.9530 Y109.2930 E0.9612
G1 X119.4600 Y109.3660 E0.9749
G1 X119.4600 Y119.4600 E1.2469
G1 X100.5400 Y119.4600 E1.7566
G1 X100.5400 Y100.5400 E2.2663
G1 X100.1800 Y100.1800 F6000
G92 E0.0000
G1 X104.8710 Y100.1800 E0.1264 F2160
G1 X104.8720 Y102.0710 E0.1773
G1 X106.8450 Y102.0710 E0.2305
G1 X106.8440 Y100.1800 E0.2814
G1 X112.3430 Y100.1800 E0.4296
G1 X112.3430 Y102.0710 E0.4806
G1 X114.4840 Y102.0710 E0.5382
G1 X114.4850 Y100.1800 E0.5892
G1 X119.8200 Y100.1800 E0.7329
G1 X119.8200 Y108.6500 E0.9611
G1 X119.3600 Y108.6500 E0.9735
G1 X119.3360 Y108.9840 E0.9825
G1 X119.8200 Y109.0530 E0.9957
G1 X119.8200 Y119.8200 E1.2858
G1 X100.1800 Y119.8200 E1.8149
G1 X100.1800 Y100.1800 E2.3440
G1 X104.8710 Y100.7860 F6000
G1 X104.8720 Y102.0710
G1 X106.8450 Y102.0710
G1 X106.8450 Y101.0410
G1 X107.7810 Y101.1620
G92 E0.0000
G1 X107.8950 Y101.2760 E0.0043 F2880
G1 X107.8950 Y101.7860 E0.0181
G1 X107.7810 Y101.6720 E0.0224
G1 X107.7810 Y102.1810 E0.0361
G1 X107.8950 Y102.2950 E0.0405
G1 X111.2790 Y102.6240 F6000
G92 E0.0000
G1 X111.3030 Y102.6480 E0.0009 F2880
G1 X111.4060 Y102.6480 E0.0037
G1 X111.4060 Y102.2420 E0.0146
G1 X111.2790 Y102.1150 E0.0195
G1 X111.2790 Y101.6060 E0.0332
G1 X111.4070 Y101.7330 E0.0380
G1 X111.4070 Y101.2250 E0.0517
G1 X111.2980 Y101.1160 E0.0559
G1 X118.2470 Y108.0650 F6000
G92 E0.0000
G1 X118.4490 Y108.2670 E0.0077 F2880
G1 X118.4150 Y108.7420 E0.0205
G1 X117.7380 Y108.0640 E0.0464
G1 X117.3000 Y108.0660 E0.0582
G1 X117.2990 Y108.0710 E0.0583
G1 X117.2990 Y108.1350 E0.0601
G1 X118.3810 Y109.2170 E0.1013
G1 X118.3480 Y109.6930 E0.1141
G1 X117.2990 Y108.6440 E0.1541
G1 X117.2990 Y109.1530 E0.1678
G1 X118.8840 Y110.7380 E0.2282
G1 X118.8840 Y111.2470 E0.2419
G1 X117.2980 Y109.6620 E0.3023
G1 X117.2980 Y110.1710 E0.3160
G1 X118.3920 Y111.2640 E0.3577
G1 X117.8820 Y111.2640 E0.3714
G1 X117.2980 Y110.6790 E0.3937
G1 X117.2980 Y111.1880 E0.4074
G1 X117.3730 Y111.2630 E0.4103
G1 X118.4600 Y109.8050 F6000
G92 E0.0000
G1 X118.8840 Y110.2290 E0.0162 F2880
G1 X118.0330 Y111.6690 F6000
G92 E0.0000
G1 X118.8390 Y112.4750 E0.0384 F3600
G1 X118.8390 Y115.6570 E0.1456
G1 X106.2340 Y103.0520 E0.7458
G1 X103.8910 Y103.0520 E0.8248
G1 X103.8910 Y101.1610 E0.8884
G1 X101.1610 Y101.1610 E0.9804
G1 X118.8390 Y118.8390 E1.8223
G1 X115.6570 Y118.8390 E1.9294
G1 X101.1610 Y104.3430 E2.6198
G1 X101.1610 Y107.5250 E2.7270
G1 X112.4750 Y118.8390 E3.2658
G1 X109.2930 Y118.8390 E3.3729
G1 X101.1610 Y110.7070 E3.7602
G1 X101.1610 Y113.8890 E3.8674
G1 X106.1110 Y118.8390 E4.1031
G1 X102.9290 Y118.8390 E4.2103
G1 X101.1610 Y117.0710 E4.2945
G1 X110.8750 Y101.3290 F6000
G92 E0.0000
G1 X110.7070 Y101.1610 E0.0080 F3600
G1 X108.3000 Y101.1610 E0.0890
G1 X108.3000 Y101.9360 E0.1152
G1 X116.8930 Y110.5290 E0.5244
G1 X116.8940 Y107.6660 E0.6208
G1 X116.8950 Y107.6610 E0.6210
G1 X117.2050 Y107.6590 E0.6315
G1 X112.5980 Y103.0520 E0.8509
G1 X115.4640 Y103.0520 E0.9474
G1 X115.4640 Y102.7360 E0.9581
G1 X118.8390 Y106.1110 E1.1188
G1 X118.8390 Y102.9290 E1.2259
G1 X117.0710 Y101.1610 E1.3101
G92 E0.0000
G1 E-5 F2400 ; custom retraction
;layer 20, Z = 4.000
;fan20;
G1 Z4.000 F1200
G1 X115.0780 Y100.9000 F6000
G1 E0 F2400 ; custom un-retraction/prime
G92 E0.0000
G1 X119.1000 Y100.9000 E0.1084 F2880
G1 X119.1000 Y107.9270 E0.2977
G1 X117.1550 Y107.9270 E0.3501
G1 X117.1540 Y111.4070 E0.4439
G1 X119.1000 Y111.4080 E0.4963
G1 X119.1000 Y119.1000 E0.7035
G1 X100.9000 Y119.1000 E1.1938
G1 X100.9000 Y100.9000 E1.6842
G1 X104.2620 Y100.9000 E1.7747
G1 X104.2630 Y102.7920 E1.8257
G1 X107.6840 Y102.7920 E1.9179
G1 X107.6830 Y100.9000 E1.9688
G1 X111.5010 Y100.9000 E2.0717
G1 X111.5000 Y102.7920 E2.1226
G1 X115.0770 Y102.7920 E2.2190
G1 X115.0780 Y100.9000 E2.2699
G1 X114.7180 Y100.5400 F6000
G92 E0.0000
G1 X119.4600 Y100.5400 E0.1278 F2880
G1 X119.4600 Y108.2880 E0.3365
G1 X117.5150 Y108.2870 E0.3889
G1 X117.5140 Y111.0480 E0.4633
G1 X119.4600 Y111.0480 E0.5157
G1 X119.4600 Y119.4600 E0.7423
G1 X100.5400 Y119.4600 E1.2520
G1 X100.5400 Y100.5400 E1.7617
G1 X104.6220 Y100.5400 E1.8717
G1 X104.6230 Y102.4320 E1.9227
G1 X107.3240 Y102.4320 E1.9954
G1 X107.3230 Y100.5400 E2.0464
G1 X111.8610 Y100.5400 E2.1687
G1 X111.8600 Y102.4320 E2.2196
G1 X114.7170 Y102.4320 E2.2966
G1 X114.7180 Y100.5400 E2.3475
G1 X114.3580 Y100.1800 F6000
G92 E0.0000
G1 X119.8200 Y100.1800 E0.1471 F2160
G1 X119.8200 Y108.6480 E0.3753
G1 X117.8750 Y108.6470 E0.4277
G1 X117.8740 Y110.6880 E0.4827
G1 X119.8200 Y110.6890 E0.5351
G1 X119.8200 Y119.8200 E0.7811
G1 X100.1800 Y119.8200 E1.3102
G1 X100.1800 Y100.1800 E1.8393
G1 X104.9820 Y100.1800 E1.9687
G1 X104.9830 Y102.0720 E2.0197
G1 X106.9640 Y102.0720 E2.0730
G1 X106.9630 Y100.1800 E2.1240
G1 X112.2220 Y100.1800 E2.2657
G1 X112.2210 Y102.0720 E2.3166
G1 X114.3570 Y102.0720 E2.3742
G1 X114.3580 Y100.1800 E2.4251
G92 E0.0000
G1 E-5 F2400 ; custom retraction
;zhop1
G1 X114.3570 Y102.0720 F6000
G1 X112.2210 Y102.0720
G1 X112.2210 Y100.8650
G1 X111.1580 Y101.2060
G1 Z4.000 F1200
G1 E0 F2400 ; custom un-retraction/prime
G92 E0.0000
G1 X111.2470 Y101.1160 E0.0034 F2880
G1 X111.2850 Y101.1160 E0.0044
G1 X111.2850 Y101.5870 E0.0171
G1 X111.1580 Y101.7150 E0.0220
G1 X111.1570 Y102.2240 E0.0357
G1 X111.2850 Y102.0970 E0.0406
G1 X111.2840 Y102.6060 E0.0543
G1 X111.2420 Y102.6480 E0.0559
G1 X108.0140 Y102.3130 F6000
G92 E0.0000
G1 X107.9000 Y102.4270 E0.0043 F2880
G1 X107.9000 Y101.9180 E0.0180
G1 X108.0130 Y101.8040 E0.0224
G1 X108.0130 Y101.2950 E0.0361
G1 X107.8990 Y101.4090 E0.0404
G1 X106.9630 Y101.6200 F6000
G1 X106.9640 Y102.0720
G1 X104.9830 Y102.0670
G1 X101.1610 Y102.9290
G92 E0.0000
G1 X102.9290 Y101.1610 E0.0842 F3600
G1 X104.0020 Y101.1610 E0.1203
G1 X104.0020 Y103.0530 E0.1840
G1 X104.2200 Y103.0530 E0.1913
G1 X101.1610 Y106.1110 E0.3370
G1 X101.1610 Y109.2930 E0.4442
G1 X107.4020 Y103.0530 E0.7414
G1 X107.4950 Y103.0530 E0.7445
G1 X108.4190 Y103.0530 E0.7757
G1 X108.4190 Y102.0350 E0.8099
G1 X109.2930 Y101.1610 E0.8516
G1 X110.7530 Y101.1610 E0.9007
G1 X110.7520 Y102.8840 E0.9588
G1 X101.1610 Y112.4750 E1.4155
G1 X101.1610 Y115.6570 E1.5227
G1 X113.7660 Y103.0530 E2.1230
G1 X115.3380 Y103.0530 E2.1759
G1 X115.3380 Y101.4800 E2.2289
G1 X115.6570 Y101.1610 E2.2441
G1 X118.8390 Y101.1610 E2.3512
G1 X101.1610 Y118.8390 E3.1931
G1 X104.3430 Y118.8390 E3.3003
G1 X118.8390 Y104.3430 E3.9906
G1 X118.8390 Y107.5250 E4.0978
G1 X118.6980 Y107.6660 E4.1045
G1 X116.8940 Y107.6650 E4.1653
G1 X116.8940 Y109.4700 E4.2260
G1 X107.5250 Y118.8390 E4.6722
G1 X110.7070 Y118.8390 E4.7794
G1 X117.8770 Y111.6690 E5.1209
G1 X118.8390 Y111.6690 E5.1532
G1 X118.8390 Y113.8890 E5.2280
G1 X113.8890 Y118.8390 E5.4637
G1 X117.0710 Y118.8390 E5.5709
G1 X118.8390 Y117.0710 E5.6551
G92 E0.0000
G1 E-5 F2400 ; custom retraction
;layer 21, Z = 4.200
;fan21;
G1 Z4.200 F1200
G1 X119.1000 Y119.1000 F6000
G1 E0 F2400 ; custom un-retraction/prime
G92 E0.0000
G1 X100.9000 Y119.1000 E0.4903 F2880
G1 X100.9000 Y100.9000 E0.9806
G1 X104.3730 Y100.9000 E1.0742
G1 X104.3740 Y102.7920 E1.1252
G1 X107.8030 Y102.7920 E1.2175
G1 X107.8020 Y100.9000 E1.2685
G1 X111.3790 Y100.9000 E1.3649
G1 X111.3780 Y102.7920 E1.4159
G1 X114.9500 Y102.7920 E1.5121
G1 X114.9510 Y100.9000 E1.5630
G1 X119.1000 Y100.9000 E1.6748
G1 X119.1000 Y107.9250 E1.8641
G1 X117.1560 Y107.9240 E1.9165
G1 X117.1540 Y111.4050 E2.0102
G1 X119.1000 Y111.4060 E2.0627
G1 X119.1000 Y119.1000 E2.2700
G1 X119.4600 Y119.4600 F6000
G92 E0.0000
G1 X100.5400 Y119.4600 E0.5097 F2880
G1 X100.5400 Y100.5400 E1.0194
G1 X104.7330 Y100.5400 E1.1324
G1 X104.7340 Y102.4320 E1.1834
G1 X107.4420 Y102.4320 E1.2563
G1 X107.4410 Y100.5400 E1.3073
G1 X111.7400 Y100.5400 E1.4231
G1 X111.7390 Y102.4320 E1.4741
G1 X114.5900 Y102.4320 E1.5509
G1 X114.5910 Y100.5400 E1.6018
G1 X119.4600 Y100.5400 E1.7330
G1 X119.4600 Y108.2850 E1.9417
G1 X117.5150 Y108.2850 E1.9941
G1 X117.5140 Y111.0450 E2.0684
G1 X119.4600 Y111.0460 E2.1209
G1 X119.4600 Y119.4600 E2.3475
G1 X119.8200 Y119.8200 F6000
G92 E0.0000
G1 X100.1800 Y119.8200 E0.5291 F2160
G1 X100.1800 Y100.1800 E1.0582
G1 X105.0930 Y100.1800 E1.1906
G1 X105.0940 Y102.0720 E1.2416
G1 X107.0820 Y102.0720 E1.2951
G1 X107.0810 Y100.1800 E1.3461
G1 X112.1000 Y100.1800 E1.4813
G1 X112.0990 Y102.0720 E1.5323
G1 X114.2310 Y102.0720 E1.5897
G1 X114.2320 Y100.1800 E1.6406
G1 X119.8200 Y100.1800 E1.7912
G1 X119.8200 Y108.6460 E2.0193
G1 X117.8750 Y108.6450 E2.0717
G1 X117.8740 Y110.6860 E2.1266
G1 X119.8200 Y110.6860 E2.1791
G1 X119.8200 Y119.8200 E2.4251
G1 X111.1630 Y102.5080 F6000
G92 E0.0000
G1 X111.0350 Y102.3800 E0.0048 F2880
G1 X111.0360 Y101.8710 E0.0186
G1 X111.1630 Y101.9990 E0.0234
G1 X111.1630 Y101.4900 E0.0371
G1 X111.0360 Y101.3630 E0.0420
G1 X108.0180 Y101.3990 F6000
G92 E0.0000
G1 X108.1320 Y101.5130 E0.0043 F2880
G1 X108.1320 Y102.0230 E0.0181
G1 X108.0180 Y101.9090 E0.0224
G1 X108.0180 Y102.4180 E0.0361
G1 X108.1320 Y102.5320 E0.0405
G1 X112.0990 Y101.9240 F6000
G1 X112.0990 Y102.0720
G1 X114.2310 Y102.0720
G1 X114.2310 Y101.5970
G1 X117.0710 Y101.1610
G92 E0.0000
G1 X118.8390 Y102.9290 E0.0842 F3600
G1 X118.8390 Y106.1110 E0.1914
G1 X115.2110 Y102.4830 E0.3641
G1 X115.2110 Y103.0530 E0.3833
G1 X112.5990 Y103.0530 E0.4713
G1 X117.2090 Y107.6630 E0.6909
G1 X116.8950 Y107.6630 E0.7015
G1 X116.8930 Y110.5290 E0.7980
G1 X108.5370 Y102.1730 E1.1959
G1 X108.5380 Y103.0530 E1.2256
G1 X107.6140 Y103.0530 E1.2567
G1 X106.2350 Y103.0530 E1.3032
G1 X118.8390 Y115.6570 E1.9034
G1 X118.8390 Y118.8390 E2.0106
G1 X101.1610 Y101.1610 E2.8525
G1 X101.1610 Y104.3430 E2.9597
G1 X115.6570 Y118.8390 E3.6500
G1 X112.4750 Y118.8390 E3.7572
G1 X101.1610 Y107.5250 E4.2960
G1 X101.1610 Y110.7070 E4.4032
G1 X109.2930 Y118.8390 E4.7905
G1 X106.1110 Y118.8390 E4.8976
G1 X101.1610 Y113.8890 E5.1334
G1 X101.1610 Y117.0710 E5.2405
G1 X102.9290 Y118.8390 E5.3247
G92 E0.0000
G1 E-5 F2400 ; custom retraction
;layer 22, Z = 4.400
;fan22;
G1 Z4.400 F1200
G1 X100.9000 Y119.1000 F6000
G1 E0 F2400 ; custom un-retraction/prime
G92 E0.0000
G1 X100.9000 Y100.9000 E0.4903 F2880
G1 X104.4840 Y100.9000 E0.5869
G1 X104.4850 Y102.7920 E0.6379
G1 X107.9210 Y102.7920 E0.7304
G1 X107.9200 Y100.9000 E0.7814
G1 X111.2580 Y100.9000 E0.8713
G1 X111.2570 Y102.7920 E0.9223
G1 X114.8240 Y102.7920 E1.0184
G1 X114.8250 Y100.9000 E1.0693
G1 X119.1000 Y100.9000 E1.1845
G1 X119.1000 Y107.9230 E1.3737
G1 X117.1560 Y107.9220 E1.4261
G1 X117.1540 Y111.4030 E1.5199
G1 X119.1000 Y111.4040 E1.5723
G1 X119.1000 Y119.1000 E1.7796
G1 X100.9000 Y119.1000 E2.2700
G1 X100.5400 Y119.4600 F6000
G92 E0.0000
G1 X100.5400 Y100.5400 E0.5097 F2880
G1 X104.8440 Y100.5400 E0.6257
G1 X104.8450 Y102.4320 E0.6766
G1 X107.5610 Y102.4320 E0.7498
G1 X107.5600 Y100.5400 E0.8008
G1 X111.6180 Y100.5400 E0.9101
G1 X111.6170 Y102.4320 E0.9611
G1 X114.4640 Y102.4320 E1.0378
G1 X114.4650 Y100.5400 E1.0887
G1 X119.4600 Y100.5400 E1.2233
G1 X119.4600 Y108.2830 E1.4319
G1 X117.5160 Y108.2820 E1.4843
G1 X117.5140 Y111.0430 E1.5587
G1 X119.4600 Y111.0440 E1.6111
G1 X119.4600 Y119.4600 E1.8378
G1 X100.5400 Y119.4600 E2.3475
G1 X100.1800 Y119.8200 F6000
G92 E0.0000
G1 X100.1800 Y100.1800 E0.5291 F2160
G1 X105.2040 Y100.1800 E0.6645
G1 X105.2050 Y102.0720 E0.7154
G1 X107.2010 Y102.0720 E0.7692
G1 X107.2000 Y100.1800 E0.8202
G1 X111.9780 Y100.1800 E0.9489
G1 X111.9770 Y102.0720 E0.9999
G1 X114.1040 Y102.0720 E1.0572
G1 X114.1050 Y100.1800 E1.1081
G1 X119.8200 Y100.1800 E1.2621
G1 X119.8200 Y108.6430 E1.4901
G1 X117.8760 Y108.6430 E1.5425
G1 X117.8750 Y110.6830 E1.5975
G1 X119.8200 Y110.6840 E1.6499
G1 X119.8200 Y119.8200 E1.8960
G1 X100.1800 Y119.8200 E2.4251
G1 X108.1870 Y102.6490 F6000
G92 E0.0000
G1 X108.2510 Y102.5850 E0.0024 F2880
G1 X108.2510 Y102.0760 E0.0161
G1 X108.1370 Y102.1900 E0.0205
G1 X108.1360 Y101.6810 E0.0342
G1 X108.2500 Y101.5670 E0.0385
G1 X108.2500 Y101.1160 E0.0507
G1 X108.1930 Y101.1160 E0.0522
G1 X108.1360 Y101.1720 E0.0544
G1 X110.9140 Y101.4490 F6000
G92 E0.0000
G1 X111.0410 Y101.3220 E0.0049 F2880
G1 X111.0410 Y101.8310 E0.0186
G1 X110.9140 Y101.9590 E0.0234
G1 X110.9130 Y102.4680 E0.0372
G1 X111.0410 Y102.3410 E0.0420
G1 X115.0590 Y102.3950 F6000
G92 E0.0000
G1 X115.0400 Y102.4140 E0.0007 F2880
G1 X115.0400 Y101.9050 E0.0145
G1 X115.0600 Y101.8860 E0.0152
G1 X115.0600 Y101.3760 E0.0289
G1 X115.0410 Y101.3960 E0.0297
G1 X114.1040 Y101.4990 F6000
G1 X114.1040 Y102.0720
G1 X111.9770 Y102.0720
G1 X111.9770 Y101.7340
G1 X101.1610 Y102.9290
G92 E0.0000
G1 X102.9290 Y101.1610 E0.0842 F3600
G1 X104.2240 Y101.1610 E0.1278
G1 X104.2240 Y103.0480 E0.1913
G1 X101.1610 Y106.1110 E0.3372
G1 X101.1610 Y109.2930 E0.4444
G1 X107.4010 Y103.0530 E0.7416
G1 X107.7320 Y103.0540 E0.7527
G1 X108.6560 Y103.0540 E0.7839
G1 X108.6550 Y101.7990 E0.8261
G1 X109.2930 Y101.1610 E0.8565
G1 X110.5090 Y101.1610 E0.8974
G1 X110.5080 Y103.0540 E0.9612
G1 X110.5830 Y103.0540 E0.9637
G1 X101.1610 Y112.4750 E1.4124
G1 X101.1610 Y115.6570 E1.5195
G1 X113.7650 Y103.0530 E2.1198
G1 X115.0850 Y103.0520 E2.1643
G1 X115.4640 Y103.0520 E2.1770
G1 X115.4650 Y101.3530 E2.2343
G1 X115.6570 Y101.1610 E2.2434
G1 X118.8390 Y101.1610 E2.3506
G1 X101.1610 Y118.8390 E3.1925
G1 X104.3430 Y118.8390 E3.2996
G1 X118.8390 Y104.3430 E3.9900
G1 X118.8390 Y107.5250 E4.0972
G1 X118.7020 Y107.6620 E4.1037
G1 X116.8950 Y107.6610 E4.1645
G1 X116.8940 Y109.4700 E4.2254
G1 X107.5250 Y118.8390 E4.6716
G1 X110.7070 Y118.8390 E4.7788
G1 X117.8820 Y111.6640 E5.1205
G1 X118.8390 Y111.6650 E5.1527
G1 X118.8390 Y113.8890 E5.2276
G1 X113.8890 Y118.8390 E5.4634
G1 X117.0710 Y118.8390 E5.5705
G1 X118.8390 Y117.0710 E5.6547
G92 E0.0000
G1 E-5 F2400 ; custom retraction
;layer 23, Z = 4.600
;fan23;
G1 Z4.600 F1200
G1 X119.1000 Y119.1000 F6000
G1 E0 F2400 ; custom un-retraction/prime
G92 E0.0000
G1 X100.9000 Y119.1000 E0.4903 F2880
G1 X100.9000 Y100.9000 E0.9806
G1 X104.5950 Y100.9000 E1.0802
G1 X104.5960 Y102.7920 E1.1312
G1 X108.0390 Y102.7920 E1.2239
G1 X108.0390 Y100.9000 E1.2749
G1 X111.1360 Y100.9000 E1.3583
G1 X111.1350 Y102.7920 E1.4093
G1 X114.6970 Y102.7920 E1.5053
G1 X114.6980 Y100.9000 E1.5563
G1 X119.1000 Y100.9000 E1.6749
G1 X119.1000 Y107.9210 E1.8640
G1 X117.1560 Y107.9200 E1.9164
G1 X117.1550 Y111.4010 E2.0101
G1 X119.1000 Y111.4020 E2.0626
G1 X119.1000 Y119.1000 E2.2700
G1 X119.4600 Y119.4600 F6000
G92 E0.0000
G1 X100.5400 Y119.4600 E0.5097 F2880
G1 X100.5400 Y100.5400 E1.0194
G1 X104.9550 Y100.5400 E1.1384
G1 X104.9560 Y102.4320 E1.1894
G1 X107.6790 Y102.4320 E1.2627
G1 X107.6780 Y100.5400 E1.3137
G1 X111.4960 Y100.5400 E1.4165
G1 X111.4950 Y102.4320 E1.4675
G1 X114.3380 Y102.4320 E1.5441
G1 X114.3390 Y100.5400 E1.5951
G1 X119.4600 Y100.5400 E1.7330
G1 X119.4600 Y108.2810 E1.9416
G1 X117.5160 Y108.2800 E1.9940
G1 X117.5150 Y111.0410 E2.0683
G1 X119.4600 Y111.0420 E2.1208
G1 X119.4600 Y119.4600 E2.3475
G1 X119.8200 Y119.8200 F6000
G92 E0.0000
G1 X100.1800 Y119.8200 E0.5291 F2160
G1 X100.1800 Y100.1800 E1.0582
G1 X105.3150 Y100.1800 E1.1966
G1 X105.3160 Y102.0720 E1.2475
G1 X107.3190 Y102.0720 E1.3015
G1 X107.3180 Y100.1800 E1.3525
G1 X111.8560 Y100.1800 E1.4747
G1 X111.8550 Y102.0720 E1.5257
G1 X113.9780 Y102.0720 E1.5829
G1 X113.9790 Y100.1800 E1.6339
G1 X119.8200 Y100.1800 E1.7912
G1 X119.8200 Y108.6410 E2.0192
G1 X117.8760 Y108.6400 E2.0716
G1 X117.8750 Y110.6810 E2.1265
G1 X119.8200 Y110.6820 E2.1789
G1 X119.8200 Y119.8200 E2.4251
G1 X114.9330 Y102.2050 F6000
G92 E0.0000
G1 X114.9140 Y102.1860 E0.0007 F2880
G1 X114.9140 Y101.8700 E0.0093
G1 X114.9140 Y101.6770 E0.0144
G1 X114.9330 Y101.6960 E0.0152
G1 X114.9340 Y101.1870 E0.0289
G1 X114.9140 Y101.1680 E0.0296
G1 X113.9780 Y101.1570 F6000
G1 X113.9780 Y102.0720
G1 X111.8550 Y102.0720
G1 X111.8560 Y101.1320
G1 X110.7920 Y101.1190
G92 E0.0000
G1 X110.9200 Y101.2460 E0.0048 F2880
G1 X110.9190 Y101.7550 E0.0186
G1 X110.7920 Y101.6280 E0.0234
G1 X110.7920 Y102.1370 E0.0371
G1 X110.9190 Y102.2640 E0.0420
G1 X110.9190 Y102.6490 E0.0523
G1 X110.7920 Y102.6460 E0.0558
G1 X108.3690 Y102.2600 F6000
G92 E0.0000
G1 X108.2550 Y102.1460 E0.0043 F2880
G1 X108.2550 Y101.6360 E0.0181
G1 X108.3690 Y101.7500 E0.0224
G1 X108.3690 Y101.2410 E0.0361
G1 X108.2550 Y101.1270 E0.0405
G1 X111.8560 Y101.1410 F6000
G1 X111.8550 Y102.0720
G1 X113.9780 Y102.0720
G1 X113.9780 Y101.1490
G1 X117.0710 Y101.1610
G92 E0.0000
G1 X118.8390 Y102.9290 E0.0842 F3600
G1 X118.8390 Y106.1110 E0.1914
G1 X115.3380 Y102.6100 E0.3581
G1 X115.3380 Y103.0530 E0.3730
G1 X114.9580 Y103.0530 E0.3858
G1 X112.5990 Y103.0530 E0.4653
G1 X117.2050 Y107.6590 E0.6846
G1 X116.8950 Y107.6590 E0.6951
G1 X116.8940 Y110.5300 E0.7917
G1 X108.7740 Y102.4100 E1.1784
G1 X108.7750 Y103.0540 E1.2001
G1 X107.8510 Y103.0530 E1.2312
G1 X106.2350 Y103.0530 E1.2856
G1 X118.8390 Y115.6570 E1.8859
G1 X118.8390 Y118.8390 E1.9931
G1 X101.1610 Y101.1610 E2.8350
G1 X101.1610 Y104.3430 E2.9421
G1 X115.6570 Y118.8390 E3.6325
G1 X112.4750 Y118.8390 E3.7397
G1 X101.1610 Y107.5250 E4.2785
G1 X101.1610 Y110.7070 E4.3857
G1 X109.2930 Y118.8390 E4.7729
G1 X106.1110 Y118.8390 E4.8801
G1 X101.1610 Y113.8890 E5.1158
G1 X101.1610 Y117.0710 E5.2230
G1 X102.9290 Y118.8390 E5.3072
G92 E0.0000
G1 E-5 F2400 ; custom retraction
;layer 24, Z = 4.800
;fan24;
G1 Z4.800 F1200
G1 X100.9000 Y119.1000 F6000
G1 E0 F2400 ; custom un-retraction/prime
G92 E0.0000
G1 X100.9000 Y100.9000 E0.4903 F2880
G1 X104.7060 Y100.9000 E0.5929
G1 X104.7070 Y102.7920 E0.6438
G1 X108.1580 Y102.7920 E0.7368
G1 X108.1570 Y100.9000 E0.7878
G1 X111.0140 Y100.9000 E0.8648
G1 X111.0130 Y102.7920 E0.9157
G1 X114.5710 Y102.7920 E1.0116
G1 X114.5720 Y100.9000 E1.0626
G1 X119.1000 Y100.9000 E1.1846
G1 X119.1000 Y107.9190 E1.3736
G1 X117.1560 Y107.9180 E1.4260
G1 X117.1550 Y111.3990 E1.5198
G1 X119.1000 Y111.4000 E1.5722
G1 X119.1000 Y119.1000 E1.7796
G1 X100.9000 Y119.1000 E2.2700
G1 X100.5400 Y119.4600 F6000
G92 E0.0000
G1 X100.5400 Y100.5400 E0.5097 F2880
G1 X105.0660 Y100.5400 E0.6317
G1 X105.0670 Y102.4320 E0.6826
G1 X107.7980 Y102.4320 E0.7562
G1 X107.7970 Y100.5400 E0.8072
G1 X111.3740 Y100.5400 E0.9036
G1 X111.3730 Y102.4320 E0.9545
G1 X114.2110 Y102.4320 E1.0310
G1 X114.2120 Y100.5400 E1.0820
G1 X119.4600 Y100.5400 E1.2233
G1 X119.4600 Y108.2790 E1.4318
G1 X117.5160 Y108.2780 E1.4842
G1 X117.5150 Y111.0390 E1.5586
G1 X119.4600 Y111.0400 E1.6110
G1 X119.4600 Y119.4600 E1.8378
G1 X100.5400 Y119.4600 E2.3475
G1 X100.1800 Y119.8200 F6000
G92 E0.0000
G1 X100.1800 Y100.1800 E0.5291 F2160
G1 X105.4260 Y100.1800 E0.6705
G1 X105.4270 Y102.0720 E0.7214
G1 X107.4380 Y102.0720 E0.7756
G1 X107.4370 Y100.1800 E0.8266
G1 X111.7340 Y100.1800 E0.9424
G1 X111.7330 Y102.0720 E0.9933
G1 X113.8510 Y102.0720 E1.0504
G1 X113.8520 Y100.1800 E1.1014
G1 X119.8200 Y100.1800 E1.2621
G1 X119.8200 Y108.6390 E1.4900
G1 X117.8760 Y108.6380 E1.5424
G1 X117.8750 Y110.6790 E1.5974
G1 X119.8200 Y110.6800 E1.6498
G1 X119.8200 Y119.8200 E1.8960
G1 X100.1800 Y119.8200 E2.4251
G1 X108.4880 Y102.3480 F6000
G92 E0.0000
G1 X108.3740 Y102.4620 E0.0043 F2880
G1 X108.3740 Y101.9530 E0.0180
G1 X108.4870 Y101.8390 E0.0224
G1 X108.4870 Y101.3300 E0.0361
G1 X108.3730 Y101.4440 E0.0404
G1 X110.6700 Y101.1840 F6000
G92 E0.0000
G1 X110.7380 Y101.1160 E0.0026 F2880
G1 X110.7980 Y101.1160 E0.0042
G1 X110.7980 Y101.5660 E0.0163
G1 X110.6700 Y101.6930 E0.0212
G1 X110.6700 Y102.2020 E0.0349
G1 X110.7970 Y102.0750 E0.0397
G1 X110.7970 Y102.5840 E0.0535
G1 X110.7330 Y102.6490 E0.0559
G1 X114.8070 Y102.1390 F6000
G92 E0.0000
G1 X114.7870 Y102.1580 E0.0007 F2880
G1 X114.7870 Y101.8950 E0.0078
G1 X114.7870 Y101.6490 E0.0145
G1 X114.8070 Y101.6290 E0.0152
G1 X114.8070 Y101.1200 E0.0289
G1 X114.7880 Y101.1390 E0.0297
G1 X113.8520 Y101.2620 F6000
G1 X113.8510 Y102.0720
G1 X111.7330 Y102.0720
G1 X111.7340 Y101.5400
G1 X101.1610 Y102.9290
G92 E0.0000
G1 X102.9290 Y101.1610 E0.0842 F3600
G1 X104.4460 Y101.1610 E0.1353
G1 X104.4460 Y102.8260 E0.1913
G1 X101.1610 Y106.1110 E0.3478
G1 X101.1610 Y109.2930 E0.4550
G1 X107.4010 Y103.0530 E0.7521
G1 X107.9690 Y103.0540 E0.7713
G1 X108.8930 Y103.0540 E0.8024
G1 X108.8920 Y101.5620 E0.8527
G1 X109.2930 Y101.1610 E0.8717
G1 X110.2650 Y101.1610 E0.9045
G1 X110.2640 Y103.0540 E0.9682
G1 X110.5820 Y103.0540 E0.9789
G1 X101.1610 Y112.4750 E1.4276
G1 X101.1610 Y115.6570 E1.5348
G1 X113.7650 Y103.0530 E2.1350
G1 X114.8320 Y103.0530 E2.1710
G1 X115.2110 Y103.0530 E2.1837
G1 X115.2120 Y101.6060 E2.2325
G1 X115.6570 Y101.1610 E2.2537
G1 X118.8390 Y101.1610 E2.3608
G1 X101.1610 Y118.8390 E3.2027
G1 X104.3430 Y118.8390 E3.3099
G1 X118.8390 Y104.3430 E4.0003
G1 X118.8390 Y107.5250 E4.1074
G1 X118.7060 Y107.6580 E4.1137
G1 X116.8960 Y107.6570 E4.1747
G1 X116.8950 Y109.4690 E4.2357
G1 X107.5250 Y118.8390 E4.6820
G1 X110.7070 Y118.8390 E4.7891
G1 X117.8860 Y111.6600 E5.1310
G1 X118.8390 Y111.6600 E5.1631
G1 X118.8390 Y113.8890 E5.2382
G1 X113.8890 Y118.8390 E5.4739
G1 X117.0710 Y118.8390 E5.5811
G1 X118.8390 Y117.0710 E5.6653
G92 E0.0000
G1 E-5 F2400 ; custom retraction
;layer 25, Z = 5.000
;fan25;
G1 Z5.000 F1200
G1 X119.1000 Y119.1000 F6000
G1 E0 F2400 ; custom un-retraction/prime
G92 E0.0000
G1 X100.9000 Y119.1000 E0.4903 F2880
G1 X100.9000 Y100.9000 E0.9806
G1 X104.8180 Y100.9000 E1.0862
G1 X104.8180 Y102.7920 E1.1372
G1 X108.2760 Y102.7920 E1.2303
G1 X108.2760 Y100.9000 E1.2813
G1 X110.8920 Y100.9000 E1.3518
G1 X110.8910 Y102.7920 E1.4028
G1 X114.4440 Y102.7920 E1.4985
G1 X114.4450 Y100.9000 E1.5495
G1 X119.1000 Y100.9000 E1.6749
G1 X119.1000 Y107.9170 E1.8639
G1 X117.1570 Y107.9160 E1.9163
G1 X117.1550 Y111.3970 E2.0100
G1 X119.1000 Y111.3970 E2.0624
G1 X119.1000 Y119.1000 E2.2700
G1 X119.4600 Y119.4600 F6000
G92 E0.0000
G1 X100.5400 Y119.4600 E0.5097 F2880
G1 X100.5400 Y100.5400 E1.0194
G1 X105.1770 Y100.5400 E1.1444
G1 X105.1780 Y102.4320 E1.1954
G1 X107.9160 Y102.4320 E1.2691
G1 X107.9150 Y100.5400 E1.3201
G1 X111.2520 Y100.5400 E1.4100
G1 X111.2510 Y102.4320 E1.4610
G1 X114.0850 Y102.4320 E1.5373
G1 X114.0860 Y100.5400 E1.5883
G1 X119.4600 Y100.5400 E1.7331
G1 X119.4600 Y108.2770 E1.9415
G1 X117.5170 Y108.2760 E1.9939
G1 X117.5150 Y111.0370 E2.0682
G1 X119.4600 Y111.0380 E2.1206
G1 X119.4600 Y119.4600 E2.3475
G1 X119.8200 Y119.8200 F6000
G92 E0.0000
G1 X100.1800 Y119.8200 E0.5291 F2160
G1 X100.1800 Y100.1800 E1.0582
G1 X105.5370 Y100.1800 E1.2026
G1 X105.5380 Y102.0720 E1.2535
G1 X107.5560 Y102.0720 E1.3079
G1 X107.5550 Y100.1800 E1.3589
G1 X111.6120 Y100.1800 E1.4682
G1 X111.6110 Y102.0720 E1.5192
G1 X113.7250 Y102.0720 E1.5761
G1 X113.7260 Y100.1800 E1.6271
G1 X119.8200 Y100.1800 E1.7913
G1 X119.8200 Y108.6370 E2.0191
G1 X117.8760 Y108.6360 E2.0715
G1 X117.8760 Y110.6770 E2.1264
G1 X119.8200 Y110.6780 E2.1788
G1 X119.8200 Y119.8200 E2.4251
G1 X114.6800 Y102.4610 F6000
G92 E0.0000
G1 X114.6610 Y102.4420 E0.0007 F2880
G1 X114.6610 Y101.9330 E0.0144
G1 X114.6800 Y101.9520 E0.0152
G1 X114.6810 Y101.4430 E0.0289
G1 X114.6610 Y101.4240 E0.0296
G1 X113.7250 Y101.4150 F6000
G1 X113.7250 Y102.0720
G1 X111.6110 Y102.0720
G1 X111.6120 Y101.3950
G1 X110.5490 Y101.3840
G92 E0.0000
G1 X110.6760 Y101.5120 E0.0048 F2880
G1 X110.6760 Y102.0210 E0.0186
G1 X110.5480 Y101.8930 E0.0234
G1 X110.5480 Y102.4020 E0.0371
G1 X110.6750 Y102.5290 E0.0420
G1 X108.6060 Y102.4970 F6000
G92 E0.0000
G1 X108.4920 Y102.3830 E0.0043 F2880
G1 X108.4920 Y101.8730 E0.0181
G1 X108.6060 Y101.9870 E0.0224
G1 X108.6060 Y101.4780 E0.0361
G1 X108.4920 Y101.3640 E0.0405
G1 X107.5560 Y101.3670 F6000
G1 X107.5560 Y102.0720
G1 X105.5380 Y102.0720
G1 X105.5380 Y101.3720
G1 X104.5570 Y101.3750
G92 E0.0000
G1 X104.3430 Y101.1610 E0.0102 F3600
G1 X101.1610 Y101.1610 E0.1173
G1 X118.8390 Y118.8390 E0.9592
G1 X118.8390 Y115.6570 E1.0664
G1 X106.2350 Y103.0530 E1.6667
G1 X108.0880 Y103.0530 E1.7290
G1 X109.0120 Y103.0540 E1.7602
G1 X109.0110 Y102.6470 E1.7739
G1 X116.8950 Y110.5310 E2.1493
G1 X116.8960 Y107.6550 E2.2461
G1 X117.2010 Y107.6550 E2.2564
G1 X112.5990 Y103.0530 E2.4756
G1 X114.7050 Y103.0530 E2.5465
G1 X115.0850 Y103.0530 E2.5593
G1 X115.0850 Y102.3570 E2.5827
G1 X118.8390 Y106.1110 E2.7615
G1 X118.8390 Y102.9290 E2.8686
G1 X117.0710 Y101.1610 E2.9528
G1 X113.7250 Y101.8300 F6000
G1 X113.7250 Y102.0720
G1 X112.5140 Y102.0720
G1 X101.1610 Y104.3430
G92 E0.0000
G1 X115.6570 Y118.8390 E0.6904 F3600
G1 X112.4750 Y118.8390 E0.7975
G1 X101.1610 Y107.5250 E1.3364
G1 X101.1610 Y110.7070 E1.4435
G1 X109.2930 Y118.8390 E1.8308
G1 X106.1110 Y118.8390 E1.9380
G1 X101.1610 Y113.8890 E2.1737
G1 X101.1610 Y117.0710 E2.2809
G1 X102.9290 Y118.8390 E2.3651
G92 E0.0000
G1 E-5 F2400 ; custom retraction
;layer 26, Z = 5.200
;fan26;
G1 Z5.200 F1200
G1 X100.9000 Y119.1000 F6000
G1 E0 F2400 ; custom un-retraction/prime
G92 E0.0000
G1 X100.9000 Y100.9000 E0.4903 F2880
G1 X104.9290 Y100.9000 E0.5989
G1 X104.9290 Y102.7930 E0.6498
G1 X108.3950 Y102.7930 E0.7432
G1 X108.3940 Y100.9000 E0.7942
G1 X110.7700 Y100.9000 E0.8582
G1 X110.7690 Y102.7930 E0.9092
G1 X114.3180 Y102.7930 E1.0048
G1 X114.3190 Y100.9000 E1.0558
G1 X119.1000 Y100.9000 E1.1846
G1 X119.1000 Y107.9140 E1.3736
G1 X117.1570 Y107.9140 E1.4259
G1 X117.1560 Y111.3940 E1.5197
G1 X119.1000 Y111.3950 E1.5721
G1 X119.1000 Y119.1000 E1.7796
G1 X100.9000 Y119.1000 E2.2700
G1 X100.5400 Y119.4600 F6000
G92 E0.0000
G1 X100.5400 Y100.5400 E0.5097 F2880
G1 X105.2880 Y100.5400 E0.6376
G1 X105.2890 Y102.4330 E0.6886
G1 X108.0350 Y102.4330 E0.7626
G1 X108.0340 Y100.5400 E0.8136
G1 X111.1300 Y100.5400 E0.8970
G1 X111.1290 Y102.4330 E0.9480
G1 X113.9580 Y102.4330 E1.0242
G1 X113.9590 Y100.5400 E1.0752
G1 X119.4600 Y100.5400 E1.2234
G1 X119.4600 Y108.2750 E1.4318
G1 X117.5170 Y108.2740 E1.4841
G1 X117.5160 Y111.0350 E1.5585
G1 X119.4600 Y111.0350 E1.6109
G1 X119.4600 Y119.4600 E1.8378
G1 X100.5400 Y119.4600 E2.3475
G1 X100.1800 Y119.8200 F6000
G92 E0.0000
G1 X100.1800 Y100.1800 E0.5291 F2160
G1 X105.6480 Y100.1800 E0.6764
G1 X105.6490 Y102.0730 E0.7274
G1 X107.6750 Y102.0730 E0.7820
G1 X107.6740 Y100.1800 E0.8330
G1 X111.4910 Y100.1800 E0.9358
G1 X111.4900 Y102.0730 E0.9868
G1 X113.5980 Y102.0730 E1.0436
G1 X113.5990 Y100.1800 E1.0946
G1 X119.8200 Y100.1800 E1.2622
G1 X119.8200 Y108.6350 E1.4900
G1 X117.8770 Y108.6340 E1.5423
G1 X117.8760 Y110.6750 E1.5973
G1 X119.8200 Y110.6760 E1.6497
G1 X119.8200 Y119.8200 E1.8960
G1 X100.1800 Y119.8200 E2.4251
G1 X108.6960 Y102.6490 F6000
G92 E0.0000
G1 X108.7250 Y102.6200 E0.0011 F2880
G1 X108.7250 Y102.1110 E0.0148
G1 X108.6110 Y102.2250 E0.0192
G1 X108.6100 Y101.7160 E0.0329
G1 X108.7240 Y101.6020 E0.0372
G1 X108.7240 Y101.1160 E0.0503
G1 X108.7020 Y101.1160 E0.0509
G1 X108.6100 Y101.2080 E0.0544
G1 X110.4270 Y101.4280 F6000
G92 E0.0000
G1 X110.5540 Y101.3000 E0.0049 F2880
G1 X110.5540 Y101.8090 E0.0186
G1 X110.4260 Y101.9370 E0.0234
G1 X110.4260 Y102.4460 E0.0372
G1 X110.5540 Y102.3190 E0.0420
G1 X114.5540 Y102.3920 F6000
G92 E0.0000
G1 X114.5340 Y102.4110 E0.0007 F2880
G1 X114.5340 Y101.9020 E0.0145
G1 X114.5540 Y101.8820 E0.0152
G1 X114.5540 Y101.3730 E0.0289
G1 X114.5350 Y101.3920 E0.0297
G1 X113.5990 Y101.5000 F6000
G1 X113.5980 Y102.0730
G1 X111.4900 Y102.0730
G1 X111.4900 Y101.7420
G1 X101.1610 Y102.9290
G92 E0.0000
G1 X102.9290 Y101.1610 E0.0842 F3600
G1 X104.6680 Y101.1610 E0.1428
G1 X104.6680 Y102.6040 E0.1913
G1 X101.1610 Y106.1110 E0.3584
G1 X101.1610 Y109.2930 E0.4655
G1 X107.4010 Y103.0540 E0.7627
G1 X108.2060 Y103.0540 E0.7898
G1 X109.1300 Y103.0540 E0.8210
G1 X109.1290 Y101.3250 E0.8792
G1 X109.2930 Y101.1610 E0.8870
G1 X110.0220 Y101.1610 E0.9115
G1 X110.0210 Y103.0540 E0.9753
G1 X110.5820 Y103.0540 E0.9942
G1 X101.1610 Y112.4750 E1.4429
G1 X101.1610 Y115.6570 E1.5500
G1 X113.7650 Y103.0540 E2.1503
G1 X114.5790 Y103.0530 E2.1777
G1 X114.9580 Y103.0530 E2.1905
G1 X114.9590 Y101.8590 E2.2307
G1 X115.6570 Y101.1610 E2.2639
G1 X118.8390 Y101.1610 E2.3711
G1 X101.1610 Y118.8390 E3.2130
G1 X104.3430 Y118.8390 E3.3201
G1 X118.8390 Y104.3430 E4.0105
G1 X118.8390 Y107.5250 E4.1177
G1 X118.7110 Y107.6530 E4.1238
G1 X116.8960 Y107.6530 E4.1849
G1 X116.8950 Y109.4690 E4.2460
G1 X107.5250 Y118.8390 E4.6923
G1 X110.7070 Y118.8390 E4.7995
G1 X117.8900 Y111.6560 E5.1416
G1 X118.8390 Y111.6560 E5.1735
G1 X118.8390 Y113.8890 E5.2487
G1 X113.8890 Y118.8390 E5.4845
G1 X117.0710 Y118.8390 E5.5916
G1 X118.8390 Y117.0710 E5.6758
G92 E0.0000
G1 E-5 F2400 ; custom retraction
;layer 27, Z = 5.400
;fan27;
G1 Z5.400 F1200
G1 X119.1000 Y119.1000 F6000
G1 E0 F2400 ; custom un-retraction/prime
G92 E0.0000
G1 X100.9000 Y119.1000 E0.4903 F2880
G1 X100.9000 Y100.9000 E0.9806
G1 X105.0400 Y100.9000 E1.0922
G1 X105.0400 Y102.7930 E1.1432
G1 X108.5130 Y102.7930 E1.2367
G1 X108.5130 Y100.9000 E1.2877
G1 X110.6480 Y100.9000 E1.3453
G1 X110.6470 Y102.7930 E1.3962
G1 X114.1920 Y102.7930 E1.4917
G1 X114.1930 Y100.9000 E1.5427
G1 X119.1000 Y100.9000 E1.6749
G1 X119.1000 Y107.9120 E1.8638
G1 X117.1570 Y107.9110 E1.9162
G1 X117.1560 Y111.3920 E2.0100
G1 X119.1000 Y111.3930 E2.0623
G1 X119.1000 Y119.1000 E2.2700
G1 X119.4600 Y119.4600 F6000
G92 E0.0000
G1 X100.5400 Y119.4600 E0.5097 F2880
G1 X100.5400 Y100.5400 E1.0194
G1 X105.3990 Y100.5400 E1.1504
G1 X105.4000 Y102.4330 E1.2013
G1 X108.1530 Y102.4330 E1.2755
G1 X108.1520 Y100.5400 E1.3265
G1 X111.0090 Y100.5400 E1.4035
G1 X111.0080 Y102.4330 E1.4544
G1 X113.8320 Y102.4330 E1.5305
G1 X113.8330 Y100.5400 E1.5815
G1 X119.4600 Y100.5400 E1.7331
G1 X119.4600 Y108.2720 E1.9414
G1 X117.5170 Y108.2720 E1.9938
G1 X117.5160 Y111.0320 E2.0682
G1 X119.4600 Y111.0330 E2.1205
G1 X119.4600 Y119.4600 E2.3475
G1 X119.8200 Y119.8200 F6000
G92 E0.0000
G1 X100.1800 Y119.8200 E0.5291 F2160
G1 X100.1800 Y100.1800 E1.0582
G1 X105.7590 Y100.1800 E1.2085
G1 X105.7600 Y102.0730 E1.2595
G1 X107.7930 Y102.0730 E1.3143
G1 X107.7920 Y100.1800 E1.3653
G1 X111.3690 Y100.1800 E1.4616
G1 X111.3680 Y102.0730 E1.5126
G1 X113.4720 Y102.0730 E1.5693
G1 X113.4730 Y100.1800 E1.6203
G1 X119.8200 Y100.1800 E1.7913
G1 X119.8200 Y108.6330 E2.0190
G1 X117.8770 Y108.6320 E2.0714
G1 X117.8760 Y110.6730 E2.1264
G1 X119.8200 Y110.6730 E2.1787
G1 X119.8200 Y119.8200 E2.4251
G1 X114.4270 Y102.2080 F6000
G92 E0.0000
G1 X114.4080 Y102.1890 E0.0007 F2880
G1 X114.4080 Y101.8700 E0.0093
G1 X114.4080 Y101.6800 E0.0144
G1 X114.4270 Y101.7000 E0.0152
G1 X114.4280 Y101.1910 E0.0289
G1 X114.4080 Y101.1710 E0.0296
G1 X113.4720 Y101.1640 F6000
G1 X113.4720 Y102.0730
G1 X111.3680 Y102.0730
G1 X111.3680 Y101.1490
G1 X110.3050 Y101.1410
G92 E0.0000
G1 X110.4320 Y101.2680 E0.0048 F2880
G1 X110.4320 Y101.7770 E0.0186
G1 X110.3050 Y101.6500 E0.0234
G1 X110.3040 Y102.1590 E0.0371
G1 X110.4320 Y102.2860 E0.0420
G1 X108.7290 Y102.6200 F6000
G92 E0.0000
G1 X108.7590 Y102.6490 E0.0011 F2880
G1 X108.8430 Y102.6490 E0.0034
G1 X108.8430 Y102.2250 E0.0148
G1 X108.7290 Y102.1110 E0.0192
G1 X108.7290 Y101.6010 E0.0329
G1 X108.8430 Y101.7150 E0.0373
G1 X108.8430 Y101.2060 E0.0510
G1 X108.7530 Y101.1160 E0.0544
G1 X107.7930 Y101.2320 F6000
G1 X107.7930 Y102.0730
G1 X105.7600 Y102.0730
G1 X105.7600 Y101.4780
G1 X104.7790 Y101.5970
G92 E0.0000
G1 X104.3430 Y101.1610 E0.0208 F3600
G1 X101.1610 Y101.1610 E0.1279
G1 X118.8390 Y118.8390 E0.9698
G1 X118.8390 Y115.6570 E1.0770
G1 X106.2360 Y103.0540 E1.6772
G1 X108.3250 Y103.0540 E1.7476
G1 X109.2490 Y103.0540 E1.7787
G1 X109.2480 Y102.8840 E1.7844
G1 X116.8950 Y110.5310 E2.1486
G1 X116.8960 Y107.6500 E2.2456
G1 X117.1960 Y107.6500 E2.2557
G1 X112.6000 Y103.0540 E2.4746
G1 X114.4520 Y103.0540 E2.5370
G1 X114.8320 Y103.0530 E2.5498
G1 X114.8320 Y102.1040 E2.5818
G1 X118.8390 Y106.1110 E2.7726
G1 X118.8390 Y102.9290 E2.8798
G1 X117.0710 Y101.1610 E2.9640
G1 X113.4720 Y101.8810 F6000
G1 X113.4720 Y102.0730
G1 X112.5120 Y102.0730
G1 X101.1610 Y104.3430
G92 E0.0000
G1 X115.6570 Y118.8390 E0.6904 F3600
G1 X112.4750 Y118.8390 E0.7975
G1 X101.1610 Y107.5250 E1.3364
G1 X101.1610 Y110.7070 E1.4435
G1 X109.2930 Y118.8390 E1.8308
G1 X106.1110 Y118.8390 E1.9380
G1 X101.1610 Y113.8890 E2.1737
G1 X101.1610 Y117.0710 E2.2809
G1 X102.9290 Y118.8390 E2.3651
G92 E0.0000
G1 E-5 F2400 ; custom retraction
;layer 28, Z = 5.600
;fan28;
G1 Z5.600 F1200
G1 X100.9000 Y119.1000 F6000
G1 E0 F2400 ; custom un-retraction/prime
G92 E0.0000
G1 X100.9000 Y100.9000 E0.4903 F2880
G1 X105.1510 Y100.9000 E0.6048
G1 X105.1510 Y102.7930 E0.6558
G1 X108.6320 Y102.7930 E0.7496
G1 X108.6310 Y100.9000 E0.8006
G1 X110.5270 Y100.9000 E0.8517
G1 X110.5260 Y102.7930 E0.9027
G1 X114.0650 Y102.7930 E0.9980
G1 X114.0660 Y100.9000 E1.0490
G1 X119.1000 Y100.9000 E1.1846
G1 X119.1000 Y107.9100 E1.3735
G1 X117.1580 Y107.9090 E1.4258
G1 X117.1560 Y111.3900 E1.5196
G1 X119.1000 Y111.3910 E1.5720
G1 X119.1000 Y119.1000 E1.7796
G1 X100.9000 Y119.1000 E2.2700
G1 X100.5400 Y119.4600 F6000
G92 E0.0000
G1 X100.5400 Y100.5400 E0.5097 F2880
G1 X105.5100 Y100.5400 E0.6436
G1 X105.5110 Y102.4330 E0.6946
G1 X108.2720 Y102.4330 E0.7690
G1 X108.2710 Y100.5400 E0.8200
G1 X110.8870 Y100.5400 E0.8905
G1 X110.8860 Y102.4330 E0.9415
G1 X113.7050 Y102.4330 E1.0174
G1 X113.7060 Y100.5400 E1.0684
G1 X119.4600 Y100.5400 E1.2234
G1 X119.4600 Y108.2700 E1.4317
G1 X117.5180 Y108.2690 E1.4840
G1 X117.5160 Y111.0300 E1.5584
G1 X119.4600 Y111.0310 E1.6107
G1 X119.4600 Y119.4600 E1.8378
G1 X100.5400 Y119.4600 E2.3475
G1 X100.1800 Y119.8200 F6000
G92 E0.0000
G1 X100.1800 Y100.1800 E0.5291 F2160
G1 X105.8700 Y100.1800 E0.6824
G1 X105.8710 Y102.0730 E0.7334
G1 X107.9120 Y102.0730 E0.7884
G1 X107.9110 Y100.1800 E0.8394
G1 X111.2470 Y100.1800 E0.9293
G1 X111.2460 Y102.0730 E0.9803
G1 X113.3450 Y102.0730 E1.0368
G1 X113.3460 Y100.1800 E1.0878
G1 X119.8200 Y100.1800 E1.2622
G1 X119.8200 Y108.6300 E1.4899
G1 X117.8770 Y108.6300 E1.5422
G1 X117.8760 Y110.6700 E1.5972
G1 X119.8200 Y110.6710 E1.6495
G1 X119.8200 Y119.8200 E1.8960
G1 X100.1800 Y119.8200 E2.4251
G1 X108.9620 Y102.3830 F6000
G92 E0.0000
G1 X108.8480 Y102.4970 E0.0043 F2880
G1 X108.8480 Y101.9880 E0.0180
G1 X108.9610 Y101.8740 E0.0224
G1 X108.9610 Y101.3660 E0.0361
G1 X108.8470 Y101.4800 E0.0404
G1 X110.1830 Y101.1620 F6000
G92 E0.0000
G1 X110.2290 Y101.1160 E0.0017 F2880
G1 X110.3100 Y101.1160 E0.0039
G1 X110.3100 Y101.5440 E0.0155
G1 X110.1830 Y101.6710 E0.0203
G1 X110.1830 Y102.1810 E0.0340
G1 X110.3100 Y102.0530 E0.0389
G1 X110.3100 Y102.5630 E0.0526
G1 X110.2230 Y102.6500 E0.0559
G1 X114.2970 Y102.6480 F6000
G92 E0.0000
G1 X114.3010 Y102.6450 E0.0001 F2880
G1 X114.3010 Y102.1350 E0.0139
G1 X114.2810 Y102.1550 E0.0146
G1 X114.2820 Y101.8950 E0.0216
G1 X114.2820 Y101.6450 E0.0283
G1 X114.3010 Y101.6260 E0.0291
G1 X114.3010 Y101.1170 E0.0428
G1 X114.2820 Y101.1360 E0.0435
G1 X113.3460 Y101.2640 F6000
G1 X113.3450 Y102.0730
G1 X111.2460 Y102.0730
G1 X111.2460 Y101.5510
G1 X107.9120 Y102.0070
G1 X107.9120 Y102.0730
G1 X107.4270 Y102.0730
G1 X101.1610 Y102.9290
G92 E0.0000
G1 X102.9290 Y101.1610 E0.0842 F3600
G1 X104.8900 Y101.1610 E0.1502
G1 X104.8900 Y102.3820 E0.1913
G1 X101.1610 Y106.1110 E0.3689
G1 X101.1610 Y109.2930 E0.4761
G1 X107.4000 Y103.0540 E0.7732
G1 X108.4430 Y103.0550 E0.8084
G1 X109.3670 Y103.0550 E0.8395
G1 X109.3660 Y101.1610 E0.9033
G1 X109.7780 Y101.1610 E0.9171
G1 X109.7770 Y103.0550 E0.9809
G1 X110.5820 Y103.0550 E1.0080
G1 X101.1610 Y112.4750 E1.4567
G1 X101.1610 Y115.6570 E1.5638
G1 X113.7640 Y103.0540 E2.1640
G1 X114.3260 Y103.0530 E2.1830
G1 X114.7050 Y103.0530 E2.1957
G1 X114.7060 Y102.1120 E2.2274
G1 X115.6570 Y101.1610 E2.2727
G1 X118.8390 Y101.1610 E2.3799
G1 X101.1610 Y118.8390 E3.2218
G1 X104.3430 Y118.8390 E3.3290
G1 X118.8390 Y104.3430 E4.0193
G1 X118.8390 Y107.5250 E4.1265
G1 X118.7150 Y107.6490 E4.1324
G1 X116.8970 Y107.6480 E4.1936
G1 X116.8960 Y109.4680 E4.2549
G1 X107.5250 Y118.8390 E4.7012
G1 X110.7070 Y118.8390 E4.8084
G1 X117.8950 Y111.6510 E5.1507
G1 X118.8390 Y111.6520 E5.1825
G1 X118.8390 Y113.8890 E5.2578
G1 X113.8890 Y118.8390 E5.4936
G1 X117.0710 Y118.8390 E5.6007
G1 X118.8390 Y117.0710 E5.6849
G92 E0.0000
G1 E-5 F2400 ; custom retraction
;layer 29, Z = 5.800
;fan29;
G1 Z5.800 F1200
G1 X119.1000 Y119.1000 F6000
G1 E0 F2400 ; custom un-retraction/prime
G92 E0.0000
G1 X100.9000 Y119.1000 E0.4903 F2880
G1 X100.9000 Y100.9000 E0.9806
G1 X105.2620 Y100.9000 E1.0981
G1 X105.2620 Y102.7930 E1.1491
G1 X108.7500 Y102.7930 E1.2431
G1 X108.7490 Y100.9000 E1.2941
G1 X110.4050 Y100.9000 E1.3387
G1 X110.4040 Y102.7930 E1.3897
G1 X113.9390 Y102.7930 E1.4849
G1 X113.9400 Y100.9000 E1.5359
G1 X119.1000 Y100.9000 E1.6750
G1 X119.1000 Y107.9080 E1.8638
G1 X117.1580 Y107.9070 E1.9161
G1 X117.1560 Y111.3880 E2.0099
G1 X119.1000 Y111.3890 E2.0622
G1 X119.1000 Y119.1000 E2.2700
G1 X119.4600 Y119.4600 F6000
G92 E0.0000
G1 X100.5400 Y119.4600 E0.5097 F2880
G1 X100.5400 Y100.5400 E1.0194
G1 X105.6210 Y100.5400 E1.1563
G1 X105.6220 Y102.4330 E1.2073
G1 X108.3900 Y102.4330 E1.2819
G1 X108.3890 Y100.5400 E1.3329
G1 X110.7650 Y100.5400 E1.3969
G1 X110.7640 Y102.4330 E1.4479
G1 X113.5790 Y102.4330 E1.5237
G1 X113.5800 Y100.5400 E1.5747
G1 X119.4600 Y100.5400 E1.7332
G1 X119.4600 Y108.2680 E1.9414
G1 X117.5180 Y108.2670 E1.9937
G1 X117.5170 Y111.0280 E2.0681
G1 X119.4600 Y111.0290 E2.1204
G1 X119.4600 Y119.4600 E2.3475
G1 X119.8200 Y119.8200 F6000
G92 E0.0000
G1 X100.1800 Y119.8200 E0.5291 F2160
G1 X100.1800 Y100.1800 E1.0582
G1 X105.9810 Y100.1800 E1.2145
G1 X105.9820 Y102.0730 E1.2655
G1 X108.0300 Y102.0730 E1.3207
G1 X108.0290 Y100.1800 E1.3717
G1 X111.1250 Y100.1800 E1.4551
G1 X111.1240 Y102.0730 E1.5061
G1 X113.2190 Y102.0730 E1.5625
G1 X113.2200 Y100.1800 E1.6135
G1 X119.8200 Y100.1800 E1.7913
G1 X119.8200 Y108.6280 E2.0189
G1 X117.8780 Y108.6270 E2.0713
G1 X117.8770 Y110.6680 E2.1263
G1 X119.8200 Y110.6690 E2.1786
G1 X119.8200 Y119.8200 E2.4251
G1 X114.1740 Y102.4640 F6000
G92 E0.0000
G1 X114.1550 Y102.4450 E0.0007 F2880
G1 X114.1550 Y101.9360 E0.0144
G1 X114.1740 Y101.9560 E0.0152
G1 X114.1750 Y101.4470 E0.0289
G1 X114.1550 Y101.4270 E0.0296
G1 X113.2190 Y101.4230 F6000
G1 X113.2190 Y102.0730
G1 X111.1240 Y102.0730
G1 X111.1240 Y101.4120
G1 X110.0610 Y101.4060
G92 E0.0000
G1 X110.1880 Y101.5330 E0.0048 F2880
G1 X110.1880 Y102.0420 E0.0186
G1 X110.0610 Y101.9150 E0.0234
G1 X110.0610 Y102.4240 E0.0371
G1 X110.1880 Y102.5510 E0.0420
G1 X109.0800 Y102.4620 F6000
G92 E0.0000
G1 X108.9660 Y102.3480 E0.0043 F2880
G1 X108.9660 Y101.8380 E0.0181
G1 X109.0800 Y101.9520 E0.0224
G1 X109.0800 Y101.4430 E0.0361
G1 X108.9660 Y101.3290 E0.0405
G1 X108.0300 Y101.4450 F6000
G1 X108.0300 Y102.0730
G1 X105.9820 Y102.0730
G1 X105.9820 Y101.6980
G1 X105.0010 Y101.8190
G92 E0.0000
G1 X104.3430 Y101.1610 E0.0313 F3600
G1 X101.1610 Y101.1610 E0.1385
G1 X118.8390 Y118.8390 E0.9804
G1 X118.8390 Y115.6570 E1.0876
G1 X106.2360 Y103.0540 E1.6878
G1 X108.5620 Y103.0540 E1.7661
G1 X109.4190 Y103.0550 E1.7950
G1 X116.8960 Y110.5320 E2.1511
G1 X116.8970 Y107.6460 E2.2483
G1 X117.1920 Y107.6460 E2.2582
G1 X112.6000 Y103.0540 E2.4769
G1 X114.1990 Y103.0540 E2.5308
G1 X114.5790 Y103.0540 E2.5436
G1 X114.5790 Y101.8520 E2.5840
G1 X118.8390 Y106.1110 E2.7869
G1 X118.8390 Y102.9290 E2.8940
G1 X117.0710 Y101.1610 E2.9783
G1 X113.2190 Y101.9310 F6000
G1 X113.2190 Y102.0730
G1 X112.5110 Y102.0730
G1 X101.1610 Y104.3430
G92 E0.0000
G1 X115.6570 Y118.8390 E0.6904 F3600
G1 X112.4750 Y118.8390 E0.7975
G1 X101.1610 Y107.5250 E1.3364
G1 X101.1610 Y110.7070 E1.4435
G1 X109.2930 Y118.8390 E1.8308
G1 X106.1110 Y118.8390 E1.9380
G1 X101.1610 Y113.8890 E2.1737
G1 X101.1610 Y117.0710 E2.2809
G1 X102.9290 Y118.8390 E2.3651
G92 E0.0000
G1 E-5 F2400 ; custom retraction
;layer 30, Z = 6.000
;fan30;
G1 Z6.000 F1200
G1 X100.9000 Y119.1000 F6000
G1 E0 F2400 ; custom un-retraction/prime
G92 E0.0000
G1 X100.9000 Y100.9000 E0.4903 F2880
G1 X105.3730 Y100.9000 E0.6108
G1 X105.3730 Y102.7930 E0.6618
G1 X108.8690 Y102.7930 E0.7560
G1 X108.8680 Y100.9000 E0.8070
G1 X110.2830 Y100.9000 E0.8451
G1 X110.2820 Y102.7930 E0.8961
G1 X113.8120 Y102.7930 E0.9912
G1 X113.8130 Y100.9000 E1.0422
G1 X119.1000 Y100.9000 E1.1847
G1 X119.1000 Y107.9060 E1.3734
G1 X117.1580 Y107.9050 E1.4257
G1 X117.1570 Y111.3860 E1.5195
G1 X119.1000 Y111.3870 E1.5718
G1 X119.1000 Y119.1000 E1.7796
G1 X100.9000 Y119.1000 E2.2700
G1 X100.5400 Y119.4600 F6000
G92 E0.0000
G1 X100.5400 Y100.5400 E0.5097 F2880
G1 X105.7320 Y100.5400 E0.6496
G1 X105.7330 Y102.4330 E0.7006
G1 X108.5090 Y102.4330 E0.7754
G1 X108.5080 Y100.5400 E0.8264
G1 X110.6430 Y100.5400 E0.8839
G1 X110.6420 Y102.4330 E0.9349
G1 X113.4520 Y102.4330 E1.0106
G1 X113.4530 Y100.5400 E1.0616
G1 X119.4600 Y100.5400 E1.2235
G1 X119.4600 Y108.2660 E1.4316
G1 X117.5180 Y108.2650 E1.4839
G1 X117.5170 Y111.0260 E1.5583
G1 X119.4600 Y111.0270 E1.6106
G1 X119.4600 Y119.4600 E1.8378
G1 X100.5400 Y119.4600 E2.3476
G1 X100.1800 Y119.8200 F6000
G92 E0.0000
G1 X100.1800 Y100.1800 E0.5291 F2160
G1 X106.0920 Y100.1800 E0.6884
G1 X106.0930 Y102.0730 E0.7394
G1 X108.1490 Y102.0730 E0.7948
G1 X108.1480 Y100.1800 E0.8458
G1 X111.0030 Y100.1800 E0.9227
G1 X111.0020 Y102.0730 E0.9737
G1 X113.0930 Y102.0730 E1.0300
G1 X113.0940 Y100.1800 E1.0810
G1 X119.8200 Y100.1800 E1.2622
G1 X119.8200 Y108.6260 E1.4898
G1 X117.8780 Y108.6250 E1.5421
G1 X117.8770 Y110.6660 E1.5971
G1 X119.8200 Y110.6670 E1.6494
G1 X119.8200 Y119.8200 E1.8960
G1 X100.1800 Y119.8200 E2.4251
G1 X109.1990 Y102.1460 F6000
G92 E0.0000
G1 X109.0850 Y102.2600 E0.0043 F2880
G1 X109.0840 Y101.7520 E0.0180
G1 X109.1980 Y101.6380 E0.0224
G1 X109.1980 Y101.1290 E0.0361
G1 X109.0840 Y101.2430 E0.0404
G1 X109.9390 Y101.4060 F6000
G92 E0.0000
G1 X110.0670 Y101.2780 E0.0049 F2880
G1 X110.0660 Y101.7880 E0.0186
G1 X109.9390 Y101.9150 E0.0234
G1 X109.9390 Y102.4240 E0.0372
G1 X110.0660 Y102.2970 E0.0420
G1 X114.0480 Y102.3880 F6000
G92 E0.0000
G1 X114.0280 Y102.4080 E0.0007 F2880
G1 X114.0290 Y101.8980 E0.0145
G1 X114.0480 Y101.8790 E0.0152
G1 X114.0480 Y101.3700 E0.0289
G1 X114.0290 Y101.3890 E0.0297
G1 X113.0930 Y101.5010 F6000
G1 X113.0930 Y102.0730
G1 X111.0020 Y102.0730
G1 X111.0020 Y101.7510
G1 X101.1610 Y102.9290
G92 E0.0000
G1 X102.9290 Y101.1610 E0.0842 F3600
G1 X105.1120 Y101.1610 E0.1577
G1 X105.1120 Y102.1600 E0.1913
G1 X101.1610 Y106.1110 E0.3795
G1 X101.1610 Y109.2930 E0.4867
G1 X107.4000 Y103.0540 E0.7838
G1 X108.6800 Y103.0550 E0.8269
G1 X110.4710 Y103.0540 E0.8873
G1 X110.5820 Y103.0540 E0.8910
G1 X101.1610 Y112.4750 E1.3397
G1 X101.1610 Y115.6570 E1.4468
G1 X113.7640 Y103.0540 E2.0470
G1 X114.0730 Y103.0540 E2.0575
G1 X114.4520 Y103.0540 E2.0702
G1 X114.4530 Y102.3650 E2.0934
G1 X115.6570 Y101.1610 E2.1508
G1 X118.8390 Y101.1610 E2.2579
G1 X101.1610 Y118.8390 E3.0998
G1 X104.3430 Y118.8390 E3.2070
G1 X118.8390 Y104.3430 E3.8974
G1 X118.8390 Y107.5250 E4.0045
G1 X118.7190 Y107.6450 E4.0102
G1 X116.8970 Y107.6440 E4.0716
G1 X116.8970 Y109.4670 E4.1330
G1 X107.5250 Y118.8390 E4.5793
G1 X110.7070 Y118.8390 E4.6865
G1 X117.8990 Y111.6470 E5.0290
G1 X118.8390 Y111.6470 E5.0606
G1 X118.8390 Y113.8890 E5.1361
G1 X113.8890 Y118.8390 E5.3719
G1 X117.0710 Y118.8390 E5.4790
G1 X118.8390 Y117.0710 E5.5632
G92 E0.0000
G1 E-5 F2400 ; custom retraction
;layer 31, Z = 6.200
;fan31;
G1 Z6.200 F1200
G1 X119.1000 Y119.1000 F6000
G1 E0 F2400 ; custom un-retraction/prime
G92 E0.0000
G1 X100.9000 Y119.1000 E0.4903 F2880
G1 X100.9000 Y100.9000 E0.9806
G1 X105.4840 Y100.9000 E1.1041
G1 X105.4850 Y102.7930 E1.1551
G1 X108.9870 Y102.7930 E1.2495
G1 X108.9860 Y100.9000 E1.3005
G1 X110.1610 Y100.9000 E1.3322
G1 X110.1600 Y102.7930 E1.3832
G1 X113.6860 Y102.7930 E1.4782
G1 X113.6870 Y100.9000 E1.5292
G1 X119.1000 Y100.9000 E1.6750
G1 X119.1000 Y107.9040 E1.8637
G1 X117.1590 Y107.9030 E1.9160
G1 X117.1570 Y111.3840 E2.0098
G1 X119.1000 Y111.3840 E2.0621
G1 X119.1000 Y119.1000 E2.2700
G1 X119.4600 Y119.4600 F6000
G92 E0.0000
G1 X100.5400 Y119.4600 E0.5097 F2880
G1 X100.5400 Y100.5400 E1.0194
G1 X105.8430 Y100.5400 E1.1623
G1 X105.8440 Y102.4330 E1.2133
G1 X108.6270 Y102.4330 E1.2883
G1 X108.6260 Y100.5400 E1.3393
G1 X110.5210 Y100.5400 E1.3904
G1 X110.5200 Y102.4330 E1.4414
G1 X113.3260 Y102.4330 E1.5170
G1 X113.3270 Y100.5400 E1.5680
G1 X119.4600 Y100.5400 E1.7332
G1 X119.4600 Y108.2640 E1.9413
G1 X117.5180 Y108.2630 E1.9936
G1 X117.5170 Y111.0240 E2.0680
G1 X119.4600 Y111.0250 E2.1203
G1 X119.4600 Y119.4600 E2.3476
G1 X119.8200 Y119.8200 F6000
G92 E0.0000
G1 X100.1800 Y119.8200 E0.5291 F2160
G1 X100.1800 Y100.1800 E1.0582
G1 X106.2030 Y100.1800 E1.2205
G1 X106.2040 Y102.0730 E1.2715
G1 X108.2670 Y102.0730 E1.3271
G1 X108.2660 Y100.1800 E1.3781
G1 X110.8810 Y100.1800 E1.4486
G1 X110.8800 Y102.0730 E1.4996
G1 X112.9660 Y102.0730 E1.5558
G1 X112.9670 Y100.1800 E1.6068
G1 X119.8200 Y100.1800 E1.7914
G1 X119.8200 Y108.6240 E2.0189
G1 X117.8780 Y108.6230 E2.0712
G1 X117.8770 Y110.6640 E2.1262
G1 X119.8200 Y110.6650 E2.1785
G1 X119.8200 Y119.8200 E2.4251
G1 X113.9210 Y102.2120 F6000
G92 E0.0000
G1 X113.9020 Y102.1920 E0.0007 F2880
G1 X113.9020 Y101.8950 E0.0087
G1 X113.9020 Y101.6830 E0.0144
G1 X113.9220 Y101.7030 E0.0152
G1 X113.9220 Y101.1940 E0.0289
G1 X113.9030 Y101.1750 E0.0296
G1 X112.9670 Y101.1720 F6000
G1 X112.9660 Y102.0730
G1 X110.8800 Y102.0730
G1 X110.8810 Y101.1660
G1 X109.8180 Y101.1630
G92 E0.0000
G1 X109.9450 Y101.2900 E0.0048 F2880
G1 X109.9450 Y101.7990 E0.0186
G1 X109.8170 Y101.6710 E0.0234
G1 X109.8170 Y102.1800 E0.0371
G1 X109.9440 Y102.3080 E0.0420
G1 X109.2030 Y102.5850 F6000
G92 E0.0000
G1 X109.2690 Y102.6500 E0.0025 F2880
G1 X109.3170 Y102.6500 E0.0038
G1 X109.3170 Y102.1890 E0.0162
G1 X109.2030 Y102.0750 E0.0206
G1 X109.2030 Y101.5660 E0.0343
G1 X109.3170 Y101.6800 E0.0386
G1 X109.3170 Y101.1710 E0.0523
G1 X109.2620 Y101.1160 E0.0544
G1 X108.2670 Y101.3440 F6000
G1 X108.2670 Y102.0730
G1 X106.2040 Y102.0730
G1 X106.2040 Y101.8160
G1 X105.2230 Y102.0410
G92 E0.0000
G1 X104.3430 Y101.1610 E0.0419 F3600
G1 X101.1610 Y101.1610 E0.1491
G1 X118.8390 Y118.8390 E0.9910
G1 X118.8390 Y115.6570 E1.0981
G1 X106.2360 Y103.0540 E1.6983
G1 X108.7990 Y103.0540 E1.7846
G1 X109.4190 Y103.0550 E1.8055
G1 X116.8960 Y110.5320 E2.1617
G1 X116.8980 Y107.6420 E2.2590
G1 X117.1880 Y107.6420 E2.2688
G1 X112.6000 Y103.0540 E2.4872
G1 X113.9470 Y103.0540 E2.5326
G1 X114.3260 Y103.0540 E2.5454
G1 X114.3270 Y101.5990 E2.5944
G1 X118.8390 Y106.1110 E2.8093
G1 X118.8390 Y102.9290 E2.9164
G1 X117.0710 Y101.1610 E3.0006
G1 X112.9660 Y101.9820 F6000
G1 X112.9660 Y102.0730
G1 X112.5090 Y102.0730
G1 X101.1610 Y104.3430
G92 E0.0000
G1 X115.6570 Y118.8390 E0.6904 F3600
G1 X112.4750 Y118.8390 E0.7975
G1 X101.1610 Y107.5250 E1.3364
G1 X101.1610 Y110.7070 E1.4435
G1 X109.2930 Y118.8390 E1.8308
G1 X106.1110 Y118.8390 E1.9380
G1 X101.1610 Y113.8890 E2.1737
G1 X101.1610 Y117.0710 E2.2809
G1 X102.9290 Y118.8390 E2.3651
G92 E0.0000
G1 E-5 F2400 ; custom retraction
;layer 32, Z = 6.400
;fan32;
G1 Z6.400 F1200
G1 X100.9000 Y119.1000 F6000
G1 E0 F2400 ; custom un-retraction/prime
G92 E0.0000
G1 X100.9000 Y100.9000 E0.4903 F2880
G1 X105.5950 Y100.9000 E0.6168
G1 X105.5960 Y102.7940 E0.6678
G1 X109.1060 Y102.7940 E0.7624
G1 X109.1050 Y100.9000 E0.8134
G1 X110.0390 Y100.9000 E0.8386
G1 X110.0380 Y102.7940 E0.8896
G1 X113.5590 Y102.7940 E0.9844
G1 X113.5600 Y100.9000 E1.0354
G1 X119.1000 Y100.9000 E1.1847
G1 X119.1000 Y107.9010 E1.3733
G1 X117.1590 Y107.9010 E1.4256
G1 X117.1570 Y111.3810 E1.5194
G1 X119.1000 Y111.3820 E1.5717
G1 X119.1000 Y119.1000 E1.7796
G1 X100.9000 Y119.1000 E2.2700
G1 X100.5400 Y119.4600 F6000
G92 E0.0000
G1 X100.5400 Y100.5400 E0.5097 F2880
G1 X105.9540 Y100.5400 E0.6556
G1 X105.9550 Y102.4340 E0.7066
G1 X108.7460 Y102.4340 E0.7818
G1 X108.7450 Y100.5400 E0.8328
G1 X110.3990 Y100.5400 E0.8774
G1 X110.3980 Y102.4340 E0.9284
G1 X113.1990 Y102.4340 E1.0038
G1 X113.2000 Y100.5400 E1.0549
G1 X119.4600 Y100.5400 E1.2235
G1 X119.4600 Y108.2620 E1.4315
G1 X117.5190 Y108.2610 E1.4838
G1 X117.5180 Y111.0220 E1.5582
G1 X119.4600 Y111.0220 E1.6105
G1 X119.4600 Y119.4600 E1.8378
G1 X100.5400 Y119.4600 E2.3476
G1 X100.1800 Y119.8200 F6000
G92 E0.0000
G1 X100.1800 Y100.1800 E0.5291 F2160
G1 X106.3140 Y100.1800 E0.6944
G1 X106.3150 Y102.0740 E0.7454
G1 X108.3860 Y102.0740 E0.8012
G1 X108.3850 Y100.1800 E0.8522
G1 X110.7600 Y100.1800 E0.9162
G1 X110.7590 Y102.0740 E0.9672
G1 X112.8400 Y102.0740 E1.0232
G1 X112.8410 Y100.1800 E1.0743
G1 X119.8200 Y100.1800 E1.2623
G1 X119.8200 Y108.6220 E1.4897
G1 X117.8790 Y108.6210 E1.5420
G1 X117.8780 Y110.6620 E1.5970
G1 X119.8200 Y110.6630 E1.6493
G1 X119.8200 Y119.8200 E1.8960
G1 X100.1800 Y119.8200 E2.4251
G1 X109.7130 Y102.6500 F6000
G92 E0.0000
G1 X109.8220 Y102.5410 E0.0042 F2880
G1 X109.8230 Y102.0310 E0.0179
G1 X109.3220 Y102.5320 E0.0370
G1 X109.3220 Y102.0240 E0.0507
G1 X109.8230 Y101.5220 E0.0698
G1 X109.8230 Y101.1160 E0.0807
G1 X109.7200 Y101.1160 E0.0835
G1 X109.3210 Y101.5150 E0.0987
G1 X110.7590 Y101.3910 F6000
G1 X110.7590 Y102.0740
G1 X112.8400 Y102.0740
G1 X112.8400 Y101.2130
G1 X113.7760 Y101.1330
G92 E0.0000
G1 X113.7960 Y101.1160 E0.0007 F2880
G1 X113.7950 Y101.6230 E0.0144
G1 X113.7760 Y101.6420 E0.0151
G1 X113.7760 Y101.8950 E0.0219
G1 X113.7760 Y102.1520 E0.0288
G1 X113.7950 Y102.1320 E0.0296
G1 X113.7950 Y102.6420 E0.0433
G1 X113.7870 Y102.6490 E0.0436
G1 X101.1610 Y102.9290 F6000
G92 E0.0000
G1 X102.9290 Y101.1610 E0.0842 F3600
G1 X105.3340 Y101.1610 E0.1652
G1 X105.3340 Y101.9380 E0.1914
G1 X101.1610 Y106.1110 E0.3901
G1 X101.1610 Y109.2930 E0.4973
G1 X107.4000 Y103.0550 E0.7944
G1 X108.9170 Y103.0550 E0.8455
G1 X110.2270 Y103.0550 E0.8896
G1 X110.5820 Y103.0550 E0.9016
G1 X101.1610 Y112.4750 E1.3502
G1 X101.1610 Y115.6570 E1.4574
G1 X113.7640 Y103.0550 E2.0576
G1 X113.8200 Y103.0540 E2.0595
G1 X114.2000 Y103.0540 E2.0723
G1 X114.2000 Y102.6180 E2.0869
G1 X115.6570 Y101.1610 E2.1563
G1 X118.8390 Y101.1610 E2.2635
G1 X101.1610 Y118.8390 E3.1054
G1 X104.3430 Y118.8390 E3.2126
G1 X118.8390 Y104.3430 E3.9029
G1 X118.8390 Y107.5250 E4.0101
G1 X118.7240 Y107.6400 E4.0156
G1 X116.8980 Y107.6400 E4.0771
G1 X116.8970 Y109.4670 E4.1386
G1 X107.5250 Y118.8390 E4.5850
G1 X110.7070 Y118.8390 E4.6921
G1 X117.9030 Y111.6430 E5.0348
G1 X118.8390 Y111.6430 E5.0663
G1 X118.8390 Y113.8890 E5.1420
G1 X113.8890 Y118.8390 E5.3777
G1 X117.0710 Y118.8390 E5.4849
G1 X118.8390 Y117.0710 E5.5691
G92 E0.0000
G1 E-5 F2400 ; custom retraction
;layer 33, Z = 6.600
;fan33;
G1 Z6.600 F1200
G1 X119.1000 Y119.1000 F6000
G1 E0 F2400 ; custom un-retraction/prime
G92 E0.0000
G1 X100.9000 Y119.1000 E0.4903 F2880
G1 X100.9000 Y100.9000 E0.9806
G1 X105.7060 Y100.9000 E1.1101
G1 X105.7070 Y102.7940 E1.1611
G1 X109.2240 Y102.7940 E1.2559
G1 X109.2230 Y100.9000 E1.3069
G1 X109.9170 Y100.9000 E1.3256
G1 X109.9160 Y102.7940 E1.3766
G1 X113.4330 Y102.7940 E1.4714
G1 X113.4340 Y100.9000 E1.5224
G1 X119.1000 Y100.9000 E1.6750
G1 X119.1000 Y107.8990 E1.8636
G1 X117.1590 Y107.8980 E1.9159
G1 X117.1580 Y111.3790 E2.0097
G1 X119.1000 Y111.3800 E2.0620
G1 X119.1000 Y119.1000 E2.2700
G1 X119.4600 Y119.4600 F6000
G92 E0.0000
G1 X100.5400 Y119.4600 E0.5097 F2880
G1 X100.5400 Y100.5400 E1.0194
G1 X106.0660 Y100.5400 E1.1683
G1 X106.0660 Y102.4340 E1.2193
G1 X108.8640 Y102.4340 E1.2947
G1 X108.8630 Y100.5400 E1.3457
G1 X110.2780 Y100.5400 E1.3838
G1 X110.2770 Y102.4340 E1.4348
G1 X113.0730 Y102.4340 E1.5102
G1 X113.0740 Y100.5400 E1.5612
G1 X119.4600 Y100.5400 E1.7332
G1 X119.4600 Y108.2590 E1.9412
G1 X117.5190 Y108.2590 E1.9935
G1 X117.5180 Y111.0190 E2.0679
G1 X119.4600 Y111.0200 E2.1202
G1 X119.4600 Y119.4600 E2.3476
G1 X119.8200 Y119.8200 F6000
G92 E0.0000
G1 X100.1800 Y119.8200 E0.5291 F2160
G1 X100.1800 Y100.1800 E1.0582
G1 X106.4250 Y100.1800 E1.2265
G1 X106.4260 Y102.0740 E1.2775
G1 X108.5040 Y102.0740 E1.3335
G1 X108.5030 Y100.1800 E1.3845
G1 X110.6380 Y100.1800 E1.4420
G1 X110.6370 Y102.0740 E1.4930
G1 X112.7130 Y102.0740 E1.5490
G1 X112.7140 Y100.1800 E1.6000
G1 X119.8200 Y100.1800 E1.7914
G1 X119.8200 Y108.6200 E2.0188
G1 X117.8790 Y108.6190 E2.0711
G1 X117.8780 Y110.6600 E2.1261
G1 X119.8200 Y110.6600 E2.1784
G1 X119.8200 Y119.8200 E2.4251
G1 X113.6680 Y102.4680 F6000
G92 E0.0000
G1 X113.6490 Y102.4480 E0.0007 F2880
G1 X113.6490 Y101.9400 E0.0144
G1 X113.6690 Y101.9590 E0.0152
G1 X113.6690 Y101.4500 E0.0289
G1 X113.6500 Y101.4310 E0.0296
G1 X112.7130 Y101.7010 F6000
G1 X112.7130 Y102.0740
G1 X111.4270 Y102.0740
G1 X109.7010 Y102.5730
G92 E0.0000
G1 X109.4400 Y102.3120 E0.0099 F2880
G1 X109.4400 Y101.8030 E0.0236
G1 X109.7010 Y102.0640 E0.0336
G1 X109.7010 Y101.5550 E0.0473
G1 X109.4400 Y101.2940 E0.0573
G1 X108.5040 Y101.5210 F6000
G1 X108.5040 Y102.0740
G1 X106.4260 Y102.0740
G1 X106.4260 Y102.0250
G1 X105.4450 Y102.2630
G92 E0.0000
G1 X104.3430 Y101.1610 E0.0525 F3600
G1 X101.1610 Y101.1610 E0.1597
G1 X118.8390 Y118.8390 E1.0016
G1 X118.8390 Y115.6570 E1.1087
G1 X106.2370 Y103.0550 E1.7089
G1 X109.0360 Y103.0550 E1.8032
G1 X109.4190 Y103.0550 E1.8161
G1 X116.8970 Y110.5330 E2.1722
G1 X116.8980 Y107.6370 E2.2697
G1 X117.1830 Y107.6370 E2.2793
G1 X112.6010 Y103.0550 E2.4976
G1 X113.6940 Y103.0550 E2.5344
G1 X114.0730 Y103.0540 E2.5472
G1 X114.0740 Y101.3460 E2.6047
G1 X118.8390 Y106.1110 E2.8317
G1 X118.8390 Y102.9290 E2.9388
G1 X117.0710 Y101.1610 E3.0230
G1 X112.7130 Y102.0330 F6000
G1 X112.7130 Y102.0740
G1 X112.5070 Y102.0740
G1 X101.1610 Y104.3430
G92 E0.0000
G1 X115.6570 Y118.8390 E0.6904 F3600
G1 X112.4750 Y118.8390 E0.7975
G1 X101.1610 Y107.5250 E1.3364
G1 X101.1610 Y110.7070 E1.4435
G1 X109.2930 Y118.8390 E1.8308
G1 X106.1110 Y118.8390 E1.9380
G1 X101.1610 Y113.8890 E2.1737
G1 X101.1610 Y117.0710 E2.2809
G1 X102.9290 Y118.8390 E2.3651
G92 E0.0000
G1 E-5 F2400 ; custom retraction
;layer 34, Z = 6.800
;fan34;
G1 Z6.800 F1200
G1 X100.9000 Y119.1000 F6000
G1 E0 F2400 ; custom un-retraction/prime
G92 E0.0000
G1 X100.9000 Y100.9000 E0.4903 F2880
G1 X105.8170 Y100.9000 E0.6228
G1 X105.8180 Y102.7940 E0.6738
G1 X109.3430 Y102.7940 E0.7688
G1 X109.3420 Y100.9000 E0.8198
G1 X109.7960 Y100.9000 E0.8320
G1 X109.7950 Y102.7940 E0.8830
G1 X113.3060 Y102.7940 E0.9776
G1 X113.3070 Y100.9000 E1.0287
G1 X119.1000 Y100.9000 E1.1847
G1 X119.1000 Y107.8970 E1.3732
G1 X117.1600 Y107.8960 E1.4255
G1 X117.1580 Y111.3770 E1.5193
G1 X119.1000 Y111.3780 E1.5716
G1 X119.1000 Y119.1000 E1.7796
G1 X100.9000 Y119.1000 E2.2700
G1 X100.5400 Y119.4600 F6000
G92 E0.0000
G1 X100.5400 Y100.5400 E0.5097 F2880
G1 X106.1770 Y100.5400 E0.6616
G1 X106.1770 Y102.4340 E0.7126
G1 X108.9830 Y102.4340 E0.7882
G1 X108.9820 Y100.5400 E0.8392
G1 X110.1560 Y100.5400 E0.8708
G1 X110.1550 Y102.4340 E0.9218
G1 X112.9470 Y102.4340 E0.9971
G1 X112.9480 Y100.5400 E1.0481
G1 X119.4600 Y100.5400 E1.2235
G1 X119.4600 Y108.2570 E1.4314
G1 X117.5190 Y108.2560 E1.4837
G1 X117.5180 Y111.0170 E1.5581
G1 X119.4600 Y111.0180 E1.6104
G1 X119.4600 Y119.4600 E1.8378
G1 X100.5400 Y119.4600 E2.3476
