; G-Code originally generated by Simplify3D(R) Version 4.1.2
; This calibration test gcode modified by the Teaching Tech Calibration website: https://teachingtechyt.github.io/calibration.html
;M80 ; power supply on
G90
M82
M106 S0
M140 S60 ; custom bed temp
M190 S60 ; custom bed temp
M104 S150 T0 ; custom hot end temp minus 50 degrees
G28 ; home all axes
;G29 ; probe ABL
;M420 S1 ; restore ABL mesh
M109 S200 T0 ; custom hot end temp 
;customstart
G0 Z3; fix for delta printers that home at max
; square 1
;process Process
;layer 1, Z = 0.200
T0
G92 E0.0000
G1 E-5 F2400 ; custom retraction
;fan1;
G1 Z0.200 F1200
G1 X24.8520 Y26.4030 F6000
G1 E0 F2400 ; custom un-retraction/prime
G92 E0.0000
G1 X26.4030 Y24.8520 E0.0709 F1800
G1 X53.5970 Y24.8520 E0.9500
G1 X55.1480 Y26.4030 E1.0210
G1 X55.1480 Y53.5970 E1.9001
G1 X53.5970 Y55.1480 E1.9710
G1 X26.4030 Y55.1480 E2.8501
G1 X24.8520 Y53.5970 E2.9211
G1 X24.8520 Y26.4030 E3.8002
G92 E0.0000
G1 E-5 F2400 ; custom retraction
;zhop1
G1 X25.2840 Y26.5820 F6000
G1 Z0.200 F1200
G1 E0 F2400 ; custom un-retraction/prime
G92 E0.0000
G1 X26.5820 Y25.2840 E0.0593 F1800
G1 X53.4180 Y25.2840 E0.9269
G1 X54.7160 Y26.5820 E0.9863
G1 X54.7160 Y53.4180 E1.8538
G1 X53.4180 Y54.7160 E1.9132
G1 X26.5820 Y54.7160 E2.7807
G1 X25.2840 Y53.4180 E2.8401
G1 X25.2840 Y26.5820 E3.7076
G92 E0.0000
G1 E-5 F2400 ; custom retraction
;zhop1
G1 X27.7160 Y27.7160 F6000
G1 X27.7160 Y28.0560
G1 X28.5800 Y28.5800
G1 Z0.200 F1200
G1 E0 F2400 ; custom un-retraction/prime
G92 E0.0000
G1 X51.4200 Y28.5800 E0.7384 F1440
G1 X51.4200 Y51.4200 E1.4768
G1 X28.5800 Y51.4200 E2.2151
G1 X28.5800 Y28.5800 E2.9535
G1 X28.1480 Y28.1480 F6000
G92 E0.0000
G1 X51.8520 Y28.1480 E0.7663 F1440
G1 X51.8520 Y51.8520 E1.5326
G1 X28.1480 Y51.8520 E2.2989
G1 X28.1480 Y28.1480 E3.0652
G1 X27.7160 Y27.7160 F6000
G92 E0.0000
G1 X52.2840 Y27.7160 E0.7942 F1080
G1 X52.2840 Y52.2840 E1.5885
G1 X27.7160 Y52.2840 E2.3827
G1 X27.7160 Y27.7160 E3.1770
G1 X50.8330 Y28.8390 F6000
G92 E0.0000
G1 X51.1610 Y29.1670 E0.0150 F1440
G1 X51.1610 Y29.7780 E0.0347
G1 X50.2220 Y28.8390 E0.0776
G1 X49.6110 Y28.8390 E0.0974
G1 X51.1610 Y30.3890 E0.1682
G1 X51.1610 Y31.0000 E0.1880
G1 X49.0000 Y28.8390 E0.2867
G1 X48.3890 Y28.8390 E0.3065
G1 X51.1610 Y31.6110 E0.4332
G1 X51.1610 Y32.2210 E0.4529
G1 X47.7790 Y28.8390 E0.6076
G1 X47.1680 Y28.8390 E0.6273
G1 X51.1610 Y32.8320 E0.8099
G1 X51.1610 Y33.4430 E0.8296
G1 X46.5570 Y28.8390 E1.0401
G1 X45.9460 Y28.8390 E1.0599
G1 X51.1610 Y34.0540 E1.2983
G1 X51.1610 Y34.6650 E1.3180
G1 X45.3350 Y28.8390 E1.5844
G1 X44.7240 Y28.8390 E1.6041
G1 X51.1610 Y35.2760 E1.8984
G1 X51.1610 Y35.8870 E1.9182
G1 X44.1130 Y28.8390 E2.2404
G1 X43.5020 Y28.8390 E2.2602
G1 X51.1610 Y36.4980 E2.6103
G1 X51.1610 Y37.1090 E2.6301
G1 X42.8910 Y28.8390 E3.0082
G1 X42.2800 Y28.8390 E3.0279
G1 X51.1610 Y37.7200 E3.4339
G1 X51.1610 Y38.3310 E3.4537
G1 X41.6690 Y28.8390 E3.8876
G1 X41.0580 Y28.8390 E3.9074
G1 X51.1610 Y38.9420 E4.3693
G1 X51.1610 Y39.5530 E4.3890
G1 X40.4470 Y28.8390 E4.8788
G1 X39.8360 Y28.8390 E4.8986
G1 X51.1610 Y40.1640 E5.4163
G1 X51.1610 Y40.7750 E5.4361
G1 X39.2250 Y28.8390 E5.9818
G1 X38.6140 Y28.8390 E6.0015
G1 X51.1610 Y41.3860 E6.5751
G1 X51.1610 Y41.9970 E6.5949
G1 X38.0030 Y28.8390 E7.1964
G1 X37.3930 Y28.8390 E7.2162
G1 X51.1610 Y42.6070 E7.8456
G1 X51.1610 Y43.2180 E7.8654
G1 X36.7820 Y28.8390 E8.5228
G1 X36.1710 Y28.8390 E8.5425
G1 X51.1610 Y43.8290 E9.2279
G1 X51.1610 Y44.4400 E9.2476
G1 X35.5600 Y28.8390 E9.9609
G1 X34.9490 Y28.8390 E9.9807
G1 X51.1610 Y45.0510 E10.7219
G1 X51.1610 Y45.6620 E10.7416
G1 X34.3380 Y28.8390 E11.5108
G1 X33.7270 Y28.8390 E11.5305
G1 X51.1610 Y46.2730 E12.3276
G1 X51.1610 Y46.8840 E12.3473
G1 X33.1160 Y28.8390 E13.1723
G1 X32.5050 Y28.8390 E13.1921
G1 X51.1610 Y47.4950 E14.0450
G1 X51.1610 Y48.1060 E14.0648
G1 X31.8940 Y28.8390 E14.9456
G1 X31.2830 Y28.8390 E14.9654
G1 X51.1610 Y48.7170 E15.8742
G1 X51.1610 Y49.3280 E15.8939
G1 X30.6720 Y28.8390 E16.8307
G1 X30.0610 Y28.8390 E16.8504
G1 X51.1610 Y49.9390 E17.8151
G1 X51.1610 Y50.5500 E17.8348
G1 X29.4500 Y28.8390 E18.8274
G1 X28.8390 Y28.8390 E18.8472
G1 X51.1610 Y51.1610 E19.8677
G1 X50.5500 Y51.1610 E19.8874
G1 X28.8390 Y29.4500 E20.8800
G1 X28.8390 Y30.0610 E20.8998
G1 X49.9390 Y51.1610 E21.8644
G1 X49.3280 Y51.1610 E21.8842
G1 X28.8390 Y30.6720 E22.8209
G1 X28.8390 Y31.2830 E22.8407
G1 X48.7170 Y51.1610 E23.7495
G1 X48.1060 Y51.1610 E23.7692
G1 X28.8390 Y31.8940 E24.6501
G1 X28.8390 Y32.5050 E24.6698
G1 X47.4950 Y51.1610 E25.5228
G1 X46.8840 Y51.1610 E25.5425
G1 X28.8390 Y33.1160 E26.3675
G1 X28.8390 Y33.7270 E26.3873
G1 X46.2730 Y51.1610 E27.1844
G1 X45.6620 Y51.1610 E27.2041
G1 X28.8390 Y34.3380 E27.9732
G1 X28.8390 Y34.9490 E27.9930
G1 X45.0510 Y51.1610 E28.7342
G1 X44.4400 Y51.1610 E28.7540
G1 X28.8390 Y35.5600 E29.4672
G1 X28.8390 Y36.1710 E29.4870
G1 X43.8290 Y51.1610 E30.1723
G1 X43.2180 Y51.1610 E30.1921
G1 X28.8390 Y36.7820 E30.8495
G1 X28.8390 Y37.3930 E30.8692
G1 X42.6070 Y51.1610 E31.4987
G1 X41.9970 Y51.1610 E31.5185
G1 X28.8390 Y38.0030 E32.1200
G1 X28.8390 Y38.6140 E32.1398
G1 X41.3860 Y51.1610 E32.7134
G1 X40.7750 Y51.1610 E32.7331
G1 X28.8390 Y39.2250 E33.2788
G1 X28.8390 Y39.8360 E33.2985
G1 X40.1640 Y51.1610 E33.8163
G1 X39.5530 Y51.1610 E33.8360
G1 X28.8390 Y40.4470 E34.3259
G1 X28.8390 Y41.0580 E34.3456
G1 X38.9420 Y51.1610 E34.8075
G1 X38.3310 Y51.1610 E34.8272
G1 X28.8390 Y41.6690 E35.2612
G1 X28.8390 Y42.2800 E35.2810
G1 X37.7200 Y51.1610 E35.6870
G1 X37.1090 Y51.1610 E35.7067
G1 X28.8390 Y42.8910 E36.0848
G1 X28.8390 Y43.5020 E36.1046
G1 X36.4980 Y51.1610 E36.4547
G1 X35.8870 Y51.1610 E36.4745
G1 X28.8390 Y44.1130 E36.7967
G1 X28.8390 Y44.7240 E36.8164
G1 X35.2760 Y51.1610 E37.1107
G1 X34.6650 Y51.1610 E37.1305
G1 X28.8390 Y45.3350 E37.3968
G1 X28.8390 Y45.9460 E37.4166
G1 X34.0540 Y51.1610 E37.6550
G1 X33.4430 Y51.1610 E37.6748
G1 X28.8390 Y46.5570 E37.8853
G1 X28.8390 Y47.1680 E37.9050
G1 X32.8320 Y51.1610 E38.0876
G1 X32.2210 Y51.1610 E38.1073
G1 X28.8390 Y47.7780 E38.2620
G1 X28.8390 Y48.3890 E38.2817
G1 X31.6110 Y51.1610 E38.4084
G1 X31.0000 Y51.1610 E38.4282
G1 X28.8390 Y49.0000 E38.5269
G1 X28.8390 Y49.6110 E38.5467
G1 X30.3890 Y51.1610 E38.6175
G1 X29.7780 Y51.1610 E38.6373
G1 X28.8390 Y50.2220 E38.6802
G1 X28.8390 Y50.8330 E38.6999
G1 X29.1670 Y51.1610 E38.7149
G92 E0.0000
G1 E-5 F2400 ; custom retraction

; square 2
;process Process
;layer 1, Z = 0.200
T0
G92 E0.0000
G1 E-5 F2400 ; custom retraction
;fan1;
G1 Z0.200 F1200
G1 X24.8520 Y166.4030 F6000
G1 E0 F2400 ; custom un-retraction/prime
G92 E0.0000
G1 X26.4030 Y164.8520 E0.0709 F1800
G1 X53.5970 Y164.8520 E0.9500
G1 X55.1480 Y166.4030 E1.0210
G1 X55.1480 Y193.5970 E1.9001
G1 X53.5970 Y195.1480 E1.9710
G1 X26.4030 Y195.1480 E2.8501
G1 X24.8520 Y193.5970 E2.9211
G1 X24.8520 Y166.4030 E3.8002
G92 E0.0000
G1 E-5 F2400 ; custom retraction
;zhop1
G1 X25.2840 Y166.5820 F6000
G1 Z0.200 F1200
G1 E0 F2400 ; custom un-retraction/prime
G92 E0.0000
G1 X26.5820 Y165.2840 E0.0593 F1800
G1 X53.4180 Y165.2840 E0.9269
G1 X54.7160 Y166.5820 E0.9863
G1 X54.7160 Y193.4180 E1.8538
G1 X53.4180 Y194.7160 E1.9132
G1 X26.5820 Y194.7160 E2.7807
G1 X25.2840 Y193.4180 E2.8401
G1 X25.2840 Y166.5820 E3.7076
G92 E0.0000
G1 E-5 F2400 ; custom retraction
;zhop1
G1 X27.7160 Y167.7160 F6000
G1 X27.7160 Y168.0560
G1 X28.5800 Y168.5800
G1 Z0.200 F1200
G1 E0 F2400 ; custom un-retraction/prime
G92 E0.0000
G1 X51.4200 Y168.5800 E0.7384 F1440
G1 X51.4200 Y191.4200 E1.4768
G1 X28.5800 Y191.4200 E2.2151
G1 X28.5800 Y168.5800 E2.9535
G1 X28.1480 Y168.1480 F6000
G92 E0.0000
G1 X51.8520 Y168.1480 E0.7663 F1440
G1 X51.8520 Y191.8520 E1.5326
G1 X28.1480 Y191.8520 E2.2989
G1 X28.1480 Y168.1480 E3.0652
G1 X27.7160 Y167.7160 F6000
G92 E0.0000
G1 X52.2840 Y167.7160 E0.7942 F1080
G1 X52.2840 Y192.2840 E1.5885
G1 X27.7160 Y192.2840 E2.3827
G1 X27.7160 Y167.7160 E3.1770
G1 X50.8330 Y168.8390 F6000
G92 E0.0000
G1 X51.1610 Y169.1670 E0.0150 F1440
G1 X51.1610 Y169.7780 E0.0347
G1 X50.2220 Y168.8390 E0.0776
G1 X49.6110 Y168.8390 E0.0974
G1 X51.1610 Y170.3890 E0.1682
G1 X51.1610 Y171.0000 E0.1880
G1 X49.0000 Y168.8390 E0.2867
G1 X48.3890 Y168.8390 E0.3065
G1 X51.1610 Y171.6110 E0.4332
G1 X51.1610 Y172.2210 E0.4529
G1 X47.7790 Y168.8390 E0.6076
G1 X47.1680 Y168.8390 E0.6273
G1 X51.1610 Y172.8320 E0.8099
G1 X51.1610 Y173.4430 E0.8296
G1 X46.5570 Y168.8390 E1.0401
G1 X45.9460 Y168.8390 E1.0599
G1 X51.1610 Y174.0540 E1.2983
G1 X51.1610 Y174.6650 E1.3180
G1 X45.3350 Y168.8390 E1.5844
G1 X44.7240 Y168.8390 E1.6041
G1 X51.1610 Y175.2760 E1.8984
G1 X51.1610 Y175.8870 E1.9182
G1 X44.1130 Y168.8390 E2.2404
G1 X43.5020 Y168.8390 E2.2602
G1 X51.1610 Y176.4980 E2.6103
G1 X51.1610 Y177.1090 E2.6301
G1 X42.8910 Y168.8390 E3.0082
G1 X42.2800 Y168.8390 E3.0279
G1 X51.1610 Y177.7200 E3.4339
G1 X51.1610 Y178.3310 E3.4537
G1 X41.6690 Y168.8390 E3.8876
G1 X41.0580 Y168.8390 E3.9074
G1 X51.1610 Y178.9420 E4.3693
G1 X51.1610 Y179.5530 E4.3890
G1 X40.4470 Y168.8390 E4.8788
G1 X39.8360 Y168.8390 E4.8986
G1 X51.1610 Y180.1640 E5.4163
G1 X51.1610 Y180.7750 E5.4361
G1 X39.2250 Y168.8390 E5.9818
G1 X38.6140 Y168.8390 E6.0015
G1 X51.1610 Y181.3860 E6.5751
G1 X51.1610 Y181.9970 E6.5949
G1 X38.0030 Y168.8390 E7.1964
G1 X37.3930 Y168.8390 E7.2162
G1 X51.1610 Y182.6070 E7.8456
G1 X51.1610 Y183.2180 E7.8654
G1 X36.7820 Y168.8390 E8.5228
G1 X36.1710 Y168.8390 E8.5425
G1 X51.1610 Y183.8290 E9.2279
G1 X51.1610 Y184.4400 E9.2476
G1 X35.5600 Y168.8390 E9.9609
G1 X34.9490 Y168.8390 E9.9807
G1 X51.1610 Y185.0510 E10.7219
G1 X51.1610 Y185.6620 E10.7416
G1 X34.3380 Y168.8390 E11.5108
G1 X33.7270 Y168.8390 E11.5305
G1 X51.1610 Y186.2730 E12.3276
G1 X51.1610 Y186.8840 E12.3473
G1 X33.1160 Y168.8390 E13.1723
G1 X32.5050 Y168.8390 E13.1921
G1 X51.1610 Y187.4950 E14.0450
G1 X51.1610 Y188.1060 E14.0648
G1 X31.8940 Y168.8390 E14.9456
G1 X31.2830 Y168.8390 E14.9654
G1 X51.1610 Y188.7170 E15.8742
G1 X51.1610 Y189.3280 E15.8939
G1 X30.6720 Y168.8390 E16.8307
G1 X30.0610 Y168.8390 E16.8504
G1 X51.1610 Y189.9390 E17.8151
G1 X51.1610 Y190.5500 E17.8348
G1 X29.4500 Y168.8390 E18.8274
G1 X28.8390 Y168.8390 E18.8472
G1 X51.1610 Y191.1610 E19.8677
G1 X50.5500 Y191.1610 E19.8874
G1 X28.8390 Y169.4500 E20.8800
G1 X28.8390 Y170.0610 E20.8998
G1 X49.9390 Y191.1610 E21.8644
G1 X49.3280 Y191.1610 E21.8842
G1 X28.8390 Y170.6720 E22.8209
G1 X28.8390 Y171.2830 E22.8407
G1 X48.7170 Y191.1610 E23.7495
G1 X48.1060 Y191.1610 E23.7692
G1 X28.8390 Y171.8940 E24.6501
G1 X28.8390 Y172.5050 E24.6698
G1 X47.4950 Y191.1610 E25.5228
G1 X46.8840 Y191.1610 E25.5425
G1 X28.8390 Y173.1160 E26.3675
G1 X28.8390 Y173.7270 E26.3873
G1 X46.2730 Y191.1610 E27.1844
G1 X45.6620 Y191.1610 E27.2041
G1 X28.8390 Y174.3380 E27.9732
G1 X28.8390 Y174.9490 E27.9930
G1 X45.0510 Y191.1610 E28.7342
G1 X44.4400 Y191.1610 E28.7540
G1 X28.8390 Y175.5600 E29.4672
G1 X28.8390 Y176.1710 E29.4870
G1 X43.8290 Y191.1610 E30.1723
G1 X43.2180 Y191.1610 E30.1921
G1 X28.8390 Y176.7820 E30.8495
G1 X28.8390 Y177.3930 E30.8692
G1 X42.6070 Y191.1610 E31.4987
G1 X41.9970 Y191.1610 E31.5185
G1 X28.8390 Y178.0030 E32.1200
G1 X28.8390 Y178.6140 E32.1398
G1 X41.3860 Y191.1610 E32.7134
G1 X40.7750 Y191.1610 E32.7331
G1 X28.8390 Y179.2250 E33.2788
G1 X28.8390 Y179.8360 E33.2985
G1 X40.1640 Y191.1610 E33.8163
G1 X39.5530 Y191.1610 E33.8360
G1 X28.8390 Y180.4470 E34.3259
G1 X28.8390 Y181.0580 E34.3456
G1 X38.9420 Y191.1610 E34.8075
G1 X38.3310 Y191.1610 E34.8272
G1 X28.8390 Y181.6690 E35.2612
G1 X28.8390 Y182.2800 E35.2810
G1 X37.7200 Y191.1610 E35.6870
G1 X37.1090 Y191.1610 E35.7067
G1 X28.8390 Y182.8910 E36.0848
G1 X28.8390 Y183.5020 E36.1046
G1 X36.4980 Y191.1610 E36.4547
G1 X35.8870 Y191.1610 E36.4745
G1 X28.8390 Y184.1130 E36.7967
G1 X28.8390 Y184.7240 E36.8164
G1 X35.2760 Y191.1610 E37.1107
G1 X34.6650 Y191.1610 E37.1305
G1 X28.8390 Y185.3350 E37.3968
G1 X28.8390 Y185.9460 E37.4166
G1 X34.0540 Y191.1610 E37.6550
G1 X33.4430 Y191.1610 E37.6748
G1 X28.8390 Y186.5570 E37.8853
G1 X28.8390 Y187.1680 E37.9050
G1 X32.8320 Y191.1610 E38.0876
G1 X32.2210 Y191.1610 E38.1073
G1 X28.8390 Y187.7780 E38.2620
G1 X28.8390 Y188.3890 E38.2817
G1 X31.6110 Y191.1610 E38.4084
G1 X31.0000 Y191.1610 E38.4282
G1 X28.8390 Y189.0000 E38.5269
G1 X28.8390 Y189.6110 E38.5467
G1 X30.3890 Y191.1610 E38.6175
G1 X29.7780 Y191.1610 E38.6373
G1 X28.8390 Y190.2220 E38.6802
G1 X28.8390 Y190.8330 E38.6999
G1 X29.1670 Y191.1610 E38.7149
G92 E0.0000
G1 E-5 F2400 ; custom retraction

; square 3
;process Process
;layer 1, Z = 0.200
T0
G92 E0.0000
G1 E-5 F2400 ; custom retraction
;fan1;
G1 Z0.200 F1200
G1 X94.8520 Y96.4030 F6000
G1 E0 F2400 ; custom un-retraction/prime
G92 E0.0000
G1 X96.4030 Y94.8520 E0.0709 F1800
G1 X123.5970 Y94.8520 E0.9500
G1 X125.1480 Y96.4030 E1.0210
G1 X125.1480 Y123.5970 E1.9001
G1 X123.5970 Y125.1480 E1.9710
G1 X96.4030 Y125.1480 E2.8501
G1 X94.8520 Y123.5970 E2.9211
G1 X94.8520 Y96.4030 E3.8002
G92 E0.0000
G1 E-5 F2400 ; custom retraction
;zhop1
G1 X95.2840 Y96.5820 F6000
G1 Z0.200 F1200
G1 E0 F2400 ; custom un-retraction/prime
G92 E0.0000
G1 X96.5820 Y95.2840 E0.0593 F1800
G1 X123.4180 Y95.2840 E0.9269
G1 X124.7160 Y96.5820 E0.9863
G1 X124.7160 Y123.4180 E1.8538
G1 X123.4180 Y124.7160 E1.9132
G1 X96.5820 Y124.7160 E2.7807
G1 X95.2840 Y123.4180 E2.8401
G1 X95.2840 Y96.5820 E3.7076
G92 E0.0000
G1 E-5 F2400 ; custom retraction
;zhop1
G1 X97.7160 Y97.7160 F6000
G1 X97.7160 Y98.0560
G1 X98.5800 Y98.5800
G1 Z0.200 F1200
G1 E0 F2400 ; custom un-retraction/prime
G92 E0.0000
G1 X121.4200 Y98.5800 E0.7384 F1440
G1 X121.4200 Y121.4200 E1.4768
G1 X98.5800 Y121.4200 E2.2151
G1 X98.5800 Y98.5800 E2.9535
G1 X98.1480 Y98.1480 F6000
G92 E0.0000
G1 X121.8520 Y98.1480 E0.7663 F1440
G1 X121.8520 Y121.8520 E1.5326
G1 X98.1480 Y121.8520 E2.2989
G1 X98.1480 Y98.1480 E3.0652
G1 X97.7160 Y97.7160 F6000
G92 E0.0000
G1 X122.2840 Y97.7160 E0.7942 F1080
G1 X122.2840 Y122.2840 E1.5885
G1 X97.7160 Y122.2840 E2.3827
G1 X97.7160 Y97.7160 E3.1770
G1 X120.8330 Y98.8390 F6000
G92 E0.0000
G1 X121.1610 Y99.1670 E0.0150 F1440
G1 X121.1610 Y99.7780 E0.0347
G1 X120.2220 Y98.8390 E0.0776
G1 X119.6110 Y98.8390 E0.0974
G1 X121.1610 Y100.3890 E0.1682
G1 X121.1610 Y101.0000 E0.1880
G1 X119.0000 Y98.8390 E0.2867
G1 X118.3890 Y98.8390 E0.3065
G1 X121.1610 Y101.6110 E0.4332
G1 X121.1610 Y102.2210 E0.4529
G1 X117.7790 Y98.8390 E0.6076
G1 X117.1680 Y98.8390 E0.6273
G1 X121.1610 Y102.8320 E0.8099
G1 X121.1610 Y103.4430 E0.8296
G1 X116.5570 Y98.8390 E1.0401
G1 X115.9460 Y98.8390 E1.0599
G1 X121.1610 Y104.0540 E1.2983
G1 X121.1610 Y104.6650 E1.3180
G1 X115.3350 Y98.8390 E1.5844
G1 X114.7240 Y98.8390 E1.6041
G1 X121.1610 Y105.2760 E1.8984
G1 X121.1610 Y105.8870 E1.9182
G1 X114.1130 Y98.8390 E2.2404
G1 X113.5020 Y98.8390 E2.2602
G1 X121.1610 Y106.4980 E2.6103
G1 X121.1610 Y107.1090 E2.6301
G1 X112.8910 Y98.8390 E3.0082
G1 X112.2800 Y98.8390 E3.0279
G1 X121.1610 Y107.7200 E3.4339
G1 X121.1610 Y108.3310 E3.4537
G1 X111.6690 Y98.8390 E3.8876
G1 X111.0580 Y98.8390 E3.9074
G1 X121.1610 Y108.9420 E4.3693
G1 X121.1610 Y109.5530 E4.3890
G1 X110.4470 Y98.8390 E4.8788
G1 X109.8360 Y98.8390 E4.8986
G1 X121.1610 Y110.1640 E5.4163
G1 X121.1610 Y110.7750 E5.4361
G1 X109.2250 Y98.8390 E5.9818
G1 X108.6140 Y98.8390 E6.0015
G1 X121.1610 Y111.3860 E6.5751
G1 X121.1610 Y111.9970 E6.5949
G1 X108.0030 Y98.8390 E7.1964
G1 X107.3930 Y98.8390 E7.2162
G1 X121.1610 Y112.6070 E7.8456
G1 X121.1610 Y113.2180 E7.8654
G1 X106.7820 Y98.8390 E8.5228
G1 X106.1710 Y98.8390 E8.5425
G1 X121.1610 Y113.8290 E9.2279
G1 X121.1610 Y114.4400 E9.2476
G1 X105.5600 Y98.8390 E9.9609
G1 X104.9490 Y98.8390 E9.9807
G1 X121.1610 Y115.0510 E10.7219
G1 X121.1610 Y115.6620 E10.7416
G1 X104.3380 Y98.8390 E11.5108
G1 X103.7270 Y98.8390 E11.5305
G1 X121.1610 Y116.2730 E12.3276
G1 X121.1610 Y116.8840 E12.3473
G1 X103.1160 Y98.8390 E13.1723
G1 X102.5050 Y98.8390 E13.1921
G1 X121.1610 Y117.4950 E14.0450
G1 X121.1610 Y118.1060 E14.0648
G1 X101.8940 Y98.8390 E14.9456
G1 X101.2830 Y98.8390 E14.9654
G1 X121.1610 Y118.7170 E15.8742
G1 X121.1610 Y119.3280 E15.8939
G1 X100.6720 Y98.8390 E16.8307
G1 X100.0610 Y98.8390 E16.8504
G1 X121.1610 Y119.9390 E17.8151
G1 X121.1610 Y120.5500 E17.8348
G1 X99.4500 Y98.8390 E18.8274
G1 X98.8390 Y98.8390 E18.8472
G1 X121.1610 Y121.1610 E19.8677
G1 X120.5500 Y121.1610 E19.8874
G1 X98.8390 Y99.4500 E20.8800
G1 X98.8390 Y100.0610 E20.8998
G1 X119.9390 Y121.1610 E21.8644
G1 X119.3280 Y121.1610 E21.8842
G1 X98.8390 Y100.6720 E22.8209
G1 X98.8390 Y101.2830 E22.8407
G1 X118.7170 Y121.1610 E23.7495
G1 X118.1060 Y121.1610 E23.7692
G1 X98.8390 Y101.8940 E24.6501
G1 X98.8390 Y102.5050 E24.6698
G1 X117.4950 Y121.1610 E25.5228
G1 X116.8840 Y121.1610 E25.5425
G1 X98.8390 Y103.1160 E26.3675
G1 X98.8390 Y103.7270 E26.3873
G1 X116.2730 Y121.1610 E27.1844
G1 X115.6620 Y121.1610 E27.2041
G1 X98.8390 Y104.3380 E27.9732
G1 X98.8390 Y104.9490 E27.9930
G1 X115.0510 Y121.1610 E28.7342
G1 X114.4400 Y121.1610 E28.7540
G1 X98.8390 Y105.5600 E29.4672
G1 X98.8390 Y106.1710 E29.4870
G1 X113.8290 Y121.1610 E30.1723
G1 X113.2180 Y121.1610 E30.1921
G1 X98.8390 Y106.7820 E30.8495
G1 X98.8390 Y107.3930 E30.8692
G1 X112.6070 Y121.1610 E31.4987
G1 X111.9970 Y121.1610 E31.5185
G1 X98.8390 Y108.0030 E32.1200
G1 X98.8390 Y108.6140 E32.1398
G1 X111.3860 Y121.1610 E32.7134
G1 X110.7750 Y121.1610 E32.7331
G1 X98.8390 Y109.2250 E33.2788
G1 X98.8390 Y109.8360 E33.2985
G1 X110.1640 Y121.1610 E33.8163
G1 X109.5530 Y121.1610 E33.8360
G1 X98.8390 Y110.4470 E34.3259
G1 X98.8390 Y111.0580 E34.3456
G1 X108.9420 Y121.1610 E34.8075
G1 X108.3310 Y121.1610 E34.8272
G1 X98.8390 Y111.6690 E35.2612
G1 X98.8390 Y112.2800 E35.2810
G1 X107.7200 Y121.1610 E35.6870
G1 X107.1090 Y121.1610 E35.7067
G1 X98.8390 Y112.8910 E36.0848
G1 X98.8390 Y113.5020 E36.1046
G1 X106.4980 Y121.1610 E36.4547
G1 X105.8870 Y121.1610 E36.4745
G1 X98.8390 Y114.1130 E36.7967
G1 X98.8390 Y114.7240 E36.8164
G1 X105.2760 Y121.1610 E37.1107
G1 X104.6650 Y121.1610 E37.1305
G1 X98.8390 Y115.3350 E37.3968
G1 X98.8390 Y115.9460 E37.4166
G1 X104.0540 Y121.1610 E37.6550
G1 X103.4430 Y121.1610 E37.6748
G1 X98.8390 Y116.5570 E37.8853
G1 X98.8390 Y117.1680 E37.9050
G1 X102.8320 Y121.1610 E38.0876
G1 X102.2210 Y121.1610 E38.1073
G1 X98.8390 Y117.7780 E38.2620
G1 X98.8390 Y118.3890 E38.2817
G1 X101.6110 Y121.1610 E38.4084
G1 X101.0000 Y121.1610 E38.4282
G1 X98.8390 Y119.0000 E38.5269
G1 X98.8390 Y119.6110 E38.5467
G1 X100.3890 Y121.1610 E38.6175
G1 X99.7780 Y121.1610 E38.6373
G1 X98.8390 Y120.2220 E38.6802
G1 X98.8390 Y120.8330 E38.6999
G1 X99.1670 Y121.1610 E38.7149
G92 E0.0000
G1 E-5 F2400 ; custom retraction

; square 4
;process Process
;layer 1, Z = 0.200
T0
G92 E0.0000
G1 E-5 F2400 ; custom retraction
;fan1;
G1 Z0.200 F1200
G1 X164.8520 Y26.4030 F6000
G1 E0 F2400 ; custom un-retraction/prime
G92 E0.0000
G1 X166.4030 Y24.8520 E0.0709 F1800
G1 X193.5970 Y24.8520 E0.9500
G1 X195.1480 Y26.4030 E1.0210
G1 X195.1480 Y53.5970 E1.9001
G1 X193.5970 Y55.1480 E1.9710
G1 X166.4030 Y55.1480 E2.8501
G1 X164.8520 Y53.5970 E2.9211
G1 X164.8520 Y26.4030 E3.8002
G92 E0.0000
G1 E-5 F2400 ; custom retraction
;zhop1
G1 X165.2840 Y26.5820 F6000
G1 Z0.200 F1200
G1 E0 F2400 ; custom un-retraction/prime
G92 E0.0000
G1 X166.5820 Y25.2840 E0.0593 F1800
G1 X193.4180 Y25.2840 E0.9269
G1 X194.7160 Y26.5820 E0.9863
G1 X194.7160 Y53.4180 E1.8538
G1 X193.4180 Y54.7160 E1.9132
G1 X166.5820 Y54.7160 E2.7807
G1 X165.2840 Y53.4180 E2.8401
G1 X165.2840 Y26.5820 E3.7076
G92 E0.0000
G1 E-5 F2400 ; custom retraction
;zhop1
G1 X167.7160 Y27.7160 F6000
G1 X167.7160 Y28.0560
G1 X168.5800 Y28.5800
G1 Z0.200 F1200
G1 E0 F2400 ; custom un-retraction/prime
G92 E0.0000
G1 X191.4200 Y28.5800 E0.7384 F1440
G1 X191.4200 Y51.4200 E1.4768
G1 X168.5800 Y51.4200 E2.2151
G1 X168.5800 Y28.5800 E2.9535
G1 X168.1480 Y28.1480 F6000
G92 E0.0000
G1 X191.8520 Y28.1480 E0.7663 F1440
G1 X191.8520 Y51.8520 E1.5326
G1 X168.1480 Y51.8520 E2.2989
G1 X168.1480 Y28.1480 E3.0652
G1 X167.7160 Y27.7160 F6000
G92 E0.0000
G1 X192.2840 Y27.7160 E0.7942 F1080
G1 X192.2840 Y52.2840 E1.5885
G1 X167.7160 Y52.2840 E2.3827
G1 X167.7160 Y27.7160 E3.1770
G1 X190.8330 Y28.8390 F6000
G92 E0.0000
G1 X191.1610 Y29.1670 E0.0150 F1440
G1 X191.1610 Y29.7780 E0.0347
G1 X190.2220 Y28.8390 E0.0776
G1 X189.6110 Y28.8390 E0.0974
G1 X191.1610 Y30.3890 E0.1682
G1 X191.1610 Y31.0000 E0.1880
G1 X189.0000 Y28.8390 E0.2867
G1 X188.3890 Y28.8390 E0.3065
G1 X191.1610 Y31.6110 E0.4332
G1 X191.1610 Y32.2210 E0.4529
G1 X187.7790 Y28.8390 E0.6076
G1 X187.1680 Y28.8390 E0.6273
G1 X191.1610 Y32.8320 E0.8099
G1 X191.1610 Y33.4430 E0.8296
G1 X186.5570 Y28.8390 E1.0401
G1 X185.9460 Y28.8390 E1.0599
G1 X191.1610 Y34.0540 E1.2983
G1 X191.1610 Y34.6650 E1.3180
G1 X185.3350 Y28.8390 E1.5844
G1 X184.7240 Y28.8390 E1.6041
G1 X191.1610 Y35.2760 E1.8984
G1 X191.1610 Y35.8870 E1.9182
G1 X184.1130 Y28.8390 E2.2404
G1 X183.5020 Y28.8390 E2.2602
G1 X191.1610 Y36.4980 E2.6103
G1 X191.1610 Y37.1090 E2.6301
G1 X182.8910 Y28.8390 E3.0082
G1 X182.2800 Y28.8390 E3.0279
G1 X191.1610 Y37.7200 E3.4339
G1 X191.1610 Y38.3310 E3.4537
G1 X181.6690 Y28.8390 E3.8876
G1 X181.0580 Y28.8390 E3.9074
G1 X191.1610 Y38.9420 E4.3693
G1 X191.1610 Y39.5530 E4.3890
G1 X180.4470 Y28.8390 E4.8788
G1 X179.8360 Y28.8390 E4.8986
G1 X191.1610 Y40.1640 E5.4163
G1 X191.1610 Y40.7750 E5.4361
G1 X179.2250 Y28.8390 E5.9818
G1 X178.6140 Y28.8390 E6.0015
G1 X191.1610 Y41.3860 E6.5751
G1 X191.1610 Y41.9970 E6.5949
G1 X178.0030 Y28.8390 E7.1964
G1 X177.3930 Y28.8390 E7.2162
G1 X191.1610 Y42.6070 E7.8456
G1 X191.1610 Y43.2180 E7.8654
G1 X176.7820 Y28.8390 E8.5228
G1 X176.1710 Y28.8390 E8.5425
G1 X191.1610 Y43.8290 E9.2279
G1 X191.1610 Y44.4400 E9.2476
G1 X175.5600 Y28.8390 E9.9609
G1 X174.9490 Y28.8390 E9.9807
G1 X191.1610 Y45.0510 E10.7219
G1 X191.1610 Y45.6620 E10.7416
G1 X174.3380 Y28.8390 E11.5108
G1 X173.7270 Y28.8390 E11.5305
G1 X191.1610 Y46.2730 E12.3276
G1 X191.1610 Y46.8840 E12.3473
G1 X173.1160 Y28.8390 E13.1723
G1 X172.5050 Y28.8390 E13.1921
G1 X191.1610 Y47.4950 E14.0450
G1 X191.1610 Y48.1060 E14.0648
G1 X171.8940 Y28.8390 E14.9456
G1 X171.2830 Y28.8390 E14.9654
G1 X191.1610 Y48.7170 E15.8742
G1 X191.1610 Y49.3280 E15.8939
G1 X170.6720 Y28.8390 E16.8307
G1 X170.0610 Y28.8390 E16.8504
G1 X191.1610 Y49.9390 E17.8151
G1 X191.1610 Y50.5500 E17.8348
G1 X169.4500 Y28.8390 E18.8274
G1 X168.8390 Y28.8390 E18.8472
G1 X191.1610 Y51.1610 E19.8677
G1 X190.5500 Y51.1610 E19.8874
G1 X168.8390 Y29.4500 E20.8800
G1 X168.8390 Y30.0610 E20.8998
G1 X189.9390 Y51.1610 E21.8644
G1 X189.3280 Y51.1610 E21.8842
G1 X168.8390 Y30.6720 E22.8209
G1 X168.8390 Y31.2830 E22.8407
G1 X188.7170 Y51.1610 E23.7495
G1 X188.1060 Y51.1610 E23.7692
G1 X168.8390 Y31.8940 E24.6501
G1 X168.8390 Y32.5050 E24.6698
G1 X187.4950 Y51.1610 E25.5228
G1 X186.8840 Y51.1610 E25.5425
G1 X168.8390 Y33.1160 E26.3675
G1 X168.8390 Y33.7270 E26.3873
G1 X186.2730 Y51.1610 E27.1844
G1 X185.6620 Y51.1610 E27.2041
G1 X168.8390 Y34.3380 E27.9732
G1 X168.8390 Y34.9490 E27.9930
G1 X185.0510 Y51.1610 E28.7342
G1 X184.4400 Y51.1610 E28.7540
G1 X168.8390 Y35.5600 E29.4672
G1 X168.8390 Y36.1710 E29.4870
G1 X183.8290 Y51.1610 E30.1723
G1 X183.2180 Y51.1610 E30.1921
G1 X168.8390 Y36.7820 E30.8495
G1 X168.8390 Y37.3930 E30.8692
G1 X182.6070 Y51.1610 E31.4987
G1 X181.9970 Y51.1610 E31.5185
G1 X168.8390 Y38.0030 E32.1200
G1 X168.8390 Y38.6140 E32.1398
G1 X181.3860 Y51.1610 E32.7134
G1 X180.7750 Y51.1610 E32.7331
G1 X168.8390 Y39.2250 E33.2788
G1 X168.8390 Y39.8360 E33.2985
G1 X180.1640 Y51.1610 E33.8163
G1 X179.5530 Y51.1610 E33.8360
G1 X168.8390 Y40.4470 E34.3259
G1 X168.8390 Y41.0580 E34.3456
G1 X178.9420 Y51.1610 E34.8075
G1 X178.3310 Y51.1610 E34.8272
G1 X168.8390 Y41.6690 E35.2612
G1 X168.8390 Y42.2800 E35.2810
G1 X177.7200 Y51.1610 E35.6870
G1 X177.1090 Y51.1610 E35.7067
G1 X168.8390 Y42.8910 E36.0848
G1 X168.8390 Y43.5020 E36.1046
G1 X176.4980 Y51.1610 E36.4547
G1 X175.8870 Y51.1610 E36.4745
G1 X168.8390 Y44.1130 E36.7967
G1 X168.8390 Y44.7240 E36.8164
G1 X175.2760 Y51.1610 E37.1107
G1 X174.6650 Y51.1610 E37.1305
G1 X168.8390 Y45.3350 E37.3968
G1 X168.8390 Y45.9460 E37.4166
G1 X174.0540 Y51.1610 E37.6550
G1 X173.4430 Y51.1610 E37.6748
G1 X168.8390 Y46.5570 E37.8853
G1 X168.8390 Y47.1680 E37.9050
G1 X172.8320 Y51.1610 E38.0876
G1 X172.2210 Y51.1610 E38.1073
G1 X168.8390 Y47.7780 E38.2620
G1 X168.8390 Y48.3890 E38.2817
G1 X171.6110 Y51.1610 E38.4084
G1 X171.0000 Y51.1610 E38.4282
G1 X168.8390 Y49.0000 E38.5269
G1 X168.8390 Y49.6110 E38.5467
G1 X170.3890 Y51.1610 E38.6175
G1 X169.7780 Y51.1610 E38.6373
G1 X168.8390 Y50.2220 E38.6802
G1 X168.8390 Y50.8330 E38.6999
G1 X169.1670 Y51.1610 E38.7149
G92 E0.0000
G1 E-5 F2400 ; custom retraction

; square 5
;process Process
;layer 1, Z = 0.200
T0
G92 E0.0000
G1 E-5 F2400 ; custom retraction
;fan1;
G1 Z0.200 F1200
G1 X164.8520 Y166.4030 F6000
G1 E0 F2400 ; custom un-retraction/prime
G92 E0.0000
G1 X166.4030 Y164.8520 E0.0709 F1800
G1 X193.5970 Y164.8520 E0.9500
G1 X195.1480 Y166.4030 E1.0210
G1 X195.1480 Y193.5970 E1.9001
G1 X193.5970 Y195.1480 E1.9710
G1 X166.4030 Y195.1480 E2.8501
G1 X164.8520 Y193.5970 E2.9211
G1 X164.8520 Y166.4030 E3.8002
G92 E0.0000
G1 E-5 F2400 ; custom retraction
;zhop1
G1 X165.2840 Y166.5820 F6000
G1 Z0.200 F1200
G1 E0 F2400 ; custom un-retraction/prime
G92 E0.0000
G1 X166.5820 Y165.2840 E0.0593 F1800
G1 X193.4180 Y165.2840 E0.9269
G1 X194.7160 Y166.5820 E0.9863
G1 X194.7160 Y193.4180 E1.8538
G1 X193.4180 Y194.7160 E1.9132
G1 X166.5820 Y194.7160 E2.7807
G1 X165.2840 Y193.4180 E2.8401
G1 X165.2840 Y166.5820 E3.7076
G92 E0.0000
G1 E-5 F2400 ; custom retraction
;zhop1
G1 X167.7160 Y167.7160 F6000
G1 X167.7160 Y168.0560
G1 X168.5800 Y168.5800
G1 Z0.200 F1200
G1 E0 F2400 ; custom un-retraction/prime
G92 E0.0000
G1 X191.4200 Y168.5800 E0.7384 F1440
G1 X191.4200 Y191.4200 E1.4768
G1 X168.5800 Y191.4200 E2.2151
G1 X168.5800 Y168.5800 E2.9535
G1 X168.1480 Y168.1480 F6000
G92 E0.0000
G1 X191.8520 Y168.1480 E0.7663 F1440
G1 X191.8520 Y191.8520 E1.5326
G1 X168.1480 Y191.8520 E2.2989
G1 X168.1480 Y168.1480 E3.0652
G1 X167.7160 Y167.7160 F6000
G92 E0.0000
G1 X192.2840 Y167.7160 E0.7942 F1080
G1 X192.2840 Y192.2840 E1.5885
G1 X167.7160 Y192.2840 E2.3827
G1 X167.7160 Y167.7160 E3.1770
G1 X190.8330 Y168.8390 F6000
G92 E0.0000
G1 X191.1610 Y169.1670 E0.0150 F1440
G1 X191.1610 Y169.7780 E0.0347
G1 X190.2220 Y168.8390 E0.0776
G1 X189.6110 Y168.8390 E0.0974
G1 X191.1610 Y170.3890 E0.1682
G1 X191.1610 Y171.0000 E0.1880
G1 X189.0000 Y168.8390 E0.2867
G1 X188.3890 Y168.8390 E0.3065
G1 X191.1610 Y171.6110 E0.4332
G1 X191.1610 Y172.2210 E0.4529
G1 X187.7790 Y168.8390 E0.6076
G1 X187.1680 Y168.8390 E0.6273
G1 X191.1610 Y172.8320 E0.8099
G1 X191.1610 Y173.4430 E0.8296
G1 X186.5570 Y168.8390 E1.0401
G1 X185.9460 Y168.8390 E1.0599
G1 X191.1610 Y174.0540 E1.2983
G1 X191.1610 Y174.6650 E1.3180
G1 X185.3350 Y168.8390 E1.5844
G1 X184.7240 Y168.8390 E1.6041
G1 X191.1610 Y175.2760 E1.8984
G1 X191.1610 Y175.8870 E1.9182
G1 X184.1130 Y168.8390 E2.2404
G1 X183.5020 Y168.8390 E2.2602
G1 X191.1610 Y176.4980 E2.6103
G1 X191.1610 Y177.1090 E2.6301
G1 X182.8910 Y168.8390 E3.0082
G1 X182.2800 Y168.8390 E3.0279
G1 X191.1610 Y177.7200 E3.4339
G1 X191.1610 Y178.3310 E3.4537
G1 X181.6690 Y168.8390 E3.8876
G1 X181.0580 Y168.8390 E3.9074
G1 X191.1610 Y178.9420 E4.3693
G1 X191.1610 Y179.5530 E4.3890
G1 X180.4470 Y168.8390 E4.8788
G1 X179.8360 Y168.8390 E4.8986
G1 X191.1610 Y180.1640 E5.4163
G1 X191.1610 Y180.7750 E5.4361
G1 X179.2250 Y168.8390 E5.9818
G1 X178.6140 Y168.8390 E6.0015
G1 X191.1610 Y181.3860 E6.5751
G1 X191.1610 Y181.9970 E6.5949
G1 X178.0030 Y168.8390 E7.1964
G1 X177.3930 Y168.8390 E7.2162
G1 X191.1610 Y182.6070 E7.8456
G1 X191.1610 Y183.2180 E7.8654
G1 X176.7820 Y168.8390 E8.5228
G1 X176.1710 Y168.8390 E8.5425
G1 X191.1610 Y183.8290 E9.2279
G1 X191.1610 Y184.4400 E9.2476
G1 X175.5600 Y168.8390 E9.9609
G1 X174.9490 Y168.8390 E9.9807
G1 X191.1610 Y185.0510 E10.7219
G1 X191.1610 Y185.6620 E10.7416
G1 X174.3380 Y168.8390 E11.5108
G1 X173.7270 Y168.8390 E11.5305
G1 X191.1610 Y186.2730 E12.3276
G1 X191.1610 Y186.8840 E12.3473
G1 X173.1160 Y168.8390 E13.1723
G1 X172.5050 Y168.8390 E13.1921
G1 X191.1610 Y187.4950 E14.0450
G1 X191.1610 Y188.1060 E14.0648
G1 X171.8940 Y168.8390 E14.9456
G1 X171.2830 Y168.8390 E14.9654
G1 X191.1610 Y188.7170 E15.8742
G1 X191.1610 Y189.3280 E15.8939
G1 X170.6720 Y168.8390 E16.8307
G1 X170.0610 Y168.8390 E16.8504
G1 X191.1610 Y189.9390 E17.8151
G1 X191.1610 Y190.5500 E17.8348
G1 X169.4500 Y168.8390 E18.8274
G1 X168.8390 Y168.8390 E18.8472
G1 X191.1610 Y191.1610 E19.8677
G1 X190.5500 Y191.1610 E19.8874
G1 X168.8390 Y169.4500 E20.8800
G1 X168.8390 Y170.0610 E20.8998
G1 X189.9390 Y191.1610 E21.8644
G1 X189.3280 Y191.1610 E21.8842
G1 X168.8390 Y170.6720 E22.8209
G1 X168.8390 Y171.2830 E22.8407
G1 X188.7170 Y191.1610 E23.7495
G1 X188.1060 Y191.1610 E23.7692
G1 X168.8390 Y171.8940 E24.6501
G1 X168.8390 Y172.5050 E24.6698
G1 X187.4950 Y191.1610 E25.5228
G1 X186.8840 Y191.1610 E25.5425
G1 X168.8390 Y173.1160 E26.3675
G1 X168.8390 Y173.7270 E26.3873
G1 X186.2730 Y191.1610 E27.1844
G1 X185.6620 Y191.1610 E27.2041
G1 X168.8390 Y174.3380 E27.9732
G1 X168.8390 Y174.9490 E27.9930
G1 X185.0510 Y191.1610 E28.7342
G1 X184.4400 Y191.1610 E28.7540
G1 X168.8390 Y175.5600 E29.4672
G1 X168.8390 Y176.1710 E29.4870
G1 X183.8290 Y191.1610 E30.1723
G1 X183.2180 Y191.1610 E30.1921
G1 X168.8390 Y176.7820 E30.8495
G1 X168.8390 Y177.3930 E30.8692
G1 X182.6070 Y191.1610 E31.4987
G1 X181.9970 Y191.1610 E31.5185
G1 X168.8390 Y178.0030 E32.1200
G1 X168.8390 Y178.6140 E32.1398
G1 X181.3860 Y191.1610 E32.7134
G1 X180.7750 Y191.1610 E32.7331
G1 X168.8390 Y179.2250 E33.2788
G1 X168.8390 Y179.8360 E33.2985
G1 X180.1640 Y191.1610 E33.8163
G1 X179.5530 Y191.1610 E33.8360
G1 X168.8390 Y180.4470 E34.3259
G1 X168.8390 Y181.0580 E34.3456
G1 X178.9420 Y191.1610 E34.8075
G1 X178.3310 Y191.1610 E34.8272
G1 X168.8390 Y181.6690 E35.2612
G1 X168.8390 Y182.2800 E35.2810
G1 X177.7200 Y191.1610 E35.6870
G1 X177.1090 Y191.1610 E35.7067
G1 X168.8390 Y182.8910 E36.0848
G1 X168.8390 Y183.5020 E36.1046
G1 X176.4980 Y191.1610 E36.4547
G1 X175.8870 Y191.1610 E36.4745
G1 X168.8390 Y184.1130 E36.7967
G1 X168.8390 Y184.7240 E36.8164
G1 X175.2760 Y191.1610 E37.1107
G1 X174.6650 Y191.1610 E37.1305
G1 X168.8390 Y185.3350 E37.3968
G1 X168.8390 Y185.9460 E37.4166
G1 X174.0540 Y191.1610 E37.6550
G1 X173.4430 Y191.1610 E37.6748
G1 X168.8390 Y186.5570 E37.8853
G1 X168.8390 Y187.1680 E37.9050
G1 X172.8320 Y191.1610 E38.0876
G1 X172.2210 Y191.1610 E38.1073
G1 X168.8390 Y187.7780 E38.2620
G1 X168.8390 Y188.3890 E38.2817
G1 X171.6110 Y191.1610 E38.4084
G1 X171.0000 Y191.1610 E38.4282
G1 X168.8390 Y189.0000 E38.5269
G1 X168.8390 Y189.6110 E38.5467
G1 X170.3890 Y191.1610 E38.6175
G1 X169.7780 Y191.1610 E38.6373
G1 X168.8390 Y190.2220 E38.6802
G1 X168.8390 Y190.8330 E38.6999
G1 X169.1670 Y191.1610 E38.7149
G92 E0.0000
G1 E-5 F2400 ; custom retraction

G28 X0 ; home X axis
M106 S0 ; turn off cooling fan
M104 S0 ; turn off extruder
M140 S0 ; turn off bed
M84 ; disable motors
;customend
